(STAND_FINISH)
(T4 D=6. CR=3. - ZMIN=7.845 - BALL END MILL)
G90 G94 G91.1 G40 G49 G17
G21
G28 G91 Z0.
G90

(PARALLEL1)
T4 M6
S16000 M3
G17 G90 G94
G54
G0 X99.812 Y2.98
G43 Z60. H4
G0 Z39.127
G1 Z36.962 F360.
G18 G3 X99.046 Z36.385 I-0.6 K0. F1800.
G1 X98.874 Z36.434
G3 X98.44 Z37.011 I0.166 K0.577
G0 Z50.
X94.514 Y3.326
Z40.408
G1 Z38.138 F360.
G2 X95.052 Z37.541 I0.6 K0. F1800.
G1 X95.727 Z37.472
X96.974 Z37.265
X97.457 Z37.172
X98.58 Z36.901
X99.306 Z36.696
X100.024 Z36.468
X101.384 Z35.967
X102.497 Z35.465
G2 X102.92 Z35.739 I0.123 K0.274
G1 X102.928 Y3.327 Z35.847
X102.949 Y3.332 Z35.954
X102.985 Y3.34 Z36.056
X103.034 Y3.351 Z36.153
X103.095 Y3.365 Z36.242
X103.167 Y3.381 Z36.321
X103.25 Y3.399 Z36.39
X103.34 Y3.419 Z36.446
X103.438 Y3.441 Z36.49
X103.54 Y3.464 Z36.519
X103.645 Y3.487 Z36.534
X103.751 Y3.511
X103.857 Y3.534 Z36.519
X103.959 Y3.557 Z36.49
X104.056 Y3.578 Z36.446
X104.147 Y3.599 Z36.39
X104.229 Y3.617 Z36.321
X104.302 Y3.633 Z36.242
X104.363 Y3.647 Z36.153
X104.412 Y3.658 Z36.056
X104.447 Y3.665 Z35.954
X104.469 Y3.67 Z35.847
X104.476 Y3.672 Z35.739
Z35.335
G3 X104.034 Z35.071 I-0.3 K0.
G1 X103.045 Z35.602
X102.663 Z35.782
X101.969 Z36.096
X101.73 Z36.199
X100.7 Z36.609
X100.259 Z36.76
X99.258 Z37.082
X99.008 Z37.157
X98.499 Z37.286
X97.759 Z37.466
X97.504 Z37.523
X96.95 Z37.631
X96.237 Z37.751
X95.978 Z37.791
X95.483 Z37.855
X95.222 Z37.884
X94.339 Z37.964
X93.629 Z38.003
X93.566 Z38.004
X93.501 Z38.012
X93.44 Z38.035
X93.376 Z38.057
X93.308 Z38.065
X92.142
X92.112 Y3.673 Z38.066
X92.082 Y3.677 Z38.07
X92.054 Y3.683 Z38.077
X92.027 Y3.692 Z38.085
X92.001 Y3.702 Z38.096
X91.978 Y3.715 Z38.11
X91.957 Y3.73 Z38.125
X91.938 Y3.747 Z38.142
X91.923 Y3.764 Z38.16
X91.91 Y3.784 Z38.179
X91.902 Y3.803 Z38.2
X91.896 Y3.824 Z38.221
X91.894 Y3.845 Z38.242
X91.896 Y3.866 Z38.263
X91.902 Y3.886 Z38.284
X91.91 Y3.906 Z38.305
X91.923 Y3.925 Z38.324
X91.938 Y3.943 Z38.342
X91.957 Y3.96 Z38.359
X91.978 Y3.974 Z38.374
X92.001 Y3.987 Z38.387
X92.027 Y3.998 Z38.398
X92.054 Y4.007 Z38.407
X92.082 Y4.013 Z38.413
X92.112 Y4.017 Z38.417
X92.142 Y4.018 Z38.419
X92.209 Z38.411
X92.274 Z38.388
X92.317 Z38.371
X92.363 Z38.36
X92.409 Z38.357
X93.222 Z38.367
X94.122 Z38.317
X94.974 Z38.264
X96.447 Z38.072
X96.704 Z38.031
X97.708 Z37.826
X98.221 Z37.718
X98.475 Z37.653
X99.488 Z37.371
X99.738 Z37.295
X100.175 Z37.154
X100.917 Z36.893
X102.256 Z36.356
X103.143 Z35.927
X103.588 Z35.707
X104.05 Z35.458
X104.621 Z35.141
X105.177 Z34.794
X105.227 Z34.769
X105.28 Z34.754
X105.336 Z34.748
X106.313
X106.34 Y4.019
X106.367 Y4.024 Z34.745
X106.392 Y4.031 Z34.74
X106.417 Y4.041 Z34.733
X106.439 Y4.054 Z34.725
X106.459 Y4.069 Z34.715
X106.477 Y4.086 Z34.704
X106.492 Y4.104 Z34.692
X106.504 Y4.125 Z34.679
X106.513 Y4.146 Z34.665
X106.518 Y4.168 Z34.65
X106.52 Y4.191 Z34.636
X106.518 Y4.213 Z34.621
X106.513 Y4.236 Z34.607
X106.504 Y4.257 Z34.593
X106.492 Y4.277 Z34.579
X106.477 Y4.296 Z34.567
X106.459 Y4.313 Z34.556
X106.439 Y4.328 Z34.546
X106.417 Y4.341 Z34.538
X106.392 Y4.351 Z34.532
X106.367 Y4.358 Z34.527
X106.34 Y4.362 Z34.524
X106.313 Y4.364 Z34.523
X106.256 Z34.529
X106.201 Z34.545
X106.15 Z34.571
X105.711 Z34.856
X105.024 Z35.286
X103.863 Z35.947
X102.988 Z36.376
X102.752 Z36.49
X102.057 Z36.795
X101.575 Z37.001
X101.331 Z37.096
X99.961 Z37.58
X99.594 Z37.689
X98.525 Z37.984
X97.809 Z38.151
X96.997 Z38.313
X96.317 Z38.426
X96.058 Z38.466
X95.563 Z38.53
X94.55 Z38.63
X93.862 Z38.673
X92.792 Z38.699
X91.853 Z38.685
X91.44 Z38.667
X91.39 Z38.669
X91.341 Z38.679
X91.295 Z38.697
X91.23 Z38.72
X91.163 Z38.728
X90.335
X90.307 Y4.365 Z38.729
X90.279 Y4.37 Z38.732
X90.251 Y4.377 Z38.738
X90.226 Y4.387 Z38.746
X90.202 Y4.4 Z38.756
X90.18 Y4.415 Z38.767
X90.161 Y4.432 Z38.78
X90.146 Y4.45 Z38.795
X90.133 Y4.471 Z38.811
X90.124 Y4.492 Z38.828
X90.118 Y4.514 Z38.845
X90.116 Y4.537 Z38.862
X90.118 Y4.559 Z38.88
X90.124 Y4.582 Z38.897
X90.133 Y4.603 Z38.914
X90.146 Y4.623 Z38.93
X90.161 Y4.642 Z38.944
X90.18 Y4.659 Z38.957
X90.202 Y4.674 Z38.969
X90.226 Y4.687 Z38.979
X90.251 Y4.697 Z38.987
X90.279 Y4.704 Z38.992
X90.307 Y4.708 Z38.996
X90.335 Y4.71 Z38.997
X90.403 Z38.989
X90.467 Z38.966
X90.518 Z38.947
X90.571 Z38.937
X90.625
X90.908 Z38.961
X92.454 Z39.03
X93.628 Z39.004
X94.159 Z38.986
X94.42 Z38.967
X95.467 Z38.867
X95.988 Z38.807
X97.491 Z38.556
X98.922 Z38.219
X99.301 Z38.117
X100.527 Z37.732
X101.268 Z37.466
X101.752 Z37.278
X103.115 Z36.687
X104.343 Z36.052
X105.415 Z35.435
X106.49 Z34.726
X106.969 Z34.382
X107.023 Z34.351
X107.082 Z34.332
X107.144 Z34.326
X107.893
X107.92 Y4.712 Z34.325
X107.947 Y4.717 Z34.323
X107.973 Y4.725 Z34.318
X107.997 Y4.737 Z34.313
X108.019 Y4.752 Z34.306
X108.038 Y4.77 Z34.297
X108.055 Y4.789 Z34.288
X108.068 Y4.811 Z34.277
X108.077 Y4.834 Z34.266
X108.083 Y4.858 Z34.255
X108.085 Y4.883 Z34.243
X108.083 Y4.907 Z34.231
X108.077 Y4.932 Z34.219
X108.068 Y4.955 Z34.208
X108.055 Y4.976 Z34.198
X108.038 Y4.996 Z34.188
X108.019 Y5.014 Z34.18
X107.997 Y5.028 Z34.173
X107.973 Y5.04 Z34.167
X107.947 Y5.049 Z34.163
X107.92 Y5.054 Z34.16
X107.893 Y5.056 Z34.159
X107.829 Z34.166
X107.768 Z34.187
X107.712 Z34.22
X106.901 Z34.833
X105.999 Z35.431
X105.78 Z35.573
X104.678 Z36.235
X103.429 Z36.879
X102.528 Z37.296
X102.107 Z37.473
X100.827 Z37.967
X100.133 Z38.189
X99.656 Z38.337
X99.405 Z38.412
X98.898 Z38.549
X98.388 Z38.675
X98.133 Z38.735
X97.903 Z38.786
X97.129 Z38.94
X96.872 Z38.988
X96.353 Z39.07
X95.174 Z39.22
X94.552 Z39.269
X93.792 Z39.316
X93.395 Z39.332
X92.724 Z39.338
X91.987 Z39.329
X91.185 Z39.293
X90.57 Z39.247
X89.901 Z39.177
X89.845
X89.79 Z39.187
X89.737 Z39.206
X89.673 Z39.229
X89.605 Z39.237
X89.069
X89.041 Y5.057 Z39.238
X89.014 Y5.062 Z39.241
X88.988 Y5.069 Z39.246
X88.964 Y5.079 Z39.253
X88.941 Y5.092 Z39.262
X88.92 Y5.106 Z39.272
X88.902 Y5.124 Z39.284
X88.887 Y5.142 Z39.296
X88.875 Y5.163 Z39.31
X88.866 Y5.184 Z39.325
X88.861 Y5.206 Z39.34
X88.859 Y5.229 Z39.356
X88.861 Y5.251 Z39.371
X88.866 Y5.274 Z39.386
X88.875 Y5.295 Z39.401
X88.887 Y5.315 Z39.415
X88.902 Y5.334 Z39.428
X88.92 Y5.351 Z39.44
X88.941 Y5.366 Z39.45
X88.964 Y5.379 Z39.459
X88.988 Y5.389 Z39.465
X89.014 Y5.396 Z39.47
X89.041 Y5.4 Z39.473
X89.069 Y5.402 Z39.474
X89.136 Z39.467
X89.201 Z39.444
X89.258 Z39.423
X89.318 Z39.414
X89.379 Z39.417
X89.704 Z39.468
X90.436 Z39.546
X90.698 Z39.566
X91.7 Z39.633
X93.008 Z39.644
X93.545 Z39.637
X94.568 Z39.576
X95.222 Z39.523
X96.108 Z39.411
X96.628 Z39.34
X96.863 Z39.302
X97.919 Z39.094
X98.4 Z38.995
X99.447 Z38.714
X100.015 Z38.556
X101.171 Z38.164
X101.416 Z38.074
X101.906 Z37.884
X102.557 Z37.618
X103.585 Z37.141
X104.049 Z36.916
X104.979 Z36.41
X105.204 Z36.279
X106.193 Z35.682
X106.925 Z35.179
X107.35 Z34.879
X108.187 Z34.243
X108.39 Z34.085
X108.446 Z34.05
X108.509 Z34.028
X108.575 Z34.021
X109.189
X109.216 Y5.404 Z34.02
X109.242 Y5.409 Z34.018
X109.267 Y5.417 Z34.015
X109.29 Y5.429 Z34.01
X109.311 Y5.444 Z34.004
X109.33 Y5.462 Z33.997
X109.346 Y5.481 Z33.99
X109.358 Y5.503 Z33.981
X109.368 Y5.526 Z33.972
X109.373 Y5.55 Z33.963
X109.375 Y5.575 Z33.953
X109.373 Y5.599 Z33.944
X109.368 Y5.624 Z33.934
X109.358 Y5.647 Z33.925
X109.346 Y5.668 Z33.917
X109.33 Y5.688 Z33.909
X109.311 Y5.706 Z33.902
X109.29 Y5.72 Z33.896
X109.267 Y5.732 Z33.892
X109.242 Y5.741 Z33.888
X109.216 Y5.746 Z33.886
X109.189 Y5.748
X109.137 Z33.89
X109.086 Z33.904
X109.038 Z33.927
X108.995 Z33.957
X108.597 Z34.296
X107.792 Z34.928
X107.583 Z35.083
X106.497 Z35.833
X105.609 Z36.392
X105.184 Z36.635
X104.189 Z37.177
X103.493 Z37.52
X103.107 Z37.7
X102.868 Z37.804
X101.644 Z38.314
X100.441 Z38.73
X99.94 Z38.885
X99.436 Z39.03
X98.801 Z39.198
X97.932 Z39.4
X97.418 Z39.505
X96.01 Z39.734
X95.628 Z39.777
X94.581 Z39.878
X94.32 Z39.899
X93.923 Z39.916
X92.716 Z39.948
X91.924 Z39.934
X91.069 Z39.898
X90.569 Z39.855
X90.1 Z39.792
X89.518 Z39.687
X88.86 Z39.536
X88.793 Z39.528
X88.725 Z39.536
X88.661 Z39.559
X88.597 Z39.582
X88.529 Z39.59
X87.949
G17 G2 Y6.094 I0. J0.173
G1 X88.017 Z39.582
X88.081 Z39.559
X88.09 Z39.554
X88.142 Z39.535
X88.197 Z39.525
X88.252
X88.307 Z39.536
X88.341 Z39.544
X89.134 Z39.776
X89.707 Z39.923
X90.285 Z40.047
X90.868 Z40.145
X91.485 Z40.21
X92.368 Z40.238
X92.77 Z40.239
X94.094 Z40.2
X94.736 Z40.156
X95.259 Z40.106
X95.781 Z40.052
X96.172 Z40.001
X97.184 Z39.84
X97.78 Z39.73
X99.257 Z39.387
X100.594 Z38.986
X100.966 Z38.864
X102.049 Z38.462
X103.139 Z38.006
X103.494 Z37.841
X104.527 Z37.328
X105.046 Z37.048
X105.742 Z36.649
X106.783 Z35.992
X107.216 Z35.699
X107.921 Z35.192
X108.943 Z34.388
X109.565 Z33.855
X109.608 Z33.824
X109.656 Z33.801
X109.707 Z33.787
X109.76 Z33.783
X110.297
X110.323 Y6.096 Z33.782
X110.348 Y6.101 Z33.78
X110.372 Y6.109 Z33.778
X110.395 Y6.121 Z33.774
X110.416 Y6.136 Z33.769
X110.434 Y6.154 Z33.764
X110.45 Y6.173 Z33.758
X110.462 Y6.195 Z33.751
X110.471 Y6.218 Z33.744
X110.476 Y6.242 Z33.736
X110.478 Y6.267 Z33.728
X110.476 Y6.291 Z33.721
X110.471 Y6.316 Z33.713
X110.462 Y6.339 Z33.706
X110.45 Y6.36 Z33.699
X110.434 Y6.38 Z33.693
X110.416 Y6.398 Z33.687
X110.395 Y6.412 Z33.683
X110.372 Y6.424 Z33.679
X110.348 Y6.433 Z33.676
X110.323 Y6.438 Z33.675
X110.297 Y6.44 Z33.674
X110.243 Z33.679
X110.19 Z33.694
X110.142 Z33.718
X110.098 Z33.75
X109.27 Z34.486
X108.498 Z35.105
X108.103 Z35.403
X107.198 Z36.055
X106.597 Z36.45
X106.041 Z36.797
X105.041 Z37.375
X104.581 Z37.619
X103.876 Z37.97
X103.665 Z38.071
X102.49 Z38.596
X101.287 Z39.048
X101.04 Z39.136
X100.442 Z39.33
X99.813 Z39.52
X98.798 Z39.79
X98.159 Z39.936
X96.854 Z40.189
X96.22 Z40.275
X95.169 Z40.408
X93.564 Z40.509
X92.462 Z40.522
X92.011 Z40.506
X91.452 Z40.447
X90.985 Z40.372
X90.406 Z40.253
X89.718 Z40.078
X89.038 Z39.876
X88.141 Z39.577
X87.822 Z39.462
X87.764 Z39.448
X87.704 Z39.445
X87.645 Z39.455
X87.589 Z39.476
X87.525 Z39.498
X87.457 Z39.506
X86.927
X86.9 Y6.442 Z39.505
X86.873 Y6.447 Z39.503
X86.848 Y6.455 Z39.499
X86.824 Y6.467 Z39.493
X86.802 Y6.482 Z39.486
X86.783 Y6.5 Z39.478
X86.766 Y6.519 Z39.468
X86.753 Y6.541 Z39.458
X86.743 Y6.564 Z39.447
X86.738 Y6.588 Z39.435
X86.736 Y6.613 Z39.424
X86.738 Y6.637 Z39.412
X86.743 Y6.662 Z39.4
X86.753 Y6.685 Z39.389
X86.766 Y6.706 Z39.379
X86.783 Y6.726 Z39.37
X86.802 Y6.744 Z39.361
X86.824 Y6.758 Z39.354
X86.848 Y6.77 Z39.349
X86.873 Y6.779 Z39.345
X86.9 Y6.784 Z39.342
X86.927 Y6.786 Z39.341
X86.995 Z39.334
X87.059 Z39.311
X87.118 Z39.289
X87.18 Z39.28
X87.243 Z39.284
X87.303 Z39.302
X87.491 Z39.377
X88.594 Z39.802
X89.486 Z40.114
X90.277 Z40.357
X90.964 Z40.535
X91.543 Z40.654
X92.01 Z40.727
X92.54 Z40.781
X92.989 Z40.795
X93.52 Z40.785
X93.782 Z40.773
X94.772 Z40.712
X95.628 Z40.63
X96.605 Z40.502
X97.097 Z40.422
X97.871 Z40.274
X98.386 Z40.17
X98.626 Z40.115
X100.101 Z39.729
X100.887 Z39.47
X101.607 Z39.227
X101.914 Z39.112
X102.767 Z38.771
X103.522 Z38.436
X104.161 Z38.144
X105.392 Z37.493
X106.051 Z37.111
X106.415 Z36.894
X107.514 Z36.168
X107.995 Z35.825
X108.593 Z35.384
X109.594 Z34.566
X110.594 Z33.675
X110.638 Z33.642
X110.687 Z33.619
X110.74 Z33.604
X110.794 Z33.599
X111.271
X111.297 Y6.788 Z33.598
X111.322 Y6.793 Z33.597
X111.346 Y6.801 Z33.594
X111.368 Y6.813 Z33.591
X111.389 Y6.828 Z33.587
X111.407 Y6.845 Z33.581
X111.423 Y6.865 Z33.576
X111.435 Y6.887 Z33.569
X111.444 Y6.91 Z33.563
X111.449 Y6.934 Z33.556
X111.451 Y6.959 Z33.548
X111.449 Y6.983 Z33.541
X111.444 Y7.008 Z33.534
X111.435 Y7.031 Z33.528
X111.423 Y7.052 Z33.521
X111.407 Y7.072 Z33.515
X111.389 Y7.09 Z33.51
X111.368 Y7.104 Z33.506
X111.346 Y7.116 Z33.503
X111.322 Y7.125 Z33.5
X111.297 Y7.13 Z33.499
X111.271 Y7.132 Z33.498
X111.214 Z33.504
X111.159 Z33.52
X111.108 Z33.546
X111.063 Z33.582
X110.687 Z33.943
X109.909 Z34.655
X108.915 Z35.467
X107.873 Z36.25
X106.797 Z36.966
X105.636 Z37.669
X104.572 Z38.231
X104.102 Z38.46
X103.652 Z38.676
X103.235 Z38.866
X101.85 Z39.424
X101.466 Z39.561
X100.47 Z39.89
X99.548 Z40.157
X99.231 Z40.241
X98.976 Z40.303
X97.977 Z40.529
X97.72 Z40.584
X97.203 Z40.671
X96.191 Z40.834
X95.932 Z40.867
X94.376 Z41.014
X93.6 Z41.049
X93.131 Z41.043
X92.593 Z40.994
X92.125 Z40.925
X91.546 Z40.808
X90.859 Z40.63
X90.181 Z40.42
X89.4 Z40.145
X88.396 Z39.751
X86.971 Z39.148
X86.784 Z39.067
G18 G3 X86.532 Z39.072 I-0.12 K0.275
G1 X86.468 Z39.095
X86.4 Z39.103
X85.876
X85.846 Y7.133 Z39.102
X85.816 Y7.138 Z39.098
X85.788 Y7.145 Z39.091
X85.76 Y7.155 Z39.082
X85.735 Y7.168 Z39.071
X85.713 Y7.182 Z39.058
X85.693 Y7.199 Z39.043
X85.676 Y7.218 Z39.026
X85.662 Y7.239 Z39.008
X85.653 Y7.26 Z38.989
X85.647 Y7.282 Z38.97
X85.645 Y7.305 Z38.95
X85.647 Y7.327 Z38.93
X85.653 Y7.35 Z38.91
X85.662 Y7.371 Z38.891
X85.676 Y7.391 Z38.873
X85.693 Y7.41 Z38.856
X85.713 Y7.427 Z38.841
X85.735 Y7.442 Z38.828
X85.76 Y7.455 Z38.817
X85.788 Y7.465 Z38.808
X85.816 Y7.472 Z38.801
X85.846 Y7.476 Z38.798
X85.876 Y7.478 Z38.796
X85.944 Z38.789
X86.008 Z38.766
G2 X86.265 Z38.762 I0.132 K0.269
G1 X88.091 Z39.598
X89.173 Z40.072
X90.051 Z40.424
X90.831 Z40.703
X91.509 Z40.912
X92.155 Z41.075
X92.779 Z41.194
X93.248 Z41.254
X93.769 Z41.289
X94.233 Z41.281
X94.659 Z41.252
X95.581 Z41.165
X96.363 Z41.069
X97.213 Z40.936
X97.922 Z40.805
X98.986 Z40.568
X99.447 Z40.456
X100.982 Z40.005
X102.21 Z39.563
X102.85 Z39.307
X103.454 Z39.05
X103.691 Z38.943
X104.615 Z38.5
X104.994 Z38.311
X105.955 Z37.779
X107.125 Z37.071
X108.156 Z36.36
X108.366 Z36.207
X109.307 Z35.496
X110.208 Z34.732
X110.401 Z34.558
X111.13 Z33.885
X111.506 Z33.512
X111.551 Z33.475
X111.603 Z33.448
X111.659 Z33.431
X111.717 Z33.425
X112.133
X112.159 Y7.48
X112.183 Y7.485 Z33.424
X112.207 Y7.493 Z33.422
X112.229 Y7.505 Z33.42
X112.249 Y7.52 Z33.417
X112.267 Y7.537 Z33.414
X112.282 Y7.557 Z33.41
X112.294 Y7.579 Z33.405
X112.303 Y7.602 Z33.401
X112.308 Y7.626 Z33.396
X112.31 Y7.651 Z33.391
X112.308 Y7.675 Z33.386
X112.303 Y7.7 Z33.381
X112.294 Y7.723 Z33.377
X112.282 Y7.744 Z33.372
X112.267 Y7.764 Z33.368
X112.249 Y7.782 Z33.365
X112.229 Y7.796 Z33.362
X112.207 Y7.808 Z33.36
X112.183 Y7.817 Z33.358
X112.159 Y7.822 Z33.357
X112.133 Y7.824
X112.074 Z33.363
X112.016 Z33.38
X111.963 Z33.409
X111.918 Z33.448
X111.552 Z33.827
X111.18 Z34.187
X110.524 Z34.792
X109.533 Z35.632
X108.703 Z36.279
X108.387 Z36.506
X107.545 Z37.09
X106.775 Z37.585
X106.441 Z37.791
X105.987 Z38.048
X105.298 Z38.432
X105.068 Z38.555
X104.364 Z38.906
X103.854 Z39.147
X102.588 Z39.693
X101.479 Z40.097
X101.232 Z40.184
X100.507 Z40.415
X100.003 Z40.563
X99.496 Z40.697
X98.636 Z40.914
X98.22 Z41.001
X96.896 Z41.252
X95.365 Z41.448
X94.777 Z41.498
X94.35 Z41.516
X93.931 Z41.499
X93.431 Z41.449
X92.878 Z41.355
X92.416 Z41.251
X91.845 Z41.095
X91.171 Z40.873
X90.507 Z40.622
X89.743 Z40.301
X88.776 Z39.858
X87.083 Z39.047
X85.746 Z38.44
G3 X85.49 Z38.444 I-0.124 K0.273
G1 X85.426 Z38.467
X85.358 Z38.475
X84.844
X84.816 Y7.825 Z38.474
X84.789 Y7.829 Z38.47
X84.762 Y7.835 Z38.465
X84.736 Y7.844 Z38.457
X84.712 Y7.854 Z38.447
X84.69 Y7.867 Z38.435
X84.67 Y7.882 Z38.422
X84.652 Y7.898 Z38.407
X84.638 Y7.916 Z38.391
X84.626 Y7.935 Z38.374
X84.618 Y7.955 Z38.355
X84.613 Y7.976 Z38.337
X84.611 Y7.997 Z38.318
X84.613 Y8.018 Z38.299
X84.618 Y8.038 Z38.28
X84.626 Y8.058 Z38.262
X84.638 Y8.077 Z38.245
X84.652 Y8.095 Z38.229
X84.67 Y8.111 Z38.214
X84.69 Y8.126 Z38.2
X84.712 Y8.139 Z38.189
X84.736 Y8.15 Z38.179
X84.762 Y8.159 Z38.171
X84.789 Y8.165 Z38.165
X84.816 Y8.168 Z38.162
X84.844 Y8.17 Z38.161
X84.912 Z38.153
X84.976 Z38.13
G2 X85.227 Z38.124 I0.132 K0.269
G1 X85.407 Z38.201
X86.845 Z38.846
X88.007 Z39.396
X89.501 Z40.14
X90.354 Z40.548
X91.06 Z40.854
X91.75 Z41.12
X92.425 Z41.342
X93.025 Z41.503
X93.488 Z41.6
X93.956 Z41.673
X94.427 Z41.715
X94.896 Z41.726
X95.288 Z41.702
X95.859 Z41.636
X96.641 Z41.533
X96.9 Z41.492
X97.418 Z41.407
X98.193 Z41.259
X98.706 Z41.149
X98.961 Z41.088
X100.216 Z40.764
X101.457 Z40.365
X101.952 Z40.194
X102.907 Z39.824
X103.148 Z39.723
X103.63 Z39.514
X104.228 Z39.25
X105.398 Z38.657
X105.974 Z38.343
X106.625 Z37.966
X107.706 Z37.28
X108.193 Z36.947
X108.805 Z36.507
X109.845 Z35.696
X110.045 Z35.529
X110.814 Z34.865
X111.738 Z33.986
X112.314 Z33.394
X112.36 Z33.355
X112.413 Z33.326
X112.47 Z33.309
X112.529 Z33.303
X112.911
X112.936 Y8.172 Z33.302
X112.961 Y8.177 Z33.301
X112.984 Y8.185 Z33.3
X113.006 Y8.197 Z33.298
X113.026 Y8.212 Z33.296
X113.044 Y8.229 Z33.293
X113.059 Y8.249 Z33.29
X113.071 Y8.271 Z33.286
X113.079 Y8.294 Z33.282
X113.085 Y8.318 Z33.278
X113.087 Y8.343 Z33.274
X113.085 Y8.367 Z33.27
X113.079 Y8.391 Z33.267
X113.071 Y8.415 Z33.263
X113.059 Y8.436 Z33.259
X113.044 Y8.456 Z33.256
X113.026 Y8.473 Z33.253
X113.006 Y8.488 Z33.251
X112.984 Y8.5 Z33.249
X112.961 Y8.509 Z33.247
X112.936 Y8.514
X112.911 Y8.516 Z33.246
X112.851 Z33.253
X112.792 Z33.271
X112.739 Z33.301
X112.693 Z33.34
X112.063 Z34.008
X111.212 Z34.822
X110.627 Z35.341
X110.253 Z35.671
X109.954 Z35.918
X109.232 Z36.486
X108.407 Z37.086
X108.194 Z37.24
X107.762 Z37.531
X107.099 Z37.955
X106.877 Z38.09
X105.97 Z38.621
X105.743 Z38.75
X105.277 Z38.99
X104.544 Z39.359
X103.425 Z39.872
X102.404 Z40.275
X101.939 Z40.454
X101.443 Z40.624
X100.718 Z40.858
X99.736 Z41.141
X99.1 Z41.302
X97.779 Z41.591
X96.115 Z41.853
X95.511 Z41.917
X95.079 Z41.925
X94.604 Z41.9
X94.106 Z41.835
X93.641 Z41.746
X93.067 Z41.601
X92.502 Z41.424
X91.947 Z41.219
X91.292 Z40.944
X90.543 Z40.59
X88.767 Z39.678
X87.397 Z39.012
X85.724 Z38.25
X84.708 Z37.812
G3 X84.457 Z37.819 I-0.119 K0.276
G1 X84.393 Z37.841
X84.325 Z37.849
X83.811
X83.781 Y8.517 Z37.848
X83.751 Y8.522 Z37.844
X83.723 Y8.529 Z37.838
X83.696 Y8.539 Z37.829
X83.671 Y8.551 Z37.818
X83.649 Y8.566 Z37.805
X83.629 Y8.583 Z37.791
X83.612 Y8.602 Z37.774
X83.599 Y8.623 Z37.757
X83.59 Y8.644 Z37.738
X83.584 Y8.666 Z37.719
X83.582 Y8.689 Z37.699
X83.584 Y8.711 Z37.68
X83.59 Y8.734 Z37.661
X83.599 Y8.755 Z37.642
X83.612 Y8.775 Z37.624
X83.629 Y8.794 Z37.608
X83.649 Y8.811 Z37.593
X83.671 Y8.826 Z37.58
X83.696 Y8.839 Z37.569
X83.723 Y8.849 Z37.561
X83.751 Y8.856 Z37.555
X83.781 Y8.86 Z37.551
X83.811 Y8.862 Z37.549
X83.878 Z37.542
X83.943 Z37.519
X84.002 Z37.497
X84.065 Z37.488
X84.128 Z37.493
X84.189 Z37.511
X84.485 Z37.632
X85.693 Z38.147
X87.129 Z38.796
X88.29 Z39.352
X89.463 Z39.94
X91.252 Z40.884
X91.892 Z41.192
X92.437 Z41.425
X92.991 Z41.633
X93.552 Z41.81
X94.13 Z41.954
X94.596 Z42.039
X95.065 Z42.095
X95.437 Z42.114
X95.834 Z42.108
X96.16 Z42.082
X97.329 Z41.903
X98.077 Z41.766
X99.296 Z41.496
X99.676 Z41.399
X101.015 Z41.016
X102.278 Z40.576
X102.866 Z40.35
X103.593 Z40.05
X103.832 Z39.944
X104.991 Z39.406
X106.103 Z38.812
X107.263 Z38.134
X108.356 Z37.409
X108.569 Z37.259
X109.431 Z36.633
X110.438 Z35.816
X111.451 Z34.926
X112.309 Z34.084
X113.04 Z33.307
X113.086 Z33.267
X113.139 Z33.238
X113.198 Z33.219
X113.258 Z33.213
X113.606
X113.631 Y8.863
X113.655 Y8.869 Z33.212
X113.678 Y8.877 Z33.211
X113.7 Y8.889 Z33.21
X113.72 Y8.904 Z33.208
X113.738 Y8.921 Z33.206
X113.753 Y8.941 Z33.204
X113.764 Y8.963 Z33.202
X113.773 Y8.986 Z33.199
X113.778 Y9.01 Z33.196
X113.78 Y9.035 Z33.194
X113.778 Y9.059 Z33.191
X113.773 Y9.083 Z33.188
X113.764 Y9.107 Z33.186
X113.753 Y9.128 Z33.183
X113.738 Y9.148 Z33.181
X113.72 Y9.165 Z33.179
X113.7 Y9.18 Z33.177
X113.678 Y9.192 Z33.176
X113.655 Y9.201 Z33.175
X113.631 Y9.206
X113.606 Y9.208 Z33.174
X113.545 Z33.181
X113.486 Z33.199
X113.433 Z33.229
X113.387 Z33.27
X112.671 Z34.038
X111.762 Z34.938
X110.943 Z35.686
X110.597 Z35.979
X109.717 Z36.692
X108.733 Z37.429
X107.69 Z38.125
X107.023 Z38.538
X106.575 Z38.81
X106.117 Z39.061
X105.213 Z39.543
X104.41 Z39.932
X103.933 Z40.148
X102.669 Z40.676
X101.362 Z41.137
X100.548 Z41.39
X99.879 Z41.578
X98.667 Z41.877
X98.346 Z41.942
X96.935 Z42.202
X96.432 Z42.27
X96.039 Z42.295
X95.651 Z42.289
X95.178 Z42.247
X94.71 Z42.173
X94.248 Z42.07
X93.792 Z41.941
X93.232 Z41.748
X92.683 Z41.526
X92.145 Z41.277
X91.514 Z40.949
X90.152 Z40.207
X88.751 Z39.486
X87.356 Z38.811
X85.921 Z38.158
X84.471 Z37.538
X83.67 Z37.213
X83.609 Z37.196
X83.546 Z37.191
X83.484 Z37.2
X83.425 Z37.222
X83.36 Z37.245
X83.293 Z37.252
X82.775
X82.746 Y9.209 Z37.251
X82.717 Y9.214 Z37.247
X82.689 Y9.221 Z37.241
X82.662 Y9.231 Z37.233
X82.638 Y9.243 Z37.222
X82.616 Y9.258 Z37.21
X82.596 Y9.275 Z37.196
X82.58 Y9.294 Z37.18
X82.567 Y9.315 Z37.163
X82.557 Y9.336 Z37.145
X82.551 Y9.358 Z37.126
X82.549 Y9.381 Z37.107
X82.551 Y9.403 Z37.088
X82.557 Y9.425 Z37.07
X82.567 Y9.447 Z37.052
X82.58 Y9.467 Z37.035
X82.596 Y9.486 Z37.019
X82.616 Y9.503 Z37.004
X82.638 Y9.518 Z36.992
X82.662 Y9.531 Z36.981
X82.689 Y9.541 Z36.973
X82.717 Y9.548 Z36.967
X82.746 Y9.552 Z36.963
X82.775 Y9.554 Z36.962
X82.843 Z36.954
X82.907 Z36.931
X82.966 Z36.91
X83.028 Z36.901
X83.09 Z36.905
X83.151 Z36.922
X84.387 Z37.416
X85.838 Z38.032
X87.274 Z38.682
X88.457 Z39.251
X89.629 Z39.843
X90.789 Z40.457
X92.036 Z41.152
X92.643 Z41.477
X93.179 Z41.73
X93.728 Z41.954
X94.176 Z42.11
X94.631 Z42.242
X95.093 Z42.346
X95.575 Z42.423
X96.048 Z42.461
X96.45 Z42.465
X96.842 Z42.435
X97.231 Z42.376
X97.98 Z42.237
X98.469 Z42.143
X98.981 Z42.029
X100.263 Z41.707
X101.509 Z41.319
X102.006 Z41.153
X102.989 Z40.783
X103.232 Z40.684
X104.199 Z40.275
X104.435 Z40.166
X105.472 Z39.657
X106.052 Z39.352
X106.725 Z38.975
X107.859 Z38.282
X108.187 Z38.067
X108.943 Z37.544
X109.153 Z37.391
X109.972 Z36.774
X110.277 Z36.531
X110.961 Z35.959
X111.156 Z35.788
X111.933 Z35.08
X112.101 Z34.919
X112.776 Z34.25
X113.022 Z33.989
X113.711 Z33.232
X113.726 Z33.216
X113.772 Z33.174
X113.826 Z33.143
X113.886 Z33.124
X113.948 Z33.117
X114.236 Z33.118
G17 G3 Y9.9 I0. J0.173
G1 X114.174 Z33.124
X114.115 Z33.143
X114.061 Z33.174
X114.015 Z33.216
X113.119 Z34.198
X112.222 Z35.107
X111.461 Z35.804
X111.267 Z35.977
X110.483 Z36.638
X110.283 Z36.804
X109.659 Z37.284
X109.233 Z37.6
X108.167 Z38.338
X107.516 Z38.749
X107.011 Z39.055
X105.833 Z39.716
X105.249 Z40.008
X104.801 Z40.228
X104.565 Z40.339
X103.449 Z40.834
X102.161 Z41.324
X101.666 Z41.496
X100.617 Z41.824
X99.613 Z42.098
X99.167 Z42.207
X97.796 Z42.498
X97.197 Z42.598
X96.871 Z42.623
X96.474 Z42.627
X96.104 Z42.605
X95.635 Z42.542
X95.171 Z42.448
X94.714 Z42.323
X94.264 Z42.173
X93.714 Z41.952
X93.177 Z41.698
X92.604 Z41.387
X91.229 Z40.605
X89.842 Z39.861
X88.672 Z39.265
X87.276 Z38.593
X85.84 Z37.944
X84.633 Z37.428
X83.169 Z36.842
X82.631 Z36.639
X82.572 Z36.623
X82.511 Z36.62
X82.451 Z36.629
X82.393 Z36.65
X82.329 Z36.673
X82.261 Z36.681
X81.743
X81.713 Y9.901 Z36.679
X81.685 Y9.906 Z36.676
X81.657 Y9.913 Z36.67
X81.631 Y9.923 Z36.662
X81.607 Y9.935 Z36.652
X81.585 Y9.95 Z36.64
X81.566 Y9.967 Z36.626
X81.55 Y9.986 Z36.611
X81.537 Y10.007 Z36.594
X81.528 Y10.028 Z36.577
X81.522 Y10.05 Z36.559
X81.52 Y10.073 Z36.541
X81.522 Y10.095 Z36.522
X81.528 Y10.117 Z36.504
X81.537 Y10.139 Z36.487
X81.55 Y10.159 Z36.471
X81.566 Y10.178 Z36.455
X81.585 Y10.195 Z36.442
X81.607 Y10.21 Z36.43
X81.631 Y10.223 Z36.419
X81.657 Y10.233 Z36.411
X81.685 Y10.24 Z36.405
X81.713 Y10.244 Z36.402
X81.743 Y10.246 Z36.401
X81.81 Z36.393
X81.875 Z36.37
X81.932 Z36.349
X81.992 Z36.34
X82.053 Z36.343
X82.112 Z36.359
X83.371 Z36.833
X84.59 Z37.323
X86.041 Z37.942
X87.236 Z38.485
X88.658 Z39.167
X89.828 Z39.762
X90.986 Z40.381
X91.903 Z40.892
X93.083 Z41.576
X93.615 Z41.872
X94.042 Z42.081
X94.478 Z42.268
X94.924 Z42.43
X95.378 Z42.566
X95.84 Z42.673
X96.308 Z42.745
X96.758 Z42.782
X97.18 Z42.779
X97.572 Z42.745
X97.862 Z42.699
X99.09 Z42.438
X99.536 Z42.335
X101.068 Z41.912
X102.311 Z41.491
X102.556 Z41.402
X102.986 Z41.239
X103.661 Z40.968
X104.985 Z40.378
X105.837 Z39.942
X106.3 Z39.698
X107.339 Z39.109
X108.557 Z38.327
X109.543 Z37.637
X110.571 Z36.836
X111.566 Z36.
X112.49 Z35.132
X113.363 Z34.247
X113.847 Z33.716
X114.318 Z33.178
X114.334 Z33.16
X114.381 Z33.116
X114.436 Z33.084
X114.496 Z33.064
X114.56 Z33.057
X114.826
X114.851 Y10.247
X114.875 Y10.253
X114.898 Y10.261
X114.92 Y10.273
X114.94 Y10.288
X114.957 Y10.305 Z33.056
X114.972 Y10.325
X114.984 Y10.347
X114.992 Y10.37
X114.998 Y10.394
X114.999 Y10.419 Z33.055
X114.998 Y10.443
X114.992 Y10.467
X114.984 Y10.491
X114.972 Y10.512 Z33.054
X114.957 Y10.532
X114.94 Y10.549
X114.92 Y10.564
X114.898 Y10.576
X114.875 Y10.585
X114.851 Y10.59
X114.826 Y10.592
G18 G3 X114.598 Z33.16 I0. K0.3
G1 X114.431 Z33.355
X113.736 Z34.144
X113.299 Z34.607
X112.85 Z35.066
X112.092 Z35.784
X111.709 Z36.135
X110.917 Z36.823
X109.817 Z37.681
X108.825 Z38.398
X107.746 Z39.092
X106.869 Z39.614
X106.414 Z39.87
X105.241 Z40.475
X104.529 Z40.81
X103.959 Z41.062
X102.676 Z41.58
X101.307 Z42.045
X100.575 Z42.264
X99.841 Z42.464
X98.947 Z42.68
X98.402 Z42.798
X97.919 Z42.888
X97.512 Z42.928
X97.129 Z42.93
X96.768 Z42.908
X96.415 Z42.864
X95.951 Z42.772
X95.493 Z42.649
X95.044 Z42.496
X94.604 Z42.316
X94.175 Z42.112
X93.655 Z41.826
X92.445 Z41.11
X91.304 Z40.461
X89.914 Z39.715
X88.745 Z39.118
X87.326 Z38.436
X86.13 Z37.892
X84.681 Z37.273
X83.217 Z36.689
X81.987 Z36.229
X81.593 Z36.088
X81.535 Z36.074
X81.476 Z36.071
X81.416 Z36.08
X81.36 Z36.101
X81.296 Z36.124
X81.228 Z36.132
X80.71
X80.681 Y10.593 Z36.131
X80.653 Y10.598 Z36.127
X80.626 Y10.605 Z36.122
X80.601 Y10.615 Z36.114
X80.577 Y10.627 Z36.104
X80.555 Y10.642 Z36.093
X80.536 Y10.659 Z36.079
X80.521 Y10.678 Z36.065
X80.508 Y10.698 Z36.049
X80.499 Y10.72 Z36.033
X80.493 Y10.742 Z36.016
X80.491 Y10.765 Z35.998
X80.493 Y10.787 Z35.981
X80.499 Y10.809 Z35.964
X80.508 Y10.831 Z35.947
X80.521 Y10.851 Z35.931
X80.536 Y10.87 Z35.917
X80.555 Y10.887 Z35.904
X80.577 Y10.902 Z35.892
X80.601 Y10.915 Z35.882
X80.626 Y10.925 Z35.875
X80.653 Y10.932 Z35.869
X80.681 Y10.936 Z35.866
X80.71 Y10.938 Z35.865
X80.778 Z35.857
X80.842 Z35.834
X80.898 Z35.813
X80.957 Z35.804
X81.016 Z35.806
X81.074 Z35.821
X81.91 Z36.118
X83.388 Z36.67
X84.606 Z37.158
X86.058 Z37.775
X87.492 Z38.426
X88.675 Z38.997
X90.078 Z39.711
X91.233 Z40.334
X92.606 Z41.112
X93.985 Z41.936
X94.448 Z42.204
X94.872 Z42.418
X95.272 Z42.592
X95.755 Z42.767
X96.211 Z42.898
X96.675 Z42.994
X97.026 Z43.044
X97.396 Z43.07
X97.793 Z43.069
X98.12 Z43.045
X98.443 Z42.993
X98.827 Z42.911
X100.247 Z42.567
X101.337 Z42.239
X101.812 Z42.09
X102.061 Z42.006
X102.899 Z41.7
X103.485 Z41.469
X104.295 Z41.136
X105.495 Z40.569
X106.055 Z40.284
X106.748 Z39.91
X107.856 Z39.258
X108.077 Z39.121
X108.407 Z38.908
X109.144 Z38.411
X109.357 Z38.257
X110.203 Z37.641
X110.512 Z37.398
X111.212 Z36.828
X112.183 Z35.976
X112.754 Z35.435
X113.124 Z35.07
X113.65 Z34.518
X114.005 Z34.139
X114.701 Z33.351
X114.865 Z33.154
X114.882 Z33.133
G2 X115.113 Z33.025 I0.23 K0.192
G1 X115.357
X115.382 Y10.939
X115.406 Y10.945
X115.429 Y10.953
X115.451 Y10.965
X115.471 Y10.98 Z33.024
X115.488 Y10.997
X115.503 Y11.017
X115.515 Y11.039
X115.523 Y11.062
X115.529 Y11.086 Z33.023
X115.53 Y11.111
X115.529 Y11.135
X115.523 Y11.159
X115.515 Y11.183
X115.503 Y11.204 Z33.022
X115.488 Y11.224
X115.471 Y11.241
X115.451 Y11.256
X115.429 Y11.268
X115.406 Y11.277
X115.382 Y11.282
X115.357 Y11.284
G3 X115.124 Z33.133 I0. K0.3
G1 X114.961 Z33.335
X114.179 Z34.242
X113.397 Z35.063
X113.215 Z35.247
X112.462 Z35.98
X112.176 Z36.243
X111.485 Z36.849
X110.879 Z37.344
X110.491 Z37.658
X110.03 Z38.01
X109.463 Z38.422
X109.25 Z38.571
X108.398 Z39.141
X108.18 Z39.283
X107.62 Z39.625
X107.02 Z39.976
X105.837 Z40.618
X104.767 Z41.129
X104.288 Z41.34
X103.565 Z41.651
X103.074 Z41.838
X102.113 Z42.192
X101.741 Z42.317
X100.58 Z42.669
X99.685 Z42.906
X98.79 Z43.118
X98.468 Z43.172
X98.076 Z43.205
X97.679 Z43.206
X97.31 Z43.176
X96.959 Z43.125
X96.61 Z43.053
X96.153 Z42.926
X95.706 Z42.767
X95.269 Z42.578
X94.845 Z42.363
X94.435 Z42.122
X92.885 Z41.184
X91.519 Z40.4
X90.155 Z39.663
X88.752 Z38.948
X87.33 Z38.266
X86.135 Z37.723
X84.684 Z37.105
X83.465 Z36.616
X81.99 Z36.063
X80.555 Z35.559
X80.497 Z35.545
X80.438 Z35.542
X80.379 Z35.552
X80.324 Z35.573
X80.259 Z35.595
X80.192 Z35.603
X79.676
X79.648 Y11.285 Z35.602
X79.621 Y11.29 Z35.599
X79.594 Y11.297 Z35.593
X79.569 Y11.307 Z35.586
X79.546 Y11.319 Z35.577
X79.525 Y11.334 Z35.566
X79.506 Y11.351 Z35.553
X79.49 Y11.37 Z35.54
X79.478 Y11.39 Z35.525
X79.469 Y11.412 Z35.509
X79.463 Y11.434 Z35.493
X79.462 Y11.457 Z35.476
X79.463 Y11.479 Z35.459
X79.469 Y11.501 Z35.443
X79.478 Y11.523 Z35.427
X79.49 Y11.543 Z35.412
X79.506 Y11.562 Z35.399
X79.525 Y11.579 Z35.386
X79.546 Y11.594 Z35.375
X79.569 Y11.606 Z35.366
X79.594 Y11.617 Z35.359
X79.621 Y11.624 Z35.353
X79.648 Y11.628 Z35.35
X79.676 Y11.63 Z35.349
X79.744 Z35.341
X79.808 Z35.318
X79.863 Z35.298
X79.921 Z35.288
X79.979 Z35.29
X80.036 Z35.303
X80.525 Z35.468
X82.013 Z35.988
X83.488 Z36.541
X84.707 Z37.031
X86.158 Z37.648
X87.353 Z38.191
X88.775 Z38.872
X90.178 Z39.587
X91.31 Z40.198
X92.683 Z40.976
X93.81 Z41.648
X95.006 Z42.387
X95.422 Z42.619
X95.851 Z42.823
X96.293 Z42.997
X96.632 Z43.106
X96.976 Z43.196
X97.361 Z43.272
X97.794 Z43.323
X98.175 Z43.338
X98.571 Z43.322
X98.959 Z43.268
X99.471 Z43.155
X100.867 Z42.782
X101.119 Z42.71
X101.369 Z42.63
X102.273 Z42.332
X103.081 Z42.038
X103.57 Z41.848
X103.811 Z41.748
X104.535 Z41.435
X105.073 Z41.198
X106.137 Z40.668
X107.334 Z40.018
X108.458 Z39.324
X108.873 Z39.05
X109.578 Z38.574
X110.344 Z38.001
X110.759 Z37.684
X111.639 Z36.969
X112.139 Z36.52
X112.698 Z36.012
X113.263 Z35.461
X113.633 Z35.096
X114.347 Z34.327
X114.518 Z34.134
X115.203 Z33.336
X115.366 Z33.133
X115.373 Z33.124
G2 X115.607 Z33.013 I0.233 K0.189
G1 X115.841
X115.865 Y11.631
X115.89 Y11.637
X115.913 Y11.645
X115.934 Y11.657
X115.954 Y11.672
X115.972 Y11.689
X115.986 Y11.709
X115.998 Y11.731
X116.007 Y11.754
X116.012 Y11.778
X116.014 Y11.803
X116.012 Y11.827
X116.007 Y11.851
X115.998 Y11.875
X115.986 Y11.896
X115.972 Y11.916
X115.954 Y11.933
X115.934 Y11.948
X115.913 Y11.96
X115.89 Y11.969
X115.865 Y11.974
X115.841 Y11.976
G3 X115.608 Z33.124 I0. K0.3
G1 X115.28 Z33.529
X114.767 Z34.127
X114.596 Z34.321
X113.882 Z35.093
X113.703 Z35.279
X113.072 Z35.908
X112.79 Z36.176
X112.029 Z36.863
X111.834 Z37.033
X110.978 Z37.749
X110.007 Z38.482
X109.796 Z38.635
X108.812 Z39.318
X107.823 Z39.931
X107.6 Z40.066
X106.652 Z40.604
X106.246 Z40.815
X105.188 Z41.342
X104.617 Z41.601
X104.134 Z41.81
X103.893 Z41.911
X102.67 Z42.39
X101.423 Z42.802
X100.921 Z42.954
X100.415 Z43.094
X99.398 Z43.359
X99.142 Z43.409
X98.752 Z43.451
X98.355 Z43.46
X97.969 Z43.437
X97.617 Z43.389
X97.269 Z43.319
X96.924 Z43.227
X96.475 Z43.074
X96.037 Z42.888
X95.613 Z42.671
X95.205 Z42.425
X94.115 Z41.742
X92.764 Z40.933
X91.395 Z40.156
X90.029 Z39.423
X88.86 Z38.827
X87.438 Z38.144
X86.243 Z37.6
X84.794 Z36.982
X83.329 Z36.398
X81.852 Z35.848
X80.362 Z35.332
X79.517 Z35.052
X79.46 Z35.039
X79.402 Z35.037
X79.345 Z35.046
X79.291 Z35.067
X79.226 Z35.09
X79.158 Z35.097
X78.631
X78.603 Y11.977 Z35.096
X78.576 Y11.982 Z35.093
X78.549 Y11.989 Z35.088
X78.524 Y11.999 Z35.081
X78.501 Y12.011 Z35.071
X78.48 Y12.026 Z35.061
X78.461 Y12.043 Z35.048
X78.446 Y12.062 Z35.034
X78.433 Y12.082 Z35.02
X78.424 Y12.104 Z35.004
X78.419 Y12.126 Z34.988
X78.417 Y12.149 Z34.971
X78.419 Y12.171 Z34.955
X78.424 Y12.193 Z34.939
X78.433 Y12.215 Z34.923
X78.446 Y12.235 Z34.908
X78.461 Y12.254 Z34.895
X78.48 Y12.271 Z34.882
X78.501 Y12.286 Z34.871
X78.524 Y12.298 Z34.862
X78.549 Y12.308 Z34.855
X78.576 Y12.316 Z34.849
X78.603 Y12.32 Z34.846
X78.631 Y12.322 Z34.845
X78.699 Z34.837
X78.763 Z34.815
X78.82 Z34.794
X78.879 Z34.784
X78.94 Z34.787
X78.998 Z34.802
X79.046 Z34.819
X80.52 Z35.303
X82.009 Z35.821
X83.486 Z36.374
X84.949 Z36.96
X86.156 Z37.477
X87.591 Z38.128
X88.773 Z38.698
X90.179 Z39.412
X91.542 Z40.147
X92.911 Z40.927
X94.262 Z41.74
X95.771 Z42.696
X96.187 Z42.928
X96.619 Z43.13
X96.952 Z43.259
X97.29 Z43.367
X97.679 Z43.466
X98.102 Z43.538
X98.455 Z43.571
X98.855 Z43.578
X99.247 Z43.548
X99.633 Z43.482
X100.229 Z43.334
X101.53 Z42.954
X102.091 Z42.772
X102.901 Z42.487
X104.094 Z42.021
X104.455 Z41.867
X105.621 Z41.329
X106.091 Z41.093
X106.672 Z40.793
X107.79 Z40.157
X108.239 Z39.887
X108.99 Z39.406
X109.206 Z39.259
X110.068 Z38.658
X110.436 Z38.386
X111.11 Z37.864
X111.311 Z37.699
X112.117 Z37.023
X112.487 Z36.693
X113.045 Z36.178
X113.231 Z35.998
X113.954 Z35.272
X114.132 Z35.085
X114.857 Z34.299
X115.668 Z33.329
X115.829 Z33.125
G2 X116.065 Z33.01 I0.236 K0.185
G1 X116.286
X116.311 Y12.323
X116.335 Y12.329
X116.358 Y12.337
X116.38 Y12.349
X116.399 Y12.364
X116.417 Y12.381
X116.432 Y12.401
X116.443 Y12.423
X116.452 Y12.446 Z33.011
X116.457 Y12.47
X116.459 Y12.495
X116.457 Y12.519
X116.452 Y12.543
X116.443 Y12.567
X116.432 Y12.588
X116.417 Y12.608
X116.399 Y12.625
X116.38 Y12.64
X116.358 Y12.652
X116.335 Y12.661
X116.311 Y12.666
X116.286 Y12.668
G3 X116.051 Z33.125 I0. K0.3
G1 X116.04 Z33.138
X115.88 Z33.341
X115.224 Z34.129
X115.056 Z34.325
X114.265 Z35.203
X113.454 Z36.018
X113.077 Z36.376
X112.52 Z36.897
X112.228 Z37.155
X111.526 Z37.747
X111.117 Z38.07
X110.496 Z38.556
X110.075 Z38.865
X109.431 Z39.316
X108.994 Z39.603
X108.354 Z40.016
X108.021 Z40.223
X107.071 Z40.769
X105.799 Z41.438
X104.692 Z41.947
X104.211 Z42.153
X103.324 Z42.514
X101.878 Z43.027
X100.795 Z43.349
X100.258 Z43.502
X99.781 Z43.618
X99.426 Z43.671
X99.131 Z43.689
X98.732 Z43.684
X98.32 Z43.644
X97.912 Z43.569
X97.568 Z43.479
X97.229 Z43.369
X96.897 Z43.237
X96.574 Z43.086
X96.259 Z42.916
X95.854 Z42.663
X94.55 Z41.828
X92.977 Z40.875
X91.611 Z40.095
X90.248 Z39.36
X88.844 Z38.646
X87.662 Z38.074
X86.227 Z37.423
X84.776 Z36.806
X83.557 Z36.317
X82.082 Z35.764
X80.593 Z35.246
X79.03 Z34.743
X78.527 Z34.572
X78.479 Z34.554
X78.42 Z34.538
X78.359 Z34.535
X78.298 Z34.544
X78.241 Z34.565
X78.176 Z34.588
X78.109 Z34.595
X77.59
X77.562 Y12.669 Z34.594
X77.535 Y12.674 Z34.591
X77.509 Y12.681 Z34.586
X77.484 Y12.691 Z34.579
X77.461 Y12.703 Z34.57
X77.44 Y12.718 Z34.559
X77.421 Y12.735 Z34.547
X77.406 Y12.754 Z34.533
X77.394 Y12.774 Z34.519
X77.385 Y12.796 Z34.504
X77.379 Y12.818 Z34.488
X77.377 Y12.841 Z34.471
X77.379 Y12.863 Z34.455
X77.385 Y12.885 Z34.439
X77.394 Y12.907 Z34.424
X77.406 Y12.927 Z34.41
X77.421 Y12.946 Z34.396
X77.44 Y12.963 Z34.384
X77.461 Y12.978 Z34.373
X77.484 Y12.99 Z34.364
X77.509 Y13. Z34.357
X77.535 Y13.008 Z34.352
X77.562 Y13.012 Z34.349
X77.59 Y13.014 Z34.348
X77.658 Z34.34
X77.722 Z34.317
X77.78 Z34.296
X77.84 Z34.287
X77.901 Z34.29
X77.96 Z34.306
X78.333 Z34.446
X79.087 Z34.68
X80.588 Z35.162
X82.077 Z35.68
X83.554 Z36.233
X85.017 Z36.819
X86.224 Z37.337
X87.659 Z37.987
X88.841 Z38.557
X90.247 Z39.272
X91.61 Z40.006
X92.751 Z40.655
X94.106 Z41.463
X95.218 Z42.16
X96.247 Z42.83
X96.602 Z43.052
X96.916 Z43.221
X97.241 Z43.371
X97.573 Z43.501
X97.913 Z43.609
X98.258 Z43.694
X98.609 Z43.755
X98.962 Z43.791
X99.23 Z43.8
X99.623 Z43.782
X100.012 Z43.729
X100.298 Z43.665
X101.151 Z43.423
X102.181 Z43.098
X103.339 Z42.686
X103.704 Z42.542
X104.65 Z42.146
X105.129 Z41.935
X106.06 Z41.488
X107.294 Z40.84
X108.366 Z40.203
X108.587 Z40.065
X109.607 Z39.403
X110.719 Z38.594
X111.622 Z37.889
X112.143 Z37.442
X112.732 Z36.926
X112.905 Z36.765
X113.666 Z36.049
X114.215 Z35.485
X114.573 Z35.109
X115.275 Z34.326
X115.426 Z34.151
X116.011 Z33.444
X116.252 Z33.137
G2 X116.488 Z33.022 I0.236 K0.185
G1 X116.691
X116.715 Y13.015
X116.739 Y13.021
X116.762 Y13.029
X116.784 Y13.041
X116.804 Y13.056
X116.821 Y13.073
X116.836 Y13.093
X116.848 Y13.115
X116.857 Y13.138
X116.862 Y13.162
X116.864 Y13.187
X116.862 Y13.211
X116.857 Y13.235
X116.848 Y13.258
X116.836 Y13.28
X116.821 Y13.3 Z33.021
X116.804 Y13.317
X116.784 Y13.332
X116.762 Y13.344
X116.739 Y13.353
X116.715 Y13.358
X116.691 Y13.36
G3 X116.454 Z33.137 I0. K0.3
G1 X116.453 Z33.138
X116.295 Z33.341
X115.634 Z34.159
X115.382 Z34.452
X114.769 Z35.136
X113.806 Z36.135
X113.13 Z36.782
X112.745 Z37.131
X111.876 Z37.883
X110.953 Z38.624
X109.794 Z39.463
X108.83 Z40.108
X108.384 Z40.379
X107.707 Z40.784
X107.481 Z40.914
X106.698 Z41.342
X106.232 Z41.581
X105.078 Z42.137
X104.689 Z42.307
X103.986 Z42.602
X103.498 Z42.792
X102.601 Z43.129
X101.314 Z43.542
X101.063 Z43.619
X100.494 Z43.777
X100.176 Z43.846
X99.819 Z43.891
X99.524 Z43.902
X99.138 Z43.887
X98.785 Z43.846
X98.436 Z43.779
X98.092 Z43.687
X97.755 Z43.572
X97.425 Z43.435
X97.104 Z43.278
X96.743 Z43.068
X95.321 Z42.134
X94.21 Z41.435
X92.858 Z40.627
X91.486 Z39.85
X90.354 Z39.239
X88.951 Z38.524
X87.529 Z37.842
X86.334 Z37.299
X84.885 Z36.682
X83.666 Z36.192
X82.191 Z35.638
X80.702 Z35.119
X79.202 Z34.636
X78.026 Z34.278
X77.636 Z34.136
X77.441 Z34.054
X77.38 Z34.036
X77.316 Z34.031
X77.253 Z34.04
X77.193 Z34.062
X77.129 Z34.085
X77.061 Z34.092
X76.537
X76.509 Y13.361 Z34.091
X76.481 Y13.366 Z34.088
X76.455 Y13.373 Z34.082
X76.429 Y13.383 Z34.075
X76.406 Y13.395 Z34.066
X76.385 Y13.41 Z34.054
X76.366 Y13.427 Z34.042
X76.35 Y13.446 Z34.028
X76.338 Y13.466 Z34.013
X76.329 Y13.488 Z33.996
X76.323 Y13.51 Z33.98
X76.321 Y13.533 Z33.963
X76.323 Y13.555 Z33.946
X76.329 Y13.577 Z33.93
X76.338 Y13.599 Z33.914
X76.35 Y13.619 Z33.898
X76.366 Y13.638 Z33.884
X76.385 Y13.655 Z33.872
X76.406 Y13.67 Z33.86
X76.429 Y13.682 Z33.851
X76.455 Y13.692 Z33.844
X76.481 Y13.7 Z33.838
X76.509 Y13.704 Z33.835
X76.537 Y13.706 Z33.834
X76.605 Z33.826
X76.669 Z33.803
G2 X76.922 Z33.798 I0.132 K0.269
G1 X77.272 Z33.951
X77.719 Z34.113
X79.481 Z34.641
X80.731 Z35.048
X82.22 Z35.566
X83.696 Z36.119
X84.914 Z36.609
X86.363 Z37.227
X87.559 Z37.77
X88.98 Z38.451
X90.384 Z39.166
X91.515 Z39.777
X92.888 Z40.553
X94.239 Z41.362
X95.571 Z42.202
X96.86 Z43.06
X97.162 Z43.255
X97.475 Z43.429
X97.798 Z43.582
X98.186 Z43.733
X98.585 Z43.852
X98.933 Z43.927
X99.284 Z43.978
X99.654 Z43.999
X100.05 Z43.988
X100.439 Z43.94
X100.698 Z43.885
X101.574 Z43.626
X102.05 Z43.474
X102.781 Z43.229
X104.212 Z42.684
X105.322 Z42.194
X105.914 Z41.911
X106.605 Z41.571
X107.747 Z40.942
X107.972 Z40.812
X108.523 Z40.481
X109.065 Z40.14
X109.915 Z39.568
X110.448 Z39.191
X111.077 Z38.722
X111.977 Z37.999
X112.376 Z37.664
X113.086 Z37.037
X114.023 Z36.137
X114.908 Z35.222
X115.74 Z34.271
X116.319 Z33.56
X116.642 Z33.155
G2 X116.876 Z33.042 I0.234 K0.187
G1 X117.068
X117.093 Y13.707
X117.117 Y13.713
X117.14 Y13.721
X117.162 Y13.733
X117.182 Y13.748
X117.199 Y13.765
X117.214 Y13.785
X117.226 Y13.807
X117.234 Y13.83
X117.24 Y13.854
X117.241 Y13.879
X117.24 Y13.903 Z33.041
X117.234 Y13.927
X117.226 Y13.95
X117.214 Y13.972
X117.199 Y13.992
X117.182 Y14.009
X117.162 Y14.024
X117.14 Y14.036
X117.117 Y14.045
X117.093 Y14.05
X117.068 Y14.052
G3 X116.833 Z33.155 I0. K0.3
G1 X116.821 Z33.17
X116.299 Z33.833
X115.925 Z34.287
X115.124 Z35.204
X114.291 Z36.09
X113.32 Z37.024
X112.351 Z37.891
X111.345 Z38.705
X110.289 Z39.496
X109.751 Z39.864
X109.337 Z40.142
X108.896 Z40.422
X108.054 Z40.945
X106.868 Z41.6
X105.731 Z42.176
X104.532 Z42.709
X103.884 Z42.975
X103.072 Z43.284
X101.764 Z43.731
X100.998 Z43.958
X100.744 Z44.018
X100.486 Z44.061
X100.095 Z44.093
X99.707 Z44.086
X99.353 Z44.05
X98.945 Z43.975
X98.545 Z43.863
X98.208 Z43.742
X97.828 Z43.571
X97.462 Z43.37
X97.16 Z43.174
X95.654 Z42.166
X94.325 Z41.325
X92.974 Z40.515
X91.628 Z39.751
X90.238 Z39.006
X89.069 Z38.41
X87.65 Z37.728
X86.455 Z37.183
X85.006 Z36.564
X83.541 Z35.979
X82.311 Z35.518
X80.823 Z34.999
X79.322 Z34.516
X77.59 Z34.001
X77.194 Z33.876
X76.861 Z33.747
X76.483 Z33.573
X76.395 Z33.528
X76.351 Z33.51
X76.305 Z33.499
X76.258 Z33.495
X75.702
X75.672 Y14.053 Z33.494
X75.643 Y14.058 Z33.49
X75.614 Y14.065 Z33.484
X75.587 Y14.075 Z33.475
X75.562 Y14.087 Z33.464
X75.54 Y14.102 Z33.451
X75.52 Y14.119 Z33.436
X75.503 Y14.138 Z33.42
X75.49 Y14.158 Z33.402
X75.481 Y14.18 Z33.384
X75.475 Y14.202 Z33.365
X75.473 Y14.225 Z33.345
X75.475 Y14.247 Z33.325
X75.481 Y14.269 Z33.306
X75.49 Y14.291 Z33.288
X75.503 Y14.311 Z33.27
X75.52 Y14.33 Z33.254
X75.54 Y14.347 Z33.239
X75.562 Y14.362 Z33.226
X75.587 Y14.374 Z33.215
X75.614 Y14.384 Z33.206
X75.643 Y14.392 Z33.2
X75.672 Y14.396 Z33.196
X75.702 Y14.398 Z33.195
X75.752 Z33.199
X75.801 Z33.212
X75.847 Z33.232
X76.129 Z33.388
X76.451 Z33.543
X76.782 Z33.677
X77.133 Z33.795
X77.765 Z33.975
X79.528 Z34.501
X80.752 Z34.898
X82.241 Z35.415
X83.692 Z35.958
X84.911 Z36.446
X86.362 Z37.063
X87.796 Z37.714
X88.979 Z38.284
X90.385 Z38.998
X91.771 Z39.745
X92.889 Z40.382
X94.243 Z41.189
X95.331 Z41.873
X96.21 Z42.447
X97.495 Z43.314
X97.798 Z43.507
X98.113 Z43.678
X98.439 Z43.826
X98.774 Z43.949
X99.117 Z44.048
X99.465 Z44.121
X99.817 Z44.166
X100.203 Z44.183
X100.596 Z44.163
X100.887 Z44.124
X101.236 Z44.043
X101.989 Z43.81
X103.354 Z43.342
X104.425 Z42.911
X104.909 Z42.707
X105.602 Z42.394
X106.074 Z42.168
X107.011 Z41.691
X107.356 Z41.508
X108.307 Z40.961
X109.496 Z40.22
X110.518 Z39.508
X111.65 Z38.659
X112.583 Z37.881
X113.541 Z37.023
X113.73 Z36.844
X114.464 Z36.118
X115.413 Z35.105
X116.172 Z34.225
X116.986 Z33.193
G2 X117.222 Z33.079 I0.236 K0.186
G1 X117.404
X117.428 Y14.399
X117.452 Y14.405
X117.476 Y14.413
X117.497 Y14.425
X117.517 Y14.44
X117.534 Y14.457
X117.549 Y14.477
X117.561 Y14.499
X117.57 Y14.522
X117.575 Y14.546
X117.577 Y14.571
X117.575 Y14.595 Z33.078
X117.57 Y14.619
X117.561 Y14.642
X117.549 Y14.664
X117.534 Y14.684
X117.517 Y14.701
X117.497 Y14.716
X117.476 Y14.728
X117.452 Y14.737
X117.428 Y14.742
X117.404 Y14.744
G3 X117.168 Z33.193 I0. K0.3
G1 X117.148 Z33.219
X116.514 Z34.024
X116.352 Z34.225
X115.556 Z35.162
X114.787 Z35.988
X114.439 Z36.339
X113.88 Z36.895
X113.405 Z37.34
X112.918 Z37.779
X112.34 Z38.267
X111.936 Z38.605
X111.528 Z38.928
X111.134 Z39.232
X110.736 Z39.528
X109.874 Z40.131
X109.659 Z40.278
X108.909 Z40.761
X108.461 Z41.034
X107.38 Z41.656
X106.742 Z41.991
X106.156 Z42.287
X104.933 Z42.858
X103.619 Z43.389
X102.967 Z43.629
X102.472 Z43.802
X101.519 Z44.108
X101.219 Z44.185
X100.962 Z44.23
X100.702 Z44.258
X100.339 Z44.268
X100.054 Z44.253
X99.701 Z44.208
X99.353 Z44.135
X99.01 Z44.036
X98.676 Z43.911
X98.351 Z43.761
X98.037 Z43.588
X97.735 Z43.392
X96.695 Z42.682
X95.601 Z41.957
X94.291 Z41.132
X92.937 Z40.324
X91.819 Z39.687
X90.432 Z38.94
X89.053 Z38.238
X87.87 Z37.666
X86.436 Z37.014
X84.985 Z36.396
X83.766 Z35.907
X82.315 Z35.363
X80.828 Z34.845
X79.604 Z34.446
X77.841 Z33.92
X76.716 Z33.601
X76.379 Z33.481
X75.998 Z33.315
X75.629 Z33.119
X75.334 Z32.936
G3 X74.875 Z33.19 I-0.159 K0.255
G1 X74.869 Y14.748 Z33.261
X74.849 Y14.761 Z33.328
X74.818 Y14.781 Z33.388
X74.776 Y14.809 Z33.438
X74.725 Y14.842 Z33.476
X74.669 Y14.878 Z33.499
X74.61 Y14.917 Z33.507
X74.551 Y14.955 Z33.499
X74.495 Y14.992 Z33.476
X74.445 Y15.024 Z33.438
X74.403 Y15.052 Z33.388
X74.371 Y15.072 Z33.328
X74.352 Y15.085 Z33.261
X74.345 Y15.09 Z33.19
Z32.857
G2 X74.821 Z32.614 I0.3 K0.
G1 X75.071 Z32.795
X75.325 Z32.956
X75.692 Z33.153
X76.019 Z33.3
X76.419 Z33.445
X77.847 Z33.844
X79.609 Z34.371
X80.833 Z34.769
X82.323 Z35.287
X83.773 Z35.831
X84.992 Z36.32
X86.443 Z36.937
X87.878 Z37.589
X89.06 Z38.159
X90.442 Z38.862
X91.829 Z39.608
X92.947 Z40.245
X94.301 Z41.052
X95.611 Z41.876
X96.486 Z42.454
X97.551 Z43.175
X98.238 Z43.646
X98.549 Z43.824
X98.873 Z43.978
X99.206 Z44.106
X99.548 Z44.209
X99.855 Z44.278
X100.248 Z44.332
X100.634 Z44.349
X101.026 Z44.33
X101.309 Z44.291
X101.666 Z44.207
X102.541 Z43.926
X103.873 Z43.439
X104.239 Z43.295
X105.179 Z42.894
X106.448 Z42.302
X107.598 Z41.69
X107.826 Z41.563
X108.621 Z41.102
X108.954 Z40.897
X110.028 Z40.195
X110.243 Z40.044
X110.99 Z39.515
X111.902 Z38.807
X112.307 Z38.478
X113.031 Z37.867
X113.979 Z36.99
X114.94 Z36.036
X115.843 Z35.04
X116.667 Z34.06
X116.83 Z33.854
X117.309 Z33.23
G2 X117.547 Z33.113 I0.238 K0.183
G1 X117.71
G17 G3 Y15.436 I0. J0.173
G18 G3 X117.472 Z33.23 I0. K0.3
G1 X117.456 Z33.252
X116.776 Z34.137
X116.149 Z34.89
X115.804 Z35.282
X115.092 Z36.062
X114.335 Z36.835
X114.196 Z36.97
X113.425 Z37.686
X113.233 Z37.861
X112.309 Z38.658
X111.231 Z39.498
X110.176 Z40.261
X109.03 Z41.004
X107.972 Z41.64
X106.898 Z42.216
X106.666 Z42.336
X105.84 Z42.74
X105.243 Z43.01
X104.18 Z43.464
X103.815 Z43.605
X102.853 Z43.956
X101.95 Z44.26
X101.603 Z44.349
X101.346 Z44.392
X101.085 Z44.418
X100.722 Z44.426
X100.437 Z44.407
X100.085 Z44.357
X99.738 Z44.28
X99.397 Z44.174
X99.065 Z44.041
X98.743 Z43.883
X98.435 Z43.7
X96.887 Z42.632
X95.574 Z41.765
X94.261 Z40.942
X93.135 Z40.267
X91.789 Z39.503
X90.4 Z38.757
X89.254 Z38.171
X87.835 Z37.488
X86.398 Z36.837
X85.191 Z36.32
X83.728 Z35.735
X82.278 Z35.193
X81.038 Z34.758
X79.564 Z34.28
X78.054 Z33.827
X76.392 Z33.37
X76.053 Z33.268
X75.651 Z33.114
X75.288 Z32.94
X74.977 Z32.76
X74.68 Z32.559
X74.395 Z32.334
X74.308 Z32.256
G3 X73.809 Z32.48 I-0.2 K0.224
G1 X73.802 Y15.44 Z32.551
X73.782 Y15.453 Z32.618
X73.751 Y15.473 Z32.678
X73.709 Y15.501 Z32.728
X73.658 Y15.534 Z32.766
X73.602 Y15.57 Z32.789
X73.543 Y15.609 Z32.797
X73.484 Y15.647 Z32.789
X73.428 Y15.684 Z32.766
X73.377 Y15.716 Z32.728
X73.335 Y15.744 Z32.678
X73.303 Y15.764 Z32.618
X73.284 Y15.777 Z32.551
X73.277 Y15.782 Z32.48
Z32.051
G2 X73.795 Z31.845 I0.3 K0.
G1 X73.883 Z31.939
X74.147 Z32.189
X74.427 Z32.416
X74.724 Z32.621
X75.034 Z32.801
X75.357 Z32.958
X75.688 Z33.09
X75.977 Z33.185
X76.422 Z33.303
X77.943 Z33.719
X79.454 Z34.17
X80.93 Z34.645
X82.418 Z35.164
X83.868 Z35.708
X85.087 Z36.199
X86.536 Z36.816
X87.97 Z37.468
X89.153 Z38.04
X90.532 Z38.742
X91.919 Z39.489
X93.037 Z40.126
X94.391 Z40.934
X95.701 Z41.758
X97.014 Z42.628
X98.577 Z43.718
X98.881 Z43.909
X99.199 Z44.076
X99.528 Z44.216
X99.867 Z44.33
X100.183 Z44.41
X100.563 Z44.472
X100.949 Z44.498
X101.212 Z44.496
X101.506 Z44.472
X101.859 Z44.41
X102.11 Z44.343
X103.265 Z43.951
X104.445 Z43.492
X105.514 Z43.034
X105.87 Z42.869
X106.813 Z42.404
X107.392 Z42.102
X108.08 Z41.721
X109.071 Z41.128
X109.516 Z40.851
X110.388 Z40.266
X111.429 Z39.511
X111.74 Z39.273
X112.456 Z38.697
X112.655 Z38.53
X113.429 Z37.859
X113.815 Z37.506
X114.365 Z36.983
X114.549 Z36.8
X115.282 Z36.047
X115.441 Z35.877
X116.057 Z35.197
X116.311 Z34.9
X116.961 Z34.108
X117.12 Z33.904
X117.599 Z33.277
G2 X117.838 Z33.159 I0.238 K0.182
G1 X117.994
X118.019 Y15.783
X118.043 Y15.789
X118.066 Y15.797
X118.088 Y15.809
X118.107 Y15.824
X118.125 Y15.841
X118.14 Y15.861
X118.152 Y15.883
X118.16 Y15.906
X118.165 Y15.93
X118.167 Y15.955 Z33.158
X118.165 Y15.979
X118.16 Y16.003
X118.152 Y16.026
X118.14 Y16.048
X118.125 Y16.068
X118.107 Y16.085
X118.088 Y16.1
X118.066 Y16.112
X118.043 Y16.121 Z33.157
X118.019 Y16.126
X117.994 Y16.128
G3 X117.754 Z33.277 I0. K0.3
G1 X117.729 Z33.31
X117.257 Z33.938
X116.597 Z34.747
X116.448 Z34.929
X115.586 Z35.911
X115.228 Z36.284
X114.585 Z36.939
X113.657 Z37.824
X112.79 Z38.581
X111.773 Z39.405
X111.227 Z39.817
X110.723 Z40.183
X109.661 Z40.904
X109.22 Z41.186
X108.547 Z41.593
X108.345 Z41.712
X107.183 Z42.359
X106.021 Z42.934
X104.85 Z43.463
X103.874 Z43.849
X103.385 Z44.038
X102.486 Z44.353
X102.143 Z44.457
X101.888 Z44.511
X101.629 Z44.548
X101.368 Z44.567
X101.003 Z44.563
X100.718 Z44.536
X100.367 Z44.475
X100.023 Z44.385
X99.658 Z44.256
X99.359 Z44.12
X99.043 Z43.947
X98.719 Z43.731
X97.379 Z42.788
X95.853 Z41.767
X94.543 Z40.939
X93.192 Z40.129
X91.846 Z39.365
X90.456 Z38.62
X89.311 Z38.035
X87.891 Z37.351
X86.455 Z36.701
X85.247 Z36.184
X83.785 Z35.598
X82.334 Z35.056
X81.094 Z34.621
X79.621 Z34.143
X78.111 Z33.69
X76.59 Z33.272
X75.713 Z33.043
X75.374 Z32.93
X75.045 Z32.792
X74.725 Z32.629
X74.418 Z32.443
X74.102 Z32.214
X73.85 Z31.997
X73.594 Z31.736
X73.362 Z31.454
X73.282 Z31.344
G3 X72.739 Z31.52 I-0.243 K0.176
G1 X72.733 Y16.131 Z31.587
X72.716 Y16.143 Z31.651
X72.688 Y16.161 Z31.709
X72.65 Y16.185 Z31.759
X72.604 Y16.214 Z31.799
X72.552 Y16.247 Z31.826
X72.496 Y16.282 Z31.84
X72.44 Y16.319
X72.384 Y16.354 Z31.826
X72.332 Y16.387 Z31.799
X72.286 Y16.416 Z31.759
X72.248 Y16.441 Z31.709
X72.22 Y16.459 Z31.651
X72.203 Y16.47 Z31.587
X72.197 Y16.474 Z31.52
Z30.793
G2 X72.768 Z30.665 I0.3 K0.
G1 X72.833 Z30.804
X72.953 Z31.023
X73.155 Z31.331
X73.368 Z31.597
X73.642 Z31.877
X73.918 Z32.114
X74.209 Z32.325
X74.468 Z32.485
X74.837 Z32.673
X75.168 Z32.81
X75.507 Z32.919
X76.526 Z33.18
X78.047 Z33.596
X79.558 Z34.047
X81.032 Z34.523
X82.52 Z35.043
X83.724 Z35.496
X85.189 Z36.081
X86.638 Z36.699
X87.833 Z37.243
X89.255 Z37.926
X90.634 Z38.629
X91.79 Z39.251
X93.139 Z40.014
X94.493 Z40.823
X95.803 Z41.648
X97.116 Z42.518
X97.978 Z43.117
X98.979 Z43.831
X99.306 Z44.045
X99.622 Z44.215
X99.951 Z44.357
X100.289 Z44.472
X100.635 Z44.557
X100.986 Z44.611
X101.356 Z44.634
X101.621 Z44.63
X101.947 Z44.599
X102.267 Z44.538
X102.58 Z44.447
X103.631 Z44.073
X104.243 Z43.836
X104.948 Z43.549
X105.642 Z43.237
X106.356 Z42.91
X107.426 Z42.362
X108.643 Z41.683
X109.741 Z40.994
X110.836 Z40.255
X111.871 Z39.479
X112.075 Z39.317
X112.942 Z38.617
X113.872 Z37.786
X114.062 Z37.607
X114.893 Z36.809
X115.706 Z35.952
X116.53 Z35.019
X116.907 Z34.566
X117.355 Z34.007
X117.849 Z33.345
G2 X118.09 Z33.224 I0.24 K0.179
G1 X118.236
X118.261 Y16.475
X118.285 Y16.481
X118.308 Y16.489
X118.33 Y16.501
X118.349 Y16.516
X118.367 Y16.533
X118.382 Y16.553
X118.393 Y16.575
X118.402 Y16.598
X118.407 Y16.622
X118.409 Y16.647
X118.407 Y16.671
X118.402 Y16.695
X118.393 Y16.718
X118.382 Y16.74 Z33.223
X118.367 Y16.76
X118.349 Y16.777
X118.33 Y16.792
X118.308 Y16.804
X118.285 Y16.813
X118.261 Y16.818
X118.236 Y16.82
G3 X117.995 Z33.345 I0. K0.3
G1 X117.969 Z33.379
X117.656 Z33.802
X117.499 Z34.005
X116.844 Z34.828
X116.509 Z35.223
X115.989 Z35.814
X115.093 Z36.766
X114.44 Z37.412
X114.18 Z37.661
X113.226 Z38.518
X112.496 Z39.132
X112.242 Z39.338
X111.828 Z39.655
X111.219 Z40.114
X111.009 Z40.267
X110.148 Z40.868
X109.931 Z41.011
X109.041 Z41.571
X108.818 Z41.708
X107.932 Z42.22
X107.47 Z42.467
X106.443 Z42.995
X105.851 Z43.273
X105.372 Z43.49
X104.914 Z43.684
X103.941 Z44.085
X102.733 Z44.52
X102.483 Z44.591
X102.227 Z44.644
X101.968 Z44.679
X101.707 Z44.696
X101.438 Z44.694
X101.085 Z44.663
X100.734 Z44.599
X100.391 Z44.506
X100.054 Z44.383
X99.73 Z44.231
X99.418 Z44.052
X99.027 Z43.777
X98.196 Z43.181
X97.118 Z42.431
X95.805 Z41.562
X94.473 Z40.724
X93.347 Z40.048
X92.001 Z39.282
X90.614 Z38.535
X89.208 Z37.821
X88.026 Z37.25
X86.591 Z36.599
X85.14 Z35.981
X83.921 Z35.492
X82.471 Z34.948
X80.983 Z34.43
X79.482 Z33.947
X78.224 Z33.569
X76.704 Z33.151
X75.302 Z32.797
X74.948 Z32.684
X74.618 Z32.549
X74.298 Z32.386
X73.992 Z32.199
X73.676 Z31.967
X73.427 Z31.746
X73.174 Z31.48
X72.948 Z31.194
X72.745 Z30.879
X72.627 Z30.657
X72.524 Z30.418
X72.44 Z30.17
X72.25 Z29.55
G3 X71.963 Z29.339 I-0.287 K0.088
G1 X71.445
X71.395 Z29.337
X71.346 Y16.822 Z29.331
X71.297 Y16.824 Z29.322
X71.249 Y16.828 Z29.309
X71.202 Y16.833 Z29.292
X71.157 Y16.838 Z29.272
X71.114 Y16.845 Z29.249
X71.072 Y16.853 Z29.222
X71.033 Y16.861 Z29.192
X70.996 Y16.87 Z29.16
X70.963 Y16.88 Z29.124
X70.932 Y16.891 Z29.087
X70.904 Y16.902 Z29.047
X70.88 Y16.914 Z29.005
X70.859 Y16.926 Z28.962
X70.842 Y16.939 Z28.917
X70.828 Y16.952 Z28.87
X70.818 Y16.965 Z28.823
X70.813 Y16.979 Z28.776
X70.811 Y16.993 Z28.728
X70.813 Y17.006 Z28.68
X70.818 Y17.02 Z28.632
X70.828 Y17.033 Z28.585
X70.842 Y17.046 Z28.539
X70.859 Y17.059 Z28.494
X70.88 Y17.071 Z28.451
X70.904 Y17.083 Z28.409
X70.932 Y17.094 Z28.369
X70.963 Y17.105 Z28.331
X70.996 Y17.115 Z28.296
X71.033 Y17.124 Z28.264
X71.072 Y17.132 Z28.234
X71.114 Y17.14 Z28.207
X71.157 Y17.147 Z28.184
X71.202 Y17.152 Z28.164
X71.249 Y17.157 Z28.147
X71.297 Y17.161 Z28.134
X71.346 Y17.163 Z28.125
X71.395 Y17.165 Z28.119
X71.445 Y17.166 Z28.117
G2 X71.732 Z28.329 I0. K0.3
G1 X72.28 Z30.102
X72.391 Z30.408
X72.497 Z30.639
X72.618 Z30.858
X72.822 Z31.164
X72.976 Z31.357
X73.228 Z31.623
X73.498 Z31.863
X73.789 Z32.079
X74.069 Z32.254
X74.416 Z32.43
X74.747 Z32.565
X75.101 Z32.676
X76.758 Z33.092
X78.278 Z33.509
X79.536 Z33.887
X81.038 Z34.37
X82.525 Z34.889
X83.755 Z35.35
X85.22 Z35.934
X86.669 Z36.552
X88.103 Z37.205
X89.286 Z37.777
X90.689 Z38.491
X92.076 Z39.239
X93.217 Z39.889
X94.571 Z40.698
X95.903 Z41.537
X96.997 Z42.263
X98.294 Z43.161
X99.122 Z43.759
X99.608 Z44.106
X99.918 Z44.287
X100.243 Z44.441
X100.577 Z44.565
X100.922 Z44.659
X101.272 Z44.721
X101.641 Z44.753
X101.907 Z44.754
X102.233 Z44.73
X102.555 Z44.674
X102.868 Z44.59
X103.301 Z44.437
X104.183 Z44.106
X105.53 Z43.548
X106.42 Z43.125
X106.867 Z42.907
X107.567 Z42.545
X108.026 Z42.296
X109.023 Z41.714
X109.58 Z41.368
X110.184 Z40.978
X111.099 Z40.338
X111.501 Z40.046
X112.307 Z39.428
X113.321 Z38.584
X113.713 Z38.236
X114.283 Z37.719
X115.204 Z36.811
X116.087 Z35.878
X116.918 Z34.909
X117.695 Z33.939
X118.084 Z33.416
G2 X118.325 Z33.295 I0.241 K0.179
G1 X118.456
X118.481 Y17.167
X118.505 Y17.173
X118.528 Y17.181
X118.55 Y17.193
X118.569 Y17.208
X118.587 Y17.225
X118.602 Y17.245 Z33.294
X118.613 Y17.267
X118.622 Y17.29
X118.627 Y17.314
X118.629 Y17.339
X118.627 Y17.363
X118.622 Y17.387
X118.613 Y17.41 Z33.293
X118.602 Y17.432
X118.587 Y17.452
X118.569 Y17.469
X118.55 Y17.484
X118.528 Y17.496
X118.505 Y17.505
X118.481 Y17.51
X118.456 Y17.512
G3 X118.214 Z33.416 I0. K0.3
G1 X118.185 Z33.455
X117.877 Z33.876
X117.394 Z34.496
X117.23 Z34.702
X117.066 Z34.9
X116.383 Z35.7
X116.034 Z36.085
X115.502 Z36.664
X114.947 Z37.216
X114.593 Z37.567
X114.213 Z37.923
X113.513 Z38.565
X112.654 Z39.283
X112.245 Z39.607
X111.481 Z40.201
X110.557 Z40.851
X110.122 Z41.141
X109.285 Z41.686
X108.125 Z42.361
X106.999 Z42.967
X105.695 Z43.587
X104.854 Z43.951
X104.393 Z44.139
X103.102 Z44.626
X102.79 Z44.715
X102.534 Z44.765
X102.274 Z44.797
X102.013 Z44.811
X101.747 Z44.806
X101.496 Z44.784
X101.145 Z44.724
X100.8 Z44.633
X100.464 Z44.511
X100.139 Z44.36
X99.827 Z44.179
X99.438 Z43.903
X98.397 Z43.148
X97.126 Z42.265
X95.836 Z41.412
X94.5 Z40.574
X93.397 Z39.912
X92.028 Z39.133
X90.665 Z38.4
X89.259 Z37.686
X88.076 Z37.116
X86.642 Z36.465
X85.191 Z35.847
X83.972 Z35.358
X82.496 Z34.805
X81.006 Z34.287
X79.757 Z33.88
X78.247 Z33.428
X76.727 Z33.012
X74.827 Z32.536
X74.488 Z32.425
X74.159 Z32.285
X73.841 Z32.117
X73.538 Z31.922
X73.251 Z31.701
X72.986 Z31.452
X72.742 Z31.177
X72.527 Z30.88
X72.398 Z30.667
X72.256 Z30.385
X72.143 Z30.092
X71.75 Z28.84
X71.214 Z27.107
G3 X70.927 Z26.896 I-0.287 K0.089
G1 X70.408
X70.358 Z26.894
X70.309 Y17.514 Z26.888
X70.26 Y17.516 Z26.879
X70.212 Y17.52 Z26.866
X70.165 Y17.525 Z26.849
X70.119 Y17.53 Z26.829
X70.076 Y17.537 Z26.805
X70.034 Y17.545 Z26.779
X69.995 Y17.553 Z26.749
X69.958 Y17.562 Z26.716
X69.924 Y17.572 Z26.681
X69.893 Y17.583 Z26.643
X69.866 Y17.594 Z26.603
X69.841 Y17.606 Z26.561
X69.82 Y17.618 Z26.518
X69.803 Y17.631 Z26.473
X69.789 Y17.644 Z26.426
X69.78 Y17.657 Z26.379
X69.774 Y17.671 Z26.331
X69.772 Y17.685 Z26.283
X69.774 Y17.698 Z26.235
X69.78 Y17.712 Z26.187
X69.789 Y17.725 Z26.14
X69.803 Y17.738 Z26.094
X69.82 Y17.751 Z26.049
X69.841 Y17.763 Z26.005
X69.866 Y17.775 Z25.963
X69.893 Y17.786 Z25.923
X69.924 Y17.797 Z25.886
X69.958 Y17.807 Z25.85
X69.995 Y17.816 Z25.818
X70.034 Y17.824 Z25.788
X70.076 Y17.832 Z25.761
X70.119 Y17.839 Z25.738
X70.165 Y17.844 Z25.718
X70.212 Y17.849 Z25.701
X70.26 Y17.853 Z25.688
X70.309 Y17.855 Z25.678
X70.358 Y17.857 Z25.673
X70.408 Y17.858 Z25.671
G2 X70.696 Z25.885 I0. K0.3
G1 X70.702 Z25.908
X71.452 Z28.33
X71.857 Z29.585
X72.054 Z30.172
X72.156 Z30.406
X72.273 Z30.629
X72.404 Z30.841
X72.539 Z31.029
X72.788 Z31.316
X73.052 Z31.569
X73.334 Z31.794
X73.637 Z31.993
X73.953 Z32.162
X74.283 Z32.304
X74.621 Z32.416
X75.133 Z32.541
X76.917 Z32.989
X78.184 Z33.338
X79.694 Z33.789
X81.168 Z34.266
X82.408 Z34.7
X83.885 Z35.251
X85.348 Z35.836
X86.797 Z36.456
X87.992 Z37.001
X89.411 Z37.683
X90.814 Z38.399
X91.946 Z39.01
X93.319 Z39.787
X94.647 Z40.581
X95.979 Z41.42
X97.051 Z42.131
X98.325 Z43.013
X99.771 Z44.062
X100.069 Z44.268
X100.382 Z44.444
X100.71 Z44.591
X101.048 Z44.707
X101.394 Z44.792
X101.746 Z44.844
X102.117 Z44.863
X102.447 Z44.85
X102.771 Z44.806
X103.025 Z44.749
X103.343 Z44.648
X104.674 Z44.141
X105.923 Z43.596
X106.161 Z43.486
X106.687 Z43.233
X107.312 Z42.917
X108.236 Z42.417
X108.633 Z42.193
X109.502 Z41.667
X110.714 Z40.875
X111.676 Z40.179
X112.531 Z39.514
X112.94 Z39.187
X113.715 Z38.519
X114.583 Z37.719
X114.96 Z37.356
X115.587 Z36.721
X116.532 Z35.689
X117.271 Z34.817
X117.976 Z33.91
X118.285 Z33.495
G2 X118.526 Z33.374 I0.241 K0.179
G1 X118.619
X118.644 Y17.859
X118.668 Y17.865 Z33.375
X118.691 Y17.873 Z33.376
X118.713 Y17.885 Z33.377
X118.733 Y17.9 Z33.38
X118.751 Y17.917 Z33.382
X118.766 Y17.937 Z33.385
X118.778 Y17.959 Z33.388
X118.786 Y17.982 Z33.392
X118.792 Y18.006 Z33.395
X118.794 Y18.031 Z33.399
X118.792 Y18.055 Z33.402
X118.786 Y18.079 Z33.406
X118.778 Y18.102 Z33.409
X118.766 Y18.124 Z33.412
X118.751 Y18.144 Z33.415
X118.733 Y18.161 Z33.418
X118.713 Y18.176 Z33.42
X118.691 Y18.188 Z33.421
X118.668 Y18.197 Z33.423
X118.644 Y18.202
X118.619 Y18.204 Z33.424
G3 X118.378 Z33.545 I0. K0.3
G1 X118.224 Z33.753
X117.58 Z34.585
X117.42 Z34.786
X116.638 Z35.724
X115.871 Z36.563
X115.326 Z37.124
X114.958 Z37.499
X114.529 Z37.909
X114.005 Z38.393
X113.037 Z39.233
X112.633 Z39.562
X112.014 Z40.048
X111.382 Z40.513
X110.979 Z40.807
X110.549 Z41.104
X109.892 Z41.537
X109.695 Z41.663
X108.572 Z42.344
X108.137 Z42.587
X107.385 Z42.991
X106.176 Z43.593
X105.096 Z44.068
X104.611 Z44.267
X103.904 Z44.548
X103.412 Z44.73
X103.162 Z44.803
X102.907 Z44.858
X102.649 Z44.893
X102.387 Z44.91
X102.119 Z44.908
X101.765 Z44.876
X101.416 Z44.808
X101.073 Z44.71
X100.739 Z44.579
X100.406 Z44.411
X100.112 Z44.226
X98.477 Z43.034
X97.206 Z42.15
X95.915 Z41.297
X94.579 Z40.459
X93.476 Z39.797
X92.107 Z39.018
X90.744 Z38.284
X89.338 Z37.57
X88.156 Z36.999
X86.721 Z36.348
X85.272 Z35.73
X84.053 Z35.24
X82.578 Z34.686
X81.09 Z34.168
X79.614 Z33.692
X78.356 Z33.314
X76.836 Z32.896
X75.052 Z32.45
X74.426 Z32.298
X74.086 Z32.186
X73.758 Z32.043
X73.442 Z31.87
X73.143 Z31.67
X72.86 Z31.441
X72.601 Z31.186
X72.365 Z30.901
X72.16 Z30.595
X72.038 Z30.377
X71.894 Z30.054
X71.644 Z29.302
X70.975 Z27.236
X70.191 Z24.707
X70.177 Z24.66
G3 X69.889 Z24.446 I-0.287 K0.086
G1 X69.37
X69.32 Z24.444
X69.271 Y18.206 Z24.438
X69.222 Y18.208 Z24.429
X69.174 Y18.212 Z24.416
X69.127 Y18.217 Z24.399
X69.081 Y18.222 Z24.379
X69.038 Y18.229 Z24.356
X68.996 Y18.237 Z24.329
X68.957 Y18.245 Z24.299
X68.92 Y18.254 Z24.266
X68.886 Y18.264 Z24.231
X68.855 Y18.275 Z24.193
X68.828 Y18.286 Z24.153
X68.803 Y18.298 Z24.111
X68.782 Y18.31 Z24.068
X68.765 Y18.323 Z24.023
X68.751 Y18.336 Z23.976
X68.742 Y18.349 Z23.929
X68.736 Y18.363 Z23.881
X68.734 Y18.377 Z23.833
X68.736 Y18.39 Z23.785
X68.742 Y18.404 Z23.738
X68.751 Y18.417 Z23.69
X68.765 Y18.43 Z23.644
X68.782 Y18.443 Z23.599
X68.803 Y18.455 Z23.555
X68.828 Y18.467 Z23.513
X68.855 Y18.478 Z23.473
X68.886 Y18.489 Z23.436
X68.92 Y18.499 Z23.4
X68.957 Y18.508 Z23.368
X68.996 Y18.516 Z23.338
X69.038 Y18.524 Z23.311
X69.081 Y18.531 Z23.288
X69.127 Y18.536 Z23.268
X69.174 Y18.541 Z23.251
X69.222 Y18.545 Z23.238
X69.271 Y18.547 Z23.228
X69.32 Y18.549 Z23.223
X69.37 Y18.55 Z23.221
G2 X69.658 Z23.435 I0. K0.3
G1 X69.696 Z23.564
X70.477 Z26.08
X71.086 Z27.959
X71.585 Z29.46
X71.788 Z30.042
X71.892 Z30.275
X72.043 Z30.549
X72.216 Z30.804
X72.453 Z31.088
X72.711 Z31.343
X72.994 Z31.574
X73.293 Z31.774
X73.61 Z31.945
X73.939 Z32.086
X74.28 Z32.196
X75.162 Z32.405
X76.946 Z32.852
X78.213 Z33.202
X79.725 Z33.652
X81.198 Z34.13
X82.438 Z34.563
X83.916 Z35.113
X85.378 Z35.698
X86.827 Z36.317
X88.023 Z36.862
X89.444 Z37.544
X90.848 Z38.259
X92.211 Z38.995
X93.352 Z39.645
X94.683 Z40.44
X96.015 Z41.278
X97.306 Z42.134
X98.577 Z43.019
X100.208 Z44.215
X100.509 Z44.416
X100.825 Z44.586
X101.156 Z44.726
X101.496 Z44.833
X101.845 Z44.908
X102.198 Z44.949
X102.466 Z44.957
X102.728 Z44.947
X102.988 Z44.917
X103.243 Z44.864
X103.618 Z44.755
X103.96 Z44.629
X105.155 Z44.149
X105.396 Z44.046
X106.351 Z43.61
X106.586 Z43.497
X107.647 Z42.967
X108.788 Z42.325
X109.929 Z41.632
X111.03 Z40.887
X112.095 Z40.111
X113.118 Z39.288
X114.115 Z38.428
X115.042 Z37.547
X116.005 Z36.565
X116.812 Z35.662
X117.588 Z34.73
X117.951 Z34.268
X118.46 Z33.593
G2 X118.699 Z33.473 I0.24 K0.18
G1 X118.81
G17 G3 Y18.895 I0. J0.173
G18 G3 X118.57 Z33.593 I0. K0.3
G1 X118.542 Z33.63
X117.927 Z34.449
X117.645 Z34.807
X117.102 Z35.463
X116.759 Z35.855
X116.236 Z36.445
X115.756 Z36.955
X115.333 Z37.389
X114.769 Z37.932
X114.388 Z38.295
X113.61 Z38.992
X113.412 Z39.164
X112.395 Z39.988
X111.478 Z40.683
X111.16 Z40.908
X110.29 Z41.499
X109.851 Z41.782
X109.207 Z42.186
X108.982 Z42.319
X107.803 Z42.981
X107.046 Z43.374
X106.456 Z43.66
X105.382 Z44.152
X104.533 Z44.499
X103.856 Z44.765
X103.575 Z44.848
X103.192 Z44.931
X102.803 Z44.982
X102.541 Z44.995
X102.273 Z44.985
X101.921 Z44.936
X101.574 Z44.852
X101.236 Z44.737
X100.909 Z44.588
X100.597 Z44.409
X100.301 Z44.2
X98.651 Z42.986
X97.38 Z42.099
X96.09 Z41.243
X94.757 Z40.404
X93.429 Z39.609
X92.057 Z38.832
X90.925 Z38.221
X89.522 Z37.504
X88.103 Z36.822
X86.666 Z36.172
X85.458 Z35.655
X83.996 Z35.069
X82.518 Z34.517
X81.278 Z34.083
X79.804 Z33.604
X78.294 Z33.152
X76.773 Z32.737
X75.243 Z32.353
X74.105 Z32.085
X73.764 Z31.975
X73.436 Z31.832
X73.12 Z31.659
X72.822 Z31.457
X72.541 Z31.224
X72.286 Z30.964
X72.054 Z30.674
X71.855 Z30.363
X71.738 Z30.14
X71.637 Z29.906
X70.93 Z27.836
X70.274 Z25.833
X69.95 Z24.827
X69.188 Z22.376
X69.139 Z22.21
G3 X68.851 Z21.996 I-0.287 K0.086
G1 X68.332
X68.283 Y18.896 Z21.994
X68.233 Y18.898 Z21.988
X68.184 Y18.9 Z21.979
X68.136 Y18.904 Z21.966
X68.089 Y18.909 Z21.949
X68.044 Y18.914 Z21.929
X68. Y18.921 Z21.906
X67.958 Y18.929 Z21.879
X67.919 Y18.937 Z21.849
X67.883 Y18.946 Z21.817
X67.849 Y18.956 Z21.781
X67.818 Y18.967 Z21.744
X67.79 Y18.978 Z21.704
X67.766 Y18.99 Z21.662
X67.745 Y19.002 Z21.618
X67.727 Y19.015 Z21.573
X67.714 Y19.028 Z21.527
X67.704 Y19.041 Z21.479
X67.698 Y19.055 Z21.432
X67.696 Y19.068 Z21.384
X67.698 Y19.082 Z21.336
X67.704 Y19.096 Z21.288
X67.714 Y19.109 Z21.241
X67.727 Y19.122 Z21.194
X67.745 Y19.135 Z21.149
X67.766 Y19.147 Z21.106
X67.79 Y19.159 Z21.064
X67.818 Y19.17 Z21.024
X67.849 Y19.181 Z20.986
X67.883 Y19.191 Z20.951
X67.919 Y19.2 Z20.918
X67.958 Y19.208 Z20.888
X68. Y19.216 Z20.862
X68.044 Y19.223 Z20.838
X68.089 Y19.228 Z20.818
X68.136 Y19.233 Z20.801
X68.184 Y19.237 Z20.788
X68.233 Y19.239 Z20.779
X68.283 Y19.241 Z20.773
X68.332 Z20.771
G2 X68.62 Z20.985 I0. K0.3
G1 X68.733 Z21.363
X69.468 Z23.72
X70.293 Z26.256
X70.842 Z27.878
X71.356 Z29.374
X71.569 Z29.955
X71.677 Z30.185
X71.802 Z30.404
X71.941 Z30.608
X72.173 Z30.892
X72.432 Z31.152
X72.712 Z31.381
X73.013 Z31.583
X73.33 Z31.752
X73.662 Z31.89
X74.003 Z31.995
X75.283 Z32.291
X76.813 Z32.675
X78.333 Z33.091
X79.843 Z33.543
X81.067 Z33.94
X82.556 Z34.457
X84.032 Z35.008
X85.495 Z35.595
X86.702 Z36.112
X88.139 Z36.762
X89.558 Z37.445
X90.961 Z38.161
X92.093 Z38.773
X93.465 Z39.55
X94.794 Z40.344
X96.126 Z41.184
X97.198 Z41.894
X98.472 Z42.776
X99.536 Z43.546
X100.546 Z44.299
X100.846 Z44.503
X101.162 Z44.674
X101.409 Z44.782
X101.72 Z44.887
X101.952 Z44.941
X102.304 Z44.989
X102.572 Z45.
X102.853 Z44.996
X103.244 Z44.963
X103.631 Z44.897
X104.008 Z44.795
X104.362 Z44.667
X105.321 Z44.267
X105.802 Z44.059
X106.28 Z43.839
X106.857 Z43.569
X107.92 Z43.015
X108.378 Z42.764
X109.173 Z42.307
X110.262 Z41.622
X110.807 Z41.258
X111.398 Z40.846
X112.479 Z40.034
X112.888 Z39.706
X113.495 Z39.206
X114.427 Z38.377
X114.856 Z37.973
X115.397 Z37.45
X116.302 Z36.501
X117.155 Z35.543
X117.956 Z34.552
X118.612 Z33.682
G2 X118.851 Z33.563 I0.239 K0.181
G1 X118.916
X118.941 Y19.243
X118.966 Y19.248 Z33.564
X118.989 Y19.257 Z33.565
X119.011 Y19.269 Z33.567
X119.031 Y19.284 Z33.569
X119.049 Y19.301 Z33.572
X119.064 Y19.321 Z33.575
X119.076 Y19.343 Z33.578
X119.084 Y19.366 Z33.582
X119.09 Y19.39 Z33.586
X119.091 Y19.414 Z33.589
X119.09 Y19.439 Z33.593
X119.084 Y19.463 Z33.597
X119.076 Y19.486 Z33.6
X119.064 Y19.508 Z33.603
X119.049 Y19.528 Z33.606
X119.031 Y19.545 Z33.609
X119.011 Y19.56 Z33.611
X118.989 Y19.572 Z33.613
X118.966 Y19.58 Z33.614
X118.941 Y19.586 Z33.615
X118.916 Y19.587
G3 X118.676 Z33.736 I0. K0.3
G1 X118.207 Z34.367
X117.422 Z35.345
X117.086 Z35.741
X116.588 Z36.315
X116.233 Z36.695
X115.69 Z37.267
X115.321 Z37.634
X114.642 Z38.298
X113.787 Z39.061
X112.765 Z39.918
X112.164 Z40.379
X111.765 Z40.679
X111.341 Z40.983
X110.53 Z41.551
X109.417 Z42.255
X108.273 Z42.925
X107.062 Z43.556
X105.962 Z44.083
X104.477 Z44.711
X104.17 Z44.82
X103.791 Z44.914
X103.404 Z44.974
X103.011 Z44.999
X102.533 Z44.997
X102.179 Z44.961
X101.831 Z44.888
X101.603 Z44.818
X101.38 Z44.731
X101.164 Z44.628
X100.878 Z44.459
X100.657 Z44.299
X99.628 Z43.528
X98.567 Z42.757
X97.296 Z41.876
X96.002 Z41.023
X94.892 Z40.322
X93.564 Z39.526
X92.194 Z38.749
X90.828 Z38.015
X89.659 Z37.416
X88.24 Z36.732
X86.805 Z36.081
X85.354 Z35.463
X84.135 Z34.973
X82.66 Z34.42
X81.172 Z33.901
X79.697 Z33.426
X78.438 Z33.048
X76.918 Z32.63
X75.389 Z32.245
X73.795 Z31.877
X73.511 Z31.787
X73.18 Z31.647
X72.864 Z31.477
X72.563 Z31.274
X72.279 Z31.038
X72.111 Z30.871
X71.95 Z30.687
X71.801 Z30.49
X71.665 Z30.282
X71.544 Z30.063
X71.438 Z29.832
X71.14 Z29.006
X70.616 Z27.515
X69.791 Z25.084
X68.995 Z22.643
X68.211 Z20.129
X68.101 Z19.76
G3 X67.813 Z19.546 I-0.287 K0.086
G1 X67.294
X67.245 Y19.588 Z19.544
X67.195 Y19.59 Z19.539
X67.146 Y19.592 Z19.529
X67.098 Y19.596 Z19.516
X67.051 Y19.601 Z19.5
X67.006 Y19.606 Z19.479
X66.962 Y19.613 Z19.456
X66.92 Y19.621 Z19.429
X66.881 Y19.629 Z19.4
X66.844 Y19.638 Z19.367
X66.811 Y19.648 Z19.332
X66.78 Y19.659 Z19.294
X66.752 Y19.67 Z19.254
X66.727 Y19.682 Z19.212
X66.707 Y19.694 Z19.168
X66.689 Y19.707 Z19.123
X66.676 Y19.72 Z19.077
X66.666 Y19.733 Z19.03
X66.66 Y19.747 Z18.982
X66.658 Y19.76 Z18.934
X66.66 Y19.774 Z18.886
X66.666 Y19.788 Z18.838
X66.676 Y19.801 Z18.791
X66.689 Y19.814 Z18.745
X66.707 Y19.827 Z18.699
X66.727 Y19.839 Z18.656
X66.752 Y19.851 Z18.614
X66.78 Y19.862 Z18.574
X66.811 Y19.873 Z18.536
X66.844 Y19.883 Z18.501
X66.881 Y19.892 Z18.468
X66.92 Y19.9 Z18.438
X66.962 Y19.908 Z18.412
X67.006 Y19.915 Z18.388
X67.051 Y19.92 Z18.368
X67.098 Y19.925 Z18.351
X67.146 Y19.929 Z18.338
X67.195 Y19.931 Z18.329
X67.245 Y19.933 Z18.323
X67.294 Z18.321
G2 X67.582 Z18.535 I0. K0.3
G1 X67.725 Z19.011
X68.51 Z21.525
X69.297 Z23.934
X70.176 Z26.521
X71.098 Z29.127
X71.365 Z29.839
X71.494 Z30.098
X71.677 Z30.39
X71.903 Z30.679
X72.159 Z30.944
X72.435 Z31.177
X72.735 Z31.382
X73.051 Z31.553
X73.383 Z31.691
X73.724 Z31.796
X75.262 Z32.145
X76.793 Z32.526
X78.314 Z32.941
X79.824 Z33.392
X81.298 Z33.869
X82.538 Z34.303
X84.015 Z34.853
X85.478 Z35.438
X86.927 Z36.057
X88.122 Z36.601
X89.544 Z37.283
X90.947 Z37.997
X92.31 Z38.732
X93.451 Z39.381
X94.782 Z40.175
X96.118 Z41.014
X97.409 Z41.867
X98.68 Z42.751
X99.74 Z43.524
X100.816 Z44.335
X101.065 Z44.508
X101.274 Z44.628
X101.49 Z44.731
X101.826 Z44.855
X102.173 Z44.941
X102.525 Z44.989
X102.793 Z45.
X103.37 Z44.995
X103.664 Z44.972
X104.019 Z44.914
X104.396 Z44.816
X104.641 Z44.73
X105.464 Z44.385
X106.063 Z44.122
X107.104 Z43.621
X107.572 Z43.386
X108.438 Z42.918
X109.175 Z42.488
X109.795 Z42.119
X110.729 Z41.508
X111.567 Z40.92
X111.965 Z40.635
X112.82 Z39.97
X113.022 Z39.807
X113.829 Z39.132
X114.025 Z38.962
X114.799 Z38.253
X114.986 Z38.073
X115.736 Z37.335
X116.098 Z36.958
X116.633 Z36.382
X117.473 Z35.409
X117.621 Z35.229
X118.276 Z34.41
X118.74 Z33.776
G2 X118.982 Z33.654 I0.242 K0.177
G1 X119.031
X119.056 Y19.935
X119.081 Y19.94 Z33.655
X119.104 Y19.949 Z33.657
X119.126 Y19.961 Z33.659
X119.146 Y19.976 Z33.661
X119.164 Y19.993 Z33.664
X119.179 Y20.013 Z33.668
X119.191 Y20.035 Z33.671
X119.2 Y20.058 Z33.675
X119.205 Y20.082 Z33.68
X119.207 Y20.106 Z33.684
X119.205 Y20.131 Z33.688
X119.2 Y20.155 Z33.692
X119.191 Y20.178 Z33.696
X119.179 Y20.2 Z33.7
X119.164 Y20.22 Z33.703
X119.146 Y20.237 Z33.706
X119.126 Y20.252 Z33.709
X119.104 Y20.264 Z33.711
X119.081 Y20.272 Z33.713
X119.056 Y20.278
X119.031 Y20.279 Z33.714
G3 X118.79 Z33.836 I0. K0.3
G1 X118.402 Z34.362
X117.643 Z35.329
X116.793 Z36.313
X115.904 Z37.273
X115.232 Z37.941
X114.854 Z38.301
X114.032 Z39.056
X113.283 Z39.691
X112.877 Z40.019
X111.995 Z40.704
X111.413 Z41.126
X110.874 Z41.5
X109.803 Z42.2
X109.216 Z42.555
X108.649 Z42.885
X107.612 Z43.452
X107.117 Z43.701
X106.437 Z44.03
X105.984 Z44.235
X105.263 Z44.556
X104.871 Z44.72
X104.534 Z44.839
X104.281 Z44.904
X103.895 Z44.97
X103.503 Z44.999
X102.747 Z44.996
X102.4 Z44.961
X102.051 Z44.888
X101.823 Z44.818
X101.601 Z44.731
X101.384 Z44.628
X101.175 Z44.508
X100.927 Z44.335
X99.854 Z43.522
X98.578 Z42.595
X97.501 Z41.845
X96.188 Z40.975
X94.855 Z40.138
X93.501 Z39.33
X92.36 Z38.68
X90.974 Z37.933
X89.57 Z37.218
X88.149 Z36.537
X86.953 Z35.993
X85.504 Z35.373
X84.042 Z34.789
X82.564 Z34.238
X81.324 Z33.805
X79.825 Z33.319
X78.315 Z32.869
X76.794 Z32.454
X75.519 Z32.134
X73.564 Z31.691
X73.241 Z31.591
X72.912 Z31.45
X72.595 Z31.276
X72.299 Z31.07
X72.021 Z30.833
X71.85 Z30.657
X71.619 Z30.372
X71.481 Z30.165
X71.358 Z29.947
X71.25 Z29.717
X70.853 Z28.651
X70.316 Z27.163
X69.659 Z25.301
X68.81 Z22.808
X68.033 Z20.432
X67.256 Z17.95
X67.063 Z17.31
G3 X66.776 Z17.097 I-0.287 K0.087
G1 X66.256
X66.206 Y20.28 Z17.095
X66.157 Y20.282 Z17.089
X66.108 Y20.284 Z17.08
X66.06 Y20.288 Z17.067
X66.013 Y20.293 Z17.05
X65.967 Y20.298 Z17.03
X65.924 Y20.305 Z17.007
X65.882 Y20.313 Z16.98
X65.843 Y20.321 Z16.95
X65.806 Y20.33 Z16.917
X65.772 Y20.34 Z16.882
X65.741 Y20.351 Z16.844
X65.713 Y20.362 Z16.804
X65.689 Y20.374 Z16.762
X65.668 Y20.386 Z16.719
X65.651 Y20.399 Z16.673
X65.637 Y20.412 Z16.627
X65.627 Y20.425 Z16.58
X65.622 Y20.439 Z16.532
X65.62 Y20.452 Z16.484
X65.622 Y20.466 Z16.436
X65.627 Y20.48 Z16.388
X65.637 Y20.493 Z16.341
X65.651 Y20.506 Z16.295
X65.668 Y20.519 Z16.249
X65.689 Y20.531 Z16.206
X65.713 Y20.543 Z16.164
X65.741 Y20.554 Z16.124
X65.772 Y20.565 Z16.086
X65.806 Y20.575 Z16.051
X65.843 Y20.584 Z16.018
X65.882 Y20.592 Z15.988
X65.924 Y20.6 Z15.961
X65.967 Y20.607 Z15.938
X66.013 Y20.612 Z15.918
X66.06 Y20.617 Z15.901
X66.108 Y20.621 Z15.888
X66.157 Y20.623 Z15.879
X66.206 Y20.625 Z15.873
X66.256 Z15.871
G2 X66.544 Z16.085 I0. K0.3
G1 X66.688 Z16.567
X67.355 Z18.703
X67.677 Z19.708
X68.376 Z21.836
X69.183 Z24.202
X70.085 Z26.746
X71.053 Z29.377
X71.196 Z29.735
X71.312 Z29.96
X71.442 Z30.172
X71.586 Z30.373
X71.743 Z30.562
X71.912 Z30.739
X72.186 Z30.977
X72.484 Z31.186
X72.692 Z31.306
X73.017 Z31.457
X73.356 Z31.574
X73.728 Z31.661
X75.496 Z32.061
X77.025 Z32.444
X78.292 Z32.793
X79.803 Z33.243
X81.303 Z33.727
X82.765 Z34.238
X83.995 Z34.7
X85.46 Z35.283
X86.908 Z35.901
X88.343 Z36.552
X89.525 Z37.122
X90.931 Z37.836
X92.318 Z38.581
X93.664 Z39.346
X94.992 Z40.142
X96.103 Z40.842
X97.419 Z41.71
X98.712 Z42.607
X99.75 Z43.363
X100.798 Z44.153
X101.181 Z44.439
X101.386 Z44.568
X101.653 Z44.706
X101.931 Z44.817
X102.274 Z44.916
X102.625 Z44.977
X102.907 Z44.998
X103.568 Z45.
X103.895 Z44.99
X104.22 Z44.953
X104.476 Z44.904
X104.728 Z44.837
X105.035 Z44.73
X105.337 Z44.601
X106.537 Z44.067
X107.686 Z43.491
X107.917 Z43.368
X108.881 Z42.841
X109.713 Z42.334
X110.157 Z42.059
X111.088 Z41.446
X111.459 Z41.179
X112.304 Z40.559
X113.206 Z39.853
X113.53 Z39.578
X114.32 Z38.892
X115.232 Z38.049
X116.175 Z37.089
X116.532 Z36.702
X117.059 Z36.125
X117.566 Z35.524
X117.897 Z35.123
X118.204 Z34.73
X118.682 Z34.112
X118.837 Z33.9
G2 X119.079 Z33.776 I0.242 K0.177
G1 X119.125
X119.15 Y20.627 Z33.777
X119.175 Y20.632
X119.198 Y20.641 Z33.779
X119.22 Y20.653 Z33.78
X119.24 Y20.668 Z33.783
X119.258 Y20.685 Z33.785
X119.273 Y20.705 Z33.788
X119.285 Y20.727 Z33.792
X119.293 Y20.75 Z33.795
X119.299 Y20.774 Z33.799
X119.3 Y20.798 Z33.802
X119.299 Y20.823 Z33.806
X119.293 Y20.847 Z33.81
X119.285 Y20.87 Z33.813
X119.273 Y20.892 Z33.816
X119.258 Y20.912 Z33.819
X119.24 Y20.929 Z33.822
X119.22 Y20.944 Z33.824
X119.198 Y20.956 Z33.826
X119.175 Y20.964 Z33.827
X119.15 Y20.97 Z33.828
X119.125 Y20.971
G3 X118.883 Z33.951 I0. K0.3
G1 X118.652 Z34.266
X117.944 Z35.173
X117.269 Z35.98
X117.101 Z36.177
X116.414 Z36.935
X116.236 Z37.125
X115.333 Z38.04
X114.469 Z38.853
X113.395 Z39.779
X112.532 Z40.473
X111.953 Z40.902
X111.289 Z41.383
X110.392 Z41.992
X109.78 Z42.372
X109.017 Z42.834
X108.126 Z43.336
X107.78 Z43.518
X106.865 Z43.98
X106.392 Z44.204
X105.555 Z44.582
X105.072 Z44.784
X104.731 Z44.888
X104.444 Z44.947
X104.185 Z44.982
X103.802 Z45.
X103.002 Z44.998
X102.732 Z44.977
X102.381 Z44.916
X102.038 Z44.817
X101.816 Z44.73
X101.599 Z44.626
X101.391 Z44.506
X101.094 Z44.295
X99.858 Z43.361
X98.82 Z42.602
X97.527 Z41.703
X96.236 Z40.849
X94.904 Z40.012
X93.572 Z39.218
X92.455 Z38.581
X91.068 Z37.833
X89.689 Z37.129
X88.269 Z36.446
X86.833 Z35.797
X85.625 Z35.28
X84.163 Z34.693
X82.712 Z34.15
X81.25 Z33.641
X79.749 Z33.158
X78.516 Z32.788
X77.022 Z32.376
X75.493 Z31.993
X73.725 Z31.593
X73.339 Z31.508
X73.098 Z31.436
X72.764 Z31.304
X72.446 Z31.136
X72.144 Z30.934
X71.866 Z30.702
X71.693 Z30.53
X71.533 Z30.343
X71.386 Z30.143
X71.254 Z29.931
X71.137 Z29.707
X70.99 Z29.351
X70.439 Z27.898
X69.576 Z25.55
X68.739 Z23.194
X67.929 Z20.828
X67.228 Z18.701
X66.904 Z17.696
X66.197 Z15.435
X66.025 Z14.86
G3 X65.737 Z14.646 I-0.287 K0.086
G1 X65.218
X65.169 Y20.972 Z14.644
X65.119 Y20.974 Z14.639
X65.07 Y20.976 Z14.629
X65.022 Y20.98 Z14.616
X64.975 Y20.985 Z14.6
X64.929 Y20.99 Z14.58
X64.886 Y20.997 Z14.556
X64.844 Y21.004 Z14.529
X64.805 Y21.013 Z14.5
X64.768 Y21.022 Z14.467
X64.734 Y21.032 Z14.432
X64.704 Y21.043 Z14.394
X64.676 Y21.054 Z14.354
X64.651 Y21.066 Z14.312
X64.63 Y21.078 Z14.268
X64.613 Y21.091 Z14.223
X64.6 Y21.104 Z14.177
X64.59 Y21.117 Z14.13
X64.584 Y21.131 Z14.082
X64.582 Y21.144 Z14.034
X64.584 Y21.158 Z13.986
X64.59 Y21.172 Z13.938
X64.6 Y21.185 Z13.891
X64.613 Y21.198 Z13.844
X64.63 Y21.211 Z13.799
X64.651 Y21.223 Z13.756
X64.676 Y21.235 Z13.714
X64.704 Y21.246 Z13.674
X64.734 Y21.257 Z13.636
X64.768 Y21.267 Z13.601
X64.805 Y21.276 Z13.568
X64.844 Y21.284 Z13.538
X64.886 Y21.292 Z13.512
X64.929 Y21.299 Z13.488
X64.975 Y21.304 Z13.468
X65.022 Y21.309 Z13.451
X65.07 Y21.313 Z13.438
X65.119 Y21.315 Z13.429
X65.169 Y21.317 Z13.423
X65.218 Z13.421
G2 X65.506 Z13.635 I0. K0.3
G1 X65.683 Z14.228
X66.47 Z16.741
X67.084 Z18.617
X67.5 Z19.868
X68.269 Z22.11
X69.108 Z24.466
X70.018 Z26.936
X70.899 Z29.247
X71.044 Z29.602
X71.159 Z29.827
X71.29 Z30.04
X71.435 Z30.241
X71.593 Z30.429
X71.764 Z30.604
X71.946 Z30.765
X72.138 Z30.912
X72.34 Z31.045
X72.658 Z31.213
X72.992 Z31.346
X73.233 Z31.418
X73.619 Z31.503
X75.388 Z31.902
X76.918 Z32.282
X78.412 Z32.691
X79.896 Z33.134
X81.396 Z33.62
X82.858 Z34.132
X84.063 Z34.586
X85.528 Z35.17
X86.976 Z35.787
X88.411 Z36.439
X89.594 Z37.01
X90.976 Z37.711
X92.365 Z38.458
X93.711 Z39.222
X95.039 Z40.017
X96.372 Z40.858
X97.443 Z41.569
X98.74 Z42.467
X99.99 Z43.377
X101.189 Z44.287
X101.498 Z44.506
X101.707 Z44.626
X101.923 Z44.73
X102.146 Z44.817
X102.489 Z44.916
X102.84 Z44.977
X103.19 Z45.
X103.893
X104.286 Z44.989
X104.546 Z44.959
X104.802 Z44.911
X105.053 Z44.845
X105.299 Z44.76
X105.661 Z44.609
X106.614 Z44.167
X107.063 Z43.954
X107.686 Z43.64
X108.227 Z43.354
X109.231 Z42.783
X109.792 Z42.443
X110.374 Z42.078
X111.432 Z41.36
X111.964 Z40.977
X112.54 Z40.546
X113.41 Z39.846
X113.811 Z39.512
X114.55 Z38.866
X115.529 Z37.937
X116.404 Z37.044
X117.261 Z36.087
X118.123 Z35.059
X118.913 Z34.018
G2 X119.152 Z33.899 I0.239 K0.181
G1 X119.182
X119.207 Y21.319 Z33.9
X119.231 Y21.324 Z33.901
X119.255 Y21.333 Z33.902
X119.277 Y21.345 Z33.904
X119.297 Y21.36 Z33.907
X119.314 Y21.377 Z33.91
X119.329 Y21.397 Z33.913
X119.341 Y21.419 Z33.917
X119.35 Y21.442 Z33.92
X119.356 Y21.466 Z33.925
X119.357 Y21.49 Z33.929
X119.356 Y21.515 Z33.933
X119.35 Y21.539 Z33.937
X119.341 Y21.562 Z33.941
X119.329 Y21.584 Z33.945
X119.314 Y21.604 Z33.948
X119.297 Y21.621 Z33.951
X119.277 Y21.636 Z33.953
X119.255 Y21.648 Z33.955
X119.231 Y21.656 Z33.957
X119.207 Y21.662 Z33.958
X119.182 Y21.663
G3 X118.943 Z34.076 I0. K0.3
G1 X118.229 Z35.016
X117.501 Z35.905
X116.65 Z36.861
X115.84 Z37.714
X115.566 Z37.986
X114.823 Z38.692
X114.064 Z39.373
X113.721 Z39.674
X112.854 Z40.374
X112.44 Z40.692
X111.666 Z41.273
X110.733 Z41.911
X110.294 Z42.195
X109.462 Z42.721
X108.516 Z43.26
X108.288 Z43.387
X107.183 Z43.967
X105.934 Z44.55
X105.454 Z44.76
X105.146 Z44.865
X104.83 Z44.939
X104.571 Z44.977
X104.31 Z44.997
X103.21 Z44.998
X102.945 Z44.977
X102.594 Z44.916
X102.251 Z44.817
X102.029 Z44.729
X101.813 Z44.625
X101.604 Z44.505
X101.307 Z44.295
X100.095 Z43.372
X98.845 Z42.46
X97.552 Z41.563
X96.261 Z40.71
X94.925 Z39.873
X93.822 Z39.21
X92.476 Z38.444
X91.09 Z37.697
X89.71 Z36.994
X88.289 Z36.311
X87.093 Z35.766
X85.645 Z35.146
X84.182 Z34.561
X82.731 Z34.018
X81.267 Z33.509
X80.018 Z33.102
X78.533 Z32.657
X77.039 Z32.245
X75.51 Z31.863
X73.742 Z31.463
X73.113 Z31.325
X72.885 Z31.256
X72.662 Z31.169
X72.445 Z31.067
X72.236 Z30.948
X72.035 Z30.814
X71.843 Z30.666
X71.662 Z30.503
X71.452 Z30.28
X71.261 Z30.033
X71.127 Z29.822
X71.008 Z29.598
X70.905 Z29.362
X70.348 Z27.94
X69.505 Z25.726
X68.605 Z23.287
X67.778 Z20.963
X67.028 Z18.783
X66.693 Z17.783
X65.997 Z15.658
X65.169 Z13.017
X64.987 Z12.41
G3 X64.699 Z12.196 I-0.287 K0.086
G1 X64.18
X64.13 Y21.664 Z12.194
X64.081 Y21.666 Z12.189
X64.031 Y21.668 Z12.179
X63.983 Y21.672 Z12.166
X63.936 Y21.677 Z12.149
X63.891 Y21.682 Z12.129
X63.847 Y21.689 Z12.106
X63.805 Y21.696 Z12.079
X63.766 Y21.705 Z12.049
X63.729 Y21.714 Z12.016
X63.695 Y21.724 Z11.981
X63.664 Y21.735 Z11.943
X63.636 Y21.746 Z11.903
X63.612 Y21.758 Z11.861
X63.591 Y21.77 Z11.817
X63.574 Y21.783 Z11.772
X63.56 Y21.796 Z11.725
X63.55 Y21.809 Z11.678
X63.544 Y21.823 Z11.63
X63.542 Y21.836 Z11.582
X63.544 Y21.85 Z11.534
X63.55 Y21.863 Z11.486
X63.56 Y21.877 Z11.439
X63.574 Y21.89 Z11.392
X63.591 Y21.903 Z11.347
X63.612 Y21.915 Z11.303
X63.636 Y21.927 Z11.261
X63.664 Y21.938 Z11.221
X63.695 Y21.949 Z11.183
X63.729 Y21.959 Z11.148
X63.766 Y21.968 Z11.115
X63.805 Y21.976 Z11.085
X63.847 Y21.984 Z11.058
X63.891 Y21.991 Z11.035
X63.936 Y21.996 Z11.015
X63.983 Y22.001 Z10.998
X64.031 Y22.005 Z10.985
X64.081 Y22.007 Z10.975
X64.13 Y22.009 Z10.97
X64.18 Z10.968
G2 X64.468 Z11.182 I0. K0.3
G1 X64.641 Z11.762
X65.478 Z14.434
X66.34 Z17.062
X67.064 Z19.178
X67.5 Z20.422
X68.211 Z22.406
X69.033 Z24.626
X69.948 Z27.025
X70.725 Z28.995
X70.91 Z29.45
X71.024 Z29.677
X71.154 Z29.892
X71.299 Z30.094
X71.457 Z30.283
X71.628 Z30.458
X71.81 Z30.62
X72.004 Z30.766
X72.26 Z30.928
X72.528 Z31.064
X72.749 Z31.154
X73.091 Z31.257
X73.863 Z31.422
X75.631 Z31.823
X76.905 Z32.144
X78.401 Z32.552
X79.886 Z32.994
X81.386 Z33.479
X82.848 Z33.99
X84.299 Z34.535
X85.518 Z35.024
X86.969 Z35.642
X88.403 Z36.292
X89.822 Z36.976
X91.202 Z37.681
X92.357 Z38.305
X93.706 Z39.069
X95.034 Z39.862
X96.367 Z40.7
X97.658 Z41.555
X98.95 Z42.454
X99.989 Z43.213
X101.223 Z44.15
X101.607 Z44.436
X101.811 Z44.565
X102.023 Z44.678
X102.243 Z44.774
X102.469 Z44.854
X102.815 Z44.941
X103.167 Z44.989
X103.435 Z45.
X103.924
X104.537 Z44.994
X104.798 Z44.968
X105.054 Z44.923
X105.307 Z44.86
X105.552 Z44.777
X105.913 Z44.622
X106.51 Z44.349
X107.308 Z43.964
X108.267 Z43.46
X108.728 Z43.21
X109.634 Z42.678
X110.743 Z41.975
X110.96 Z41.831
X111.82 Z41.227
X112.029 Z41.072
X112.868 Z40.438
X113.073 Z40.277
X113.881 Z39.606
X114.077 Z39.435
X114.842 Z38.753
X115.203 Z38.414
X115.766 Z37.865
X115.948 Z37.68
X116.673 Z36.919
X117.006 Z36.553
X117.525 Z35.962
X117.69 Z35.765
X118.17 Z35.173
X118.494 Z34.766
X118.97 Z34.138
G2 X119.209 Z34.019 I0.239 K0.181
G1 X119.224
X119.249 Y22.011
X119.273 Y22.016 Z34.02
X119.297 Y22.025 Z34.022
X119.319 Y22.037 Z34.024
X119.339 Y22.052 Z34.027
X119.356 Y22.069 Z34.03
X119.371 Y22.089 Z34.033
X119.383 Y22.111 Z34.037
X119.392 Y22.134 Z34.042
X119.398 Y22.158 Z34.046
X119.399 Y22.182 Z34.05
X119.398 Y22.207 Z34.055
X119.392 Y22.231 Z34.059
X119.383 Y22.254 Z34.064
X119.371 Y22.276 Z34.068
X119.356 Y22.296 Z34.071
X119.339 Y22.313 Z34.074
X119.319 Y22.328 Z34.077
X119.297 Y22.34 Z34.079
X119.273 Y22.348 Z34.081
X119.249 Y22.354 Z34.082
X119.224 Y22.355
G3 X118.983 Z34.203 I0. K0.3
G1 X118.516 Z34.831
X117.705 Z35.828
X116.855 Z36.805
X116.121 Z37.577
X115.94 Z37.763
X115.189 Z38.5
X114.857 Z38.813
X114.221 Z39.381
X114.045 Z39.534
X113.238 Z40.208
X113.036 Z40.373
X112.433 Z40.836
X112.014 Z41.151
X110.94 Z41.907
X110.28 Z42.336
X109.78 Z42.649
X108.676 Z43.299
X107.78 Z43.779
X107.313 Z44.016
X106.229 Z44.54
X105.794 Z44.733
X105.552 Z44.826
X105.224 Z44.917
X104.919 Z44.971
X104.563 Z44.999
X103.395 Z44.997
X103.154 Z44.977
X102.803 Z44.916
X102.46 Z44.816
X102.238 Z44.729
X102.022 Z44.624
X101.813 Z44.504
X101.541 Z44.311
X100.078 Z43.198
X98.824 Z42.286
X97.747 Z41.535
X96.456 Z40.679
X95.124 Z39.839
X93.795 Z39.044
X92.449 Z38.28
X91.06 Z37.534
X89.678 Z36.833
X88.495 Z36.262
X87.061 Z35.61
X85.612 Z34.992
X84.147 Z34.408
X82.695 Z33.867
X81.48 Z33.441
X79.981 Z32.955
X78.497 Z32.511
X77.003 Z32.101
X75.472 Z31.72
X73.703 Z31.321
X73.06 Z31.186
X72.818 Z31.121
X72.592 Z31.041
X72.373 Z30.944
X72.161 Z30.83
X71.958 Z30.701
X71.763 Z30.556
X71.58 Z30.396
X71.408 Z30.222
X71.21 Z29.985
X71.034 Z29.724
X70.912 Z29.502
X70.807 Z29.268
X70.17 Z27.681
X69.504 Z25.992
X68.574 Z23.564
X67.729 Z21.282
X66.94 Z19.081
X66.42 Z17.589
X65.824 Z15.845
X64.961 Z13.218
X64.163 Z10.665
X63.949 Z9.952
G3 X63.662 Z9.738 I-0.287 K0.086
G1 X63.143
X63.093 Y22.356 Z9.736
X63.043 Y22.358 Z9.73
X62.993 Y22.36 Z9.721
X62.945 Y22.364 Z9.708
X62.898 Y22.369 Z9.691
X62.852 Y22.374 Z9.671
X62.809 Y22.381 Z9.647
X62.767 Y22.388 Z9.621
X62.728 Y22.397 Z9.591
X62.691 Y22.406 Z9.558
X62.657 Y22.416 Z9.522
X62.625 Y22.427 Z9.484
X62.598 Y22.438 Z9.444
X62.573 Y22.45 Z9.402
X62.552 Y22.462 Z9.358
X62.535 Y22.475 Z9.313
X62.521 Y22.488 Z9.266
X62.511 Y22.501 Z9.219
X62.505 Y22.515 Z9.171
X62.503 Y22.528 Z9.123
X62.505 Y22.542 Z9.074
X62.511 Y22.555 Z9.026
X62.521 Y22.569 Z8.979
X62.535 Y22.582 Z8.932
X62.552 Y22.595 Z8.887
X62.573 Y22.607 Z8.843
X62.598 Y22.619 Z8.801
X62.625 Y22.63 Z8.761
X62.657 Y22.641 Z8.723
X62.691 Y22.651 Z8.687
X62.728 Y22.66 Z8.655
X62.767 Y22.668 Z8.625
X62.809 Y22.676 Z8.598
X62.852 Y22.683 Z8.574
X62.898 Y22.688 Z8.554
X62.945 Y22.693 Z8.537
X62.993 Y22.697 Z8.524
X63.043 Y22.699 Z8.515
X63.093 Y22.701 Z8.509
X63.143 Z8.507
G2 X63.43 Z8.72 I0. K0.3
G1 X63.688 Z9.576
X64.474 Z12.092
X65.338 Z14.719
X66.236 Z17.334
X66.987 Z19.441
X67.438 Z20.679
X68.174 Z22.653
X69.022 Z24.864
X69.592 Z26.308
X70.237 Z27.92
X70.825 Z29.345
X70.941 Z29.572
X71.072 Z29.785
X71.219 Z29.986
X71.379 Z30.173
X71.552 Z30.347
X71.737 Z30.505
X71.958 Z30.666
X72.245 Z30.834
X72.462 Z30.935
X72.686 Z31.02
X72.928 Z31.091
X73.828 Z31.281
X75.596 Z31.681
X77.125 Z32.065
X78.619 Z32.477
X79.852 Z32.847
X81.353 Z33.331
X82.816 Z33.84
X84.266 Z34.383
X85.729 Z34.969
X87.178 Z35.589
X88.373 Z36.134
X89.795 Z36.817
X91.174 Z37.519
X92.561 Z38.266
X93.907 Z39.033
X95.235 Z39.83
X96.345 Z40.531
X97.639 Z41.385
X98.932 Z42.282
X100.183 Z43.193
X101.645 Z44.31
X101.917 Z44.503
X102.125 Z44.624
X102.342 Z44.729
X102.564 Z44.816
X102.907 Z44.916
X103.258 Z44.977
X103.532 Z44.998
X104.544 Z45.
X104.89 Z44.988
X105.149 Z44.956
X105.405 Z44.904
X105.654 Z44.832
X105.897 Z44.741
X106.61 Z44.413
X107.764 Z43.849
X108.857 Z43.25
X110.001 Z42.576
X111.112 Z41.847
X112.184 Z41.092
X113.218 Z40.286
X114.281 Z39.4
X115.175 Z38.579
X116.136 Z37.639
X116.833 Z36.892
X117.183 Z36.504
X117.953 Z35.61
X118.604 Z34.79
X118.996 Z34.265
G2 X119.236 Z34.144 I0.241 K0.179
G1 X119.242
X119.267 Y22.703 Z34.145
X119.292 Y22.708 Z34.146
X119.315 Y22.717 Z34.148
X119.337 Y22.729 Z34.15
X119.358 Y22.744 Z34.153
X119.375 Y22.761 Z34.157
X119.391 Y22.781 Z34.161
X119.403 Y22.803 Z34.165
X119.411 Y22.826 Z34.17
X119.417 Y22.85 Z34.175
X119.419 Y22.874 Z34.18
X119.417 Y22.899 Z34.185
X119.411 Y22.923 Z34.19
X119.403 Y22.946 Z34.195
X119.391 Y22.968 Z34.199
X119.375 Y22.988 Z34.203
X119.358 Y23.005 Z34.207
X119.337 Y23.02 Z34.21
X119.315 Y23.032 Z34.213
X119.292 Y23.04 Z34.214
X119.267 Y23.046 Z34.215
X119.242 Y23.047 Z34.216
G3 X119.003 Z34.335 I0. K0.3
G1 X118.69 Z34.749
X117.978 Z35.65
X117.277 Z36.468
X116.838 Z36.95
X116.23 Z37.602
X115.677 Z38.158
X115.207 Z38.609
X114.359 Z39.385
X113.538 Z40.087
X113.026 Z40.493
X112.322 Z41.039
X111.474 Z41.655
X111.151 Z41.874
X110.163 Z42.522
X109.268 Z43.068
X108.929 Z43.261
X108.007 Z43.767
X107.191 Z44.185
X106.625 Z44.458
X106.029 Z44.733
X105.787 Z44.826
X105.475 Z44.915
X105.155 Z44.973
X104.894 Z44.996
X103.653 Z44.999
X103.359 Z44.977
X103.008 Z44.916
X102.666 Z44.816
X102.443 Z44.728
X102.174 Z44.594
X101.917 Z44.434
X100.307 Z43.203
X99.056 Z42.289
X97.763 Z41.389
X96.473 Z40.534
X95.14 Z39.696
X93.812 Z38.903
X92.463 Z38.139
X91.307 Z37.514
X89.928 Z36.809
X88.509 Z36.124
X87.075 Z35.473
X85.623 Z34.855
X84.159 Z34.272
X82.954 Z33.819
X81.491 Z33.307
X79.992 Z32.821
X78.508 Z32.378
X77.014 Z31.969
X75.483 Z31.588
X73.971 Z31.246
X72.942 Z31.031
X72.712 Z30.97
X72.486 Z30.891
X72.266 Z30.794
X72.054 Z30.681
X71.85 Z30.551
X71.656 Z30.405
X71.473 Z30.243
X71.302 Z30.067
X71.145 Z29.878
X70.968 Z29.624
X70.816 Z29.348
X70.485 Z28.566
X69.519 Z26.206
X68.546 Z23.748
X67.842 Z21.919
X67.377 Z20.687
X66.691 Z18.836
X65.781 Z16.294
X64.818 Z13.492
X63.965 Z10.889
X63.195 Z8.425
X63.172 Z8.35
X62.911 Z8.236
G3 X62.069 Z8.785 I-0.241 K0.549
G0 Z50.
X21.507 Y2.98
Z39.476
G1 Z36.996 F360.
G3 X21.073 Z36.419 I-0.6 K0. F1800.
G1 X20.974 Z36.391
G3 X20.209 Z36.967 I-0.166 K0.577
G0 Z50.
X16.656 Y3.326
Z38.163
G1 Z36.012 F360.
G2 X17.503 Z35.465 I0.6 K0. F1800.
G1 X18.594 Z35.958
X19.55 Z36.313
X20.022 Z36.483
X20.497 Z36.635
X20.75 Z36.712
X21.229 Z36.849
X21.485 Z36.917
X22.513 Z37.165
X22.945 Z37.252
X23.464 Z37.339
X24.307 Z37.476
X24.947 Z37.541
X26.467 Z37.695
X26.497 Y3.327 Z37.699
X26.526 Y3.332 Z37.706
X26.554 Y3.339 Z37.715
X26.58 Y3.349 Z37.727
X26.604 Y3.362 Z37.741
X26.626 Y3.377 Z37.757
X26.644 Y3.394 Z37.774
X26.659 Y3.412 Z37.792
X26.671 Y3.433 Z37.812
X26.678 Y3.454 Z37.832
X26.682 Y3.476 Z37.852
Y3.499 Z37.873
X26.678 Y3.521 Z37.893
X26.67 Y3.544 Z37.912
X26.659 Y3.565 Z37.93
X26.643 Y3.585 Z37.947
X26.625 Y3.604 Z37.962
X26.603 Y3.621 Z37.975
X26.579 Y3.636 Z37.986
X26.553 Y3.649 Z37.995
X26.525 Y3.659 Z38.001
X26.496 Y3.666 Z38.005
X26.466 Y3.67 Z38.006
X26.435 Y3.672 Z38.004
X25.931 Z37.98
X25.669 Z37.965
X25.171 Z37.921
X24.531 Z37.857
X23.802 Z37.758
X22.847 Z37.594
X22.47 Z37.517
X22.213 Z37.459
X21.217 Z37.216
X20.962 Z37.149
X20.259 Z36.926
X19.397 Z36.645
X18.844 Z36.429
X18.085 Z36.121
X17.096 Z35.67
X16.776 Z35.508
X15.966 Z35.071
G3 X15.523 Z35.335 I-0.143 K0.264
G1 X15.516 Y3.674 Z35.43
X15.495 Y3.68 Z35.522
X15.46 Y3.691 Z35.61
X15.412 Y3.705 Z35.691
X15.353 Y3.723 Z35.763
X15.284 Y3.743 Z35.825
X15.207 Y3.766 Z35.874
X15.122 Y3.791 Z35.911
X15.034 Y3.818 Z35.933
X14.943 Y3.845 Z35.94
X14.852 Y3.872 Z35.933
X14.764 Y3.898 Z35.911
X14.68 Y3.923 Z35.874
X14.602 Y3.947 Z35.825
X14.533 Y3.967 Z35.763
X14.474 Y3.985 Z35.691
X14.426 Y3.999 Z35.61
X14.392 Y4.009 Z35.522
X14.37 Y4.016 Z35.43
X14.363 Y4.018 Z35.335
Z35.048
G2 X14.823 Z34.794 I0.3 K0.
G1 X15.202 Z35.033
X15.561 Z35.245
X16.431 Z35.718
X17.652 Z36.313
X17.896 Z36.418
X18.971 Z36.851
X19.794 Z37.144
X20.491 Z37.365
X21.707 Z37.701
X21.965 Z37.76
X23.226 Z38.017
X23.487 Z38.064
X25.064 Z38.268
X26.654 Z38.363
X27.592 Z38.357
X27.661 Z38.365
X27.726 Z38.388
X27.79 Z38.411
X27.858 Z38.419
X28.837
X28.867 Y4.019 Z38.42
X28.897 Y4.024 Z38.424
X28.926 Y4.031 Z38.43
X28.953 Y4.041 Z38.439
X28.978 Y4.054 Z38.451
X29.001 Y4.069 Z38.464
X29.021 Y4.086 Z38.479
X29.038 Y4.104 Z38.496
X29.051 Y4.125 Z38.514
X29.061 Y4.146 Z38.533
X29.067 Y4.168 Z38.553
X29.069 Y4.191 Z38.573
X29.067 Y4.213 Z38.593
X29.061 Y4.236 Z38.613
X29.051 Y4.257 Z38.632
X29.038 Y4.277 Z38.651
X29.021 Y4.296 Z38.667
X29.001 Y4.313 Z38.683
X28.978 Y4.328 Z38.696
X28.953 Y4.341 Z38.707
X28.926 Y4.351 Z38.716
X28.897 Y4.358 Z38.723
X28.867 Y4.362 Z38.727
X28.837 Y4.364 Z38.728
X28.769 Z38.72
X28.705 Z38.697
X28.659 Z38.679
X28.611 Z38.669
X28.562 Z38.667
X27.902 Z38.691
X26.963 Z38.697
X26.054 Z38.668
X25.438 Z38.629
X24.68 Z38.556
X24.418 Z38.528
X23.689 Z38.427
X22.822 Z38.279
X22.216 Z38.156
X21.729 Z38.044
X21.473 Z37.984
X20.357 Z37.675
X19.892 Z37.531
X18.536 Z37.046
X17.936 Z36.792
X17.454 Z36.583
X17.213 Z36.473
X16.145 Z35.951
X15.005 Z35.303
X14.777 Z35.165
X13.934 Z34.627
X13.851 Z34.572
X13.799 Z34.544
X13.743 Z34.528
X13.685 Z34.522
X12.853
X12.827 Y4.365 Z34.521
X12.802 Y4.37 Z34.518
X12.777 Y4.377 Z34.514
X12.754 Y4.387 Z34.509
X12.732 Y4.4 Z34.501
X12.713 Y4.415 Z34.493
X12.695 Y4.432 Z34.483
X12.681 Y4.45 Z34.472
X12.669 Y4.471 Z34.461
X12.661 Y4.492 Z34.449
X12.656 Y4.514 Z34.436
X12.654 Y4.537 Z34.423
X12.656 Y4.559 Z34.41
X12.661 Y4.582 Z34.397
X12.669 Y4.603 Z34.385
X12.681 Y4.623 Z34.374
X12.695 Y4.642 Z34.363
X12.713 Y4.659 Z34.353
X12.732 Y4.674 Z34.345
X12.754 Y4.687 Z34.337
X12.777 Y4.697 Z34.332
X12.802 Y4.704 Z34.328
X12.827 Y4.708 Z34.325
X12.853 Y4.71 Z34.324
X12.916 Z34.331
X12.975 Z34.35
X13.03 Z34.381
X13.427 Z34.67
X14.58 Z35.433
X15.623 Z36.033
X15.856 Z36.157
X16.864 Z36.676
X18.087 Z37.21
X18.717 Z37.459
X19.465 Z37.729
X20.274 Z37.984
X20.954 Z38.189
X22.5 Z38.555
X23.941 Z38.796
X24.175 Z38.829
X24.437 Z38.858
X25.222 Z38.933
X25.869 Z38.988
X27.454 Z39.031
X28.589 Z38.985
X29.113 Z38.959
X29.375 Z38.937
X29.429
X29.482 Z38.947
X29.533 Z38.966
X29.597 Z38.989
X29.665 Z38.997
X30.394
X30.422 Y4.711 Z38.998
X30.449 Y4.716 Z39.001
X30.475 Y4.723 Z39.006
X30.5 Y4.733 Z39.013
X30.523 Y4.746 Z39.022
X30.543 Y4.761 Z39.032
X30.562 Y4.778 Z39.044
X30.577 Y4.796 Z39.057
X30.589 Y4.817 Z39.071
X30.598 Y4.838 Z39.086
X30.603 Y4.86 Z39.101
X30.605 Y4.883 Z39.117
X30.603 Y4.905 Z39.133
X30.598 Y4.928 Z39.148
X30.589 Y4.949 Z39.163
X30.577 Y4.969 Z39.177
X30.562 Y4.988 Z39.19
X30.543 Y5.005 Z39.202
X30.523 Y5.02 Z39.212
X30.5 Y5.033 Z39.221
X30.475 Y5.043 Z39.228
X30.449 Y5.05 Z39.233
X30.422 Y5.054 Z39.236
X30.394 Y5.056 Z39.237
X30.327 Z39.229
X30.262 Z39.206
X30.21 Z39.187
X30.156 Z39.177
X30.1
X29.266 Z39.263
X28.529 Z39.307
X28.003 Z39.33
X27.472 Z39.336
X26.668 Z39.334
X26.167 Z39.314
X25.085 Z39.244
X24.557 Z39.188
X23.684 Z39.075
X23.424 Z39.037
X22.931 Z38.952
X21.912 Z38.746
X21.097 Z38.548
X20.388 Z38.351
X19.254 Z37.995
X18.631 Z37.76
X17.896 Z37.474
X17.489 Z37.303
X16.528 Z36.858
X15.405 Z36.279
X15.172 Z36.147
X14.294 Z35.618
X14.069 Z35.477
X13.215 Z34.911
X12.996 Z34.758
X12.287 Z34.22
X12.232 Z34.186
X12.17 Z34.166
X12.106 Z34.159
X11.426
X11.4 Y5.058 Z34.158
X11.374 Y5.063 Z34.156
X11.349 Y5.071 Z34.152
X11.326 Y5.083 Z34.148
X11.304 Y5.098 Z34.142
X11.286 Y5.116 Z34.135
X11.27 Y5.135 Z34.127
X11.257 Y5.157 Z34.119
X11.248 Y5.18 Z34.109
X11.242 Y5.204 Z34.1
X11.24 Y5.229 Z34.09
X11.242 Y5.253 Z34.08
X11.248 Y5.278 Z34.071
X11.257 Y5.301 Z34.062
X11.27 Y5.322 Z34.053
X11.286 Y5.342 Z34.045
X11.304 Y5.36 Z34.038
X11.326 Y5.374 Z34.032
X11.349 Y5.386 Z34.028
X11.374 Y5.395 Z34.024
X11.4 Y5.4 Z34.022
X11.426 Y5.402
X11.492 Z34.029
X11.555 Z34.051
X11.612 Z34.086
X11.807 Z34.24
X12.623 Z34.859
X12.839 Z35.015
X13.748 Z35.644
X14.894 Z36.338
X15.926 Z36.903
X16.269 Z37.073
X17.44 Z37.617
X17.767 Z37.754
X18.587 Z38.075
X18.835 Z38.166
X19.92 Z38.536
X20.259 Z38.634
X21.613 Z38.998
X22.969 Z39.271
X23.377 Z39.341
X24.452 Z39.484
X25.069 Z39.551
X26.18 Z39.622
X26.664 Z39.643
X28.202 Z39.637
X28.792 Z39.601
X29.579 Z39.544
X30.102 Z39.492
X30.621 Z39.417
G2 X30.964 Z39.714 I0.043 K0.297
G1 Z39.829
X30.97 Y5.406 Z39.896
X30.987 Y5.417 Z39.959
X31.016 Y5.435 Z40.018
X31.054 Y5.459 Z40.068
X31.099 Y5.488 Z40.107
X31.151 Y5.521 Z40.134
X31.206 Y5.557 Z40.148
X31.263 Y5.593
X31.319 Y5.628 Z40.134
X31.37 Y5.661 Z40.107
X31.416 Y5.691 Z40.068
X31.454 Y5.715 Z40.018
X31.482 Y5.733 Z39.959
X31.5 Y5.744 Z39.896
X31.506 Y5.748 Z39.829
G3 X31.14 Z39.536 I-0.3 K0.
G1 X30.372 Z39.709
X29.693 Z39.824
X29.04 Z39.891
X28.286 Z39.929
X27.213 Z39.948
X25.775 Z39.905
X25.421 Z39.878
X24.11 Z39.749
X23.439 Z39.646
X22.515 Z39.492
X21.965 Z39.376
X21.223 Z39.204
X20.967 Z39.139
X20.231 Z38.937
X19.754 Z38.793
X19.279 Z38.633
X18.323 Z38.302
X17.12 Z37.799
X16.877 Z37.692
X16.212 Z37.377
X15.66 Z37.098
X14.68 Z36.561
X14.349 Z36.367
X13.392 Z35.76
X12.311 Z35.006
X11.389 Z34.285
X11.005 Z33.957
X10.962 Z33.926
X10.914 Z33.904
X10.863 Z33.89
X10.81 Z33.885
X10.238
X10.212 Y5.75
X10.187 Y5.755 Z33.883
X10.163 Y5.763 Z33.881
X10.14 Y5.775 Z33.877
X10.119 Y5.79 Z33.872
X10.101 Y5.808 Z33.867
X10.086 Y5.827 Z33.861
X10.073 Y5.849 Z33.855
X10.064 Y5.872 Z33.848
X10.059 Y5.896 Z33.84
X10.057 Y5.921 Z33.833
X10.059 Y5.945 Z33.826
X10.064 Y5.97 Z33.818
X10.073 Y5.993 Z33.811
X10.086 Y6.014 Z33.805
X10.101 Y6.034 Z33.799
X10.119 Y6.052 Z33.793
X10.14 Y6.066 Z33.789
X10.163 Y6.078 Z33.785
X10.187 Y6.087 Z33.783
X10.212 Y6.092 Z33.781
X10.238 Y6.094
X10.291 Z33.785
X10.342 Z33.8
X10.39 Z33.822
X10.434 Z33.854
X10.962 Z34.309
X11.874 Z35.033
X12.277 Z35.336
X13.031 Z35.871
X14.137 Z36.575
X14.671 Z36.888
X15.317 Z37.247
X16.551 Z37.864
X16.821 Z37.988
X17.824 Z38.411
X18.619 Z38.713
X19.233 Z38.932
X20.735 Z39.385
X22.21 Z39.728
X22.701 Z39.821
X23.22 Z39.906
X23.947 Z40.017
X24.443 Z40.077
X24.705 Z40.102
X25.464 Z40.172
X26.002 Z40.205
X27.254 Z40.24
X28.059 Z40.228
X28.586 Z40.205
X29.173 Z40.139
X29.755 Z40.039
X30.268 Z39.928
X30.903 Z39.766
X31.659 Z39.544
X31.713 Z39.533
X31.769
X31.824 Z39.542
X31.876 Z39.562
X31.94 Z39.585
X32.008 Z39.593
X32.541
X32.566 Y6.096 Z39.592
X32.591 Y6.101 Z39.591
X32.615 Y6.109 Z39.589
X32.637 Y6.121 Z39.586
X32.657 Y6.136 Z39.582
X32.675 Y6.154 Z39.578
X32.69 Y6.173 Z39.573
X32.703 Y6.195 Z39.568
X32.712 Y6.218 Z39.562
X32.717 Y6.242 Z39.556
X32.719 Y6.267 Z39.55
X32.717 Y6.291 Z39.544
X32.712 Y6.316 Z39.538
X32.703 Y6.339 Z39.532
X32.69 Y6.36 Z39.527
X32.675 Y6.38 Z39.522
X32.657 Y6.398 Z39.517
X32.637 Y6.412 Z39.514
X32.615 Y6.424 Z39.511
X32.591 Y6.433 Z39.509
X32.566 Y6.438 Z39.507
X32.541 Y6.44
X32.473 Z39.499
X32.409 Z39.476
X32.353 Z39.456
X32.295 Z39.446
X32.236 Z39.449
X32.178 Z39.462
X31.31 Z39.764
X30.559 Z39.999
X29.926 Z40.173
X29.287 Z40.32
X28.641 Z40.435
X28.12 Z40.495
X27.727 Z40.518
X26.925
X26.274 Z40.501
X24.811 Z40.406
X23.215 Z40.2
X22.519 Z40.069
X21.629 Z39.892
X21.054 Z39.751
X20.175 Z39.517
X19.304 Z39.25
X18.688 Z39.038
X17.462 Z38.576
X16.329 Z38.068
X15.878 Z37.848
X15.197 Z37.504
X14.783 Z37.273
X13.919 Z36.774
X13.326 Z36.401
X12.875 Z36.104
X12.656 Z35.953
X11.827 Z35.352
X11.614 Z35.193
X10.924 Z34.645
X10.561 Z34.339
X9.902 Z33.75
X9.859 Z33.718
X9.81 Z33.694
X9.757 Z33.679
X9.703 Z33.674
X9.206
X9.181 Y6.442
X9.156 Y6.447 Z33.672
X9.132 Y6.455 Z33.67
X9.11 Y6.467 Z33.668
X9.09 Y6.482 Z33.665
X9.072 Y6.5 Z33.661
X9.057 Y6.519 Z33.657
X9.045 Y6.541 Z33.652
X9.036 Y6.564 Z33.647
X9.03 Y6.588 Z33.642
X9.029 Y6.613 Z33.636
X9.03 Y6.637 Z33.631
X9.036 Y6.662 Z33.626
X9.045 Y6.685 Z33.621
X9.057 Y6.706 Z33.616
X9.072 Y6.726 Z33.612
X9.09 Y6.744 Z33.608
X9.11 Y6.758 Z33.605
X9.132 Y6.77 Z33.602
X9.156 Y6.779 Z33.6
X9.181 Y6.784 Z33.599
X9.206 Y6.786
X9.26 Z33.604
X9.313 Z33.618
X9.362 Z33.642
X9.406 Z33.675
X10.253 Z34.433
X10.456 Z34.607
X11.248 Z35.258
X11.484 Z35.443
X12.353 Z36.077
X13.292 Z36.704
X13.693 Z36.959
X14.556 Z37.463
X14.789 Z37.591
X15.908 Z38.179
X17.083 Z38.708
X17.789 Z38.996
X18.406 Z39.232
X19.845 Z39.713
X20.919 Z39.998
X21.404 Z40.122
X21.634 Z40.174
X21.892 Z40.227
X22.899 Z40.422
X23.392 Z40.501
X24.323 Z40.624
X25.055 Z40.698
X25.874 Z40.753
X26.48 Z40.785
X27.15 Z40.794
X27.544 Z40.774
X28.13 Z40.708
X28.711 Z40.605
X29.223 Z40.489
X29.856 Z40.319
X30.607 Z40.083
X31.5 Z39.767
X32.697 Z39.302
X32.757 Z39.285
X32.818 Z39.281
X32.88 Z39.29
X32.938 Z39.312
X33.002 Z39.335
X33.07 Z39.342
X33.598
X33.625 Y6.787 Z39.341
X33.652 Y6.792 Z39.338
X33.678 Y6.799 Z39.333
X33.703 Y6.809 Z39.326
X33.726 Y6.822 Z39.318
X33.746 Y6.836 Z39.307
X33.765 Y6.853 Z39.296
X33.78 Y6.872 Z39.283
X33.792 Y6.893 Z39.269
X33.801 Y6.914 Z39.254
X33.806 Y6.936 Z39.239
X33.808 Y6.959 Z39.223
X33.806 Y6.981 Z39.207
X33.801 Y7.004 Z39.192
X33.792 Y7.025 Z39.177
X33.78 Y7.045 Z39.163
X33.765 Y7.064 Z39.15
X33.746 Y7.081 Z39.139
X33.726 Y7.096 Z39.128
X33.703 Y7.109 Z39.12
X33.678 Y7.119 Z39.113
X33.652 Y7.126 Z39.108
X33.625 Y7.13 Z39.105
X33.598 Y7.132 Z39.104
X33.53 Z39.096
X33.466 Z39.073
X33.405 Z39.051
X33.342 Z39.043
X33.278 Z39.048
X33.216 Z39.067
X31.79 Z39.675
X30.815 Z40.064
X30.075 Z40.333
X29.452 Z40.537
X28.821 Z40.717
X28.312 Z40.839
X27.659 Z40.961
X27.146 Z41.022
X26.753 Z41.048
X26.267 Z41.045
X25.745 Z41.02
X25.482 Z41.003
X23.909 Z40.849
X22.324 Z40.593
X21.739 Z40.465
X20.97 Z40.291
X20.485 Z40.166
X20.004 Z40.029
X19.387 Z39.845
X18.551 Z39.567
X18.08 Z39.398
X16.909 Z38.925
X16.531 Z38.761
X15.496 Z38.266
X14.3 Z37.633
X13.119 Z36.912
X12.095 Z36.228
X11.084 Z35.467
X10.037 Z34.609
X9.119 Z33.763
X8.937 Z33.582
X8.891 Z33.544
X8.84 Z33.517
X8.783 Z33.5
X8.725 Z33.494
X8.281
X8.256 Y7.134
X8.232 Y7.139 Z33.493
X8.208 Y7.147 Z33.491
X8.186 Y7.159 Z33.489
X8.166 Y7.174 Z33.486
X8.148 Y7.191 Z33.482
X8.133 Y7.211 Z33.478
X8.121 Y7.233 Z33.474
X8.112 Y7.256 Z33.469
X8.107 Y7.28 Z33.464
X8.105 Y7.305 Z33.459
X8.107 Y7.329 Z33.454
X8.112 Y7.354 Z33.449
X8.121 Y7.377 Z33.444
X8.133 Y7.398 Z33.44
X8.148 Y7.418 Z33.436
X8.166 Y7.436 Z33.433
X8.186 Y7.45 Z33.43
X8.208 Y7.462 Z33.427
X8.232 Y7.471 Z33.425
X8.256 Y7.476 Z33.424
X8.281 Y7.478
X8.34 Z33.43
X8.396 Z33.447
X8.448 Z33.475
X8.494 Z33.512
X8.762 Z33.781
X9.705 Z34.656
X10.669 Z35.476
X11.665 Z36.231
X11.881 Z36.386
X12.799 Z37.022
X13.955 Z37.728
X14.997 Z38.306
X15.325 Z38.471
X16.225 Z38.903
X16.766 Z39.146
X17.361 Z39.392
X17.827 Z39.576
X19.014 Z40.004
X20.535 Z40.451
X20.963 Z40.556
X21.821 Z40.751
X22.485 Z40.883
X23.412 Z41.036
X23.933 Z41.106
X24.429 Z41.166
X25.423 Z41.259
X25.901 Z41.287
X26.284
X26.824 Z41.247
X27.214 Z41.195
X27.826 Z41.08
X28.494 Z40.911
X29.12 Z40.719
X29.739 Z40.502
X30.473 Z40.218
X31.439 Z39.808
X33.735 Z38.762
G2 X33.991 Z38.766 I0.124 K0.273
G1 X34.056 Z38.789
X34.124 Z38.797
X34.642
X34.671 Y7.479 Z38.795
X34.699 Y7.483 Z38.792
X34.726 Y7.489 Z38.786
X34.752 Y7.498 Z38.778
X34.776 Y7.508 Z38.768
X34.799 Y7.521 Z38.756
X34.819 Y7.536 Z38.742
X34.837 Y7.552 Z38.727
X34.851 Y7.57 Z38.71
X34.863 Y7.589 Z38.693
X34.872 Y7.609 Z38.674
X34.877 Y7.63 Z38.655
X34.878 Y7.651 Z38.636
X34.877 Y7.672 Z38.616
X34.872 Y7.692 Z38.597
X34.863 Y7.712 Z38.579
X34.851 Y7.731 Z38.561
X34.837 Y7.749 Z38.544
X34.819 Y7.765 Z38.529
X34.799 Y7.78 Z38.515
X34.776 Y7.793 Z38.503
X34.752 Y7.804 Z38.493
X34.726 Y7.813 Z38.485
X34.699 Y7.819 Z38.48
X34.671 Y7.822 Z38.476
X34.642 Y7.824 Z38.475
X34.575 Z38.467
X34.51 Z38.444
G3 X34.254 Z38.44 I-0.132 K0.269
G1 X32.866 Z39.071
X30.804 Z40.055
X29.964 Z40.428
X29.235 Z40.723
X28.619 Z40.946
X27.993 Z41.142
X27.343 Z41.309
X26.845 Z41.406
X26.456 Z41.464
X25.933 Z41.507
X25.533 Z41.514
X25.03 Z41.483
X24.794 Z41.464
X24.298 Z41.405
X23.053 Z41.244
X21.501 Z40.945
X20.835 Z40.782
X20.014 Z40.568
X19.252 Z40.34
X18.554 Z40.109
X17.361 Z39.673
X16.003 Z39.082
X15.2 Z38.691
X14.755 Z38.461
X13.589 Z37.81
X12.849 Z37.345
X12.627 Z37.204
X12.405 Z37.056
X11.564 Z36.472
X11.253 Z36.246
X10.424 Z35.598
X9.388 Z34.714
X8.632 Z34.007
X8.376 Z33.752
X8.083 Z33.448
X8.037 Z33.41
X7.984 Z33.381
X7.926 Z33.363
X7.867 Z33.357
X7.47
X7.445 Y7.826 Z33.356
X7.421 Y7.831
X7.397 Y7.839 Z33.354
X7.375 Y7.851 Z33.352
X7.355 Y7.866 Z33.35
X7.338 Y7.883 Z33.347
X7.323 Y7.903 Z33.344
X7.311 Y7.925 Z33.341
X7.302 Y7.948 Z33.337
X7.297 Y7.972 Z33.333
X7.295 Y7.997 Z33.329
X7.297 Y8.021 Z33.325
X7.302 Y8.045 Z33.322
X7.311 Y8.069 Z33.318
X7.323 Y8.09 Z33.315
X7.338 Y8.11 Z33.311
X7.355 Y8.127 Z33.309
X7.375 Y8.142 Z33.306
X7.397 Y8.154 Z33.304
X7.421 Y8.163 Z33.303
X7.445 Y8.168 Z33.302
X7.47 Y8.17
X7.53 Z33.308
X7.587 Z33.326
X7.64 Z33.355
X7.686 Z33.394
X8.131 Z33.855
X8.322 Z34.043
X8.872 Z34.57
X9.22 Z34.896
X10.05 Z35.61
X10.948 Z36.319
X11.351 Z36.62
X12.145 Z37.182
X13.231 Z37.877
X13.661 Z38.134
X14.433 Z38.569
X15.425 Z39.076
X15.836 Z39.279
X16.899 Z39.743
X17.498 Z39.982
X18.273 Z40.276
X19.77 Z40.76
X21.06 Z41.093
X21.316 Z41.154
X21.805 Z41.259
X22.321 Z41.357
X22.813 Z41.447
X23.073 Z41.488
X23.567 Z41.563
X24.062 Z41.626
X24.648 Z41.695
X25.069 Z41.725
X25.532 Z41.718
X25.908 Z41.689
X26.444 Z41.612
X26.957 Z41.507
X27.464 Z41.374
X28.089 Z41.176
X28.703 Z40.949
X29.308 Z40.698
X30.024 Z40.371
X31.835 Z39.473
X33.165 Z38.842
X34.773 Z38.124
G2 X35.028 Z38.128 I0.122 K0.274
G1 X35.092 Z38.151
X35.16 Z38.159
X35.676
X35.706 Y8.171 Z38.158
X35.736 Y8.176 Z38.154
X35.765 Y8.183 Z38.147
X35.792 Y8.193 Z38.138
X35.818 Y8.206 Z38.127
X35.84 Y8.22 Z38.114
X35.86 Y8.237 Z38.098
X35.877 Y8.256 Z38.082
X35.891 Y8.277 Z38.063
X35.901 Y8.298 Z38.044
X35.906 Y8.32 Z38.024
X35.908 Y8.343 Z38.004
X35.906 Y8.365 Z37.984
X35.901 Y8.388 Z37.964
X35.891 Y8.409 Z37.945
X35.877 Y8.429 Z37.926
X35.86 Y8.448 Z37.909
X35.84 Y8.465 Z37.894
X35.818 Y8.48 Z37.881
X35.792 Y8.493 Z37.87
X35.765 Y8.503 Z37.861
X35.736 Y8.51 Z37.854
X35.706 Y8.514 Z37.85
