(STAND_ROUGH)
(T3 D=6. CR=0. - ZMIN=0. - FLAT END MILL)
G90 G94 G91.1 G40 G49 G17
G21
G28 G91 Z0.
G90

(ADAPTIVE4)
T3 M6
S16000 M3
G17 G90 G94
G54
G0 X-0.605 Y-6.839
G43 Z60. H3
G0 Z50.
Z43.2
G1 Z42.6 F1800.
X-0.603 Y-6.832 Z42.506
X-0.598 Y-6.811 Z42.415
X-0.589 Y-6.776 Z42.328
X-0.577 Y-6.728 Z42.247
X-0.562 Y-6.669 Z42.176
X-0.544 Y-6.6 Z42.115
X-0.524 Y-6.522 Z42.065
X-0.502 Y-6.438 Z42.029
X-0.48 Y-6.349 Z42.007
X-0.456 Y-6.258 Z42.
G3 X0.013 Y-2.992 I-14.839 J3.801
G1 Y-2.842
X-0.178 Y-1.903
X-0.309 Y-0.955
X-0.399 Y-0.001
X-0.46 Y0.955
X-0.501 Y1.912
X-0.528 Y2.869
X-0.547 Y3.826
X-0.56 Y4.784
X-0.568 Y5.742
X-0.574 Y6.699
X-0.578 Y7.657
X-0.582 Y9.572
X-0.585 Y12.445
Y22.98
X-0.583 Y47.88
X-0.579 Y98.638
X-0.576 Y147.241
X-0.494 Y147.713
X-0.258 Y148.13
X0.363 Y148.859
X1.162 Y149.386
X2.045 Y149.759
X2.967 Y150.018
X3.907 Y150.197
X4.857 Y150.319
X5.811 Y150.402
X6.767 Y150.459
X7.724 Y150.497
X8.682 Y150.523
X9.639 Y150.541
X10.597 Y150.553
X11.554 Y150.561
X12.512 Y150.566
X13.47 Y150.57
X15.385 Y150.574
X18.258 Y150.576
X29.751 Y150.577
X50.82
X101.578
X117.38
X117.834 Y150.425
X118.638 Y149.904
X119.228 Y149.15
X119.647 Y148.289
X119.94 Y147.377
X120.143 Y146.441
X120.282 Y145.493
X120.376 Y144.54
X120.441 Y143.585
X120.484 Y142.628
X120.514 Y141.671
X120.534 Y140.713
X120.547 Y139.756
X120.557 Y138.798
X120.563 Y137.84
X120.567 Y136.883
X120.571 Y134.967
X120.574 Y132.094
X120.575 Y122.517
Y116.771
Y66.013
Y15.255
Y2.805
X120.489 Y2.334
X120.263 Y1.912
X119.655 Y1.172
X118.862 Y0.636
X117.982 Y0.257
X117.062 Y-0.007
X116.121 Y-0.189
X115.172 Y-0.314
X114.218 Y-0.399
X113.262 Y-0.457
X112.305 Y-0.496
X111.348 Y-0.522
X110.39 Y-0.54
X109.433 Y-0.552
X108.475 Y-0.56
X107.517 Y-0.566
X106.56 Y-0.569
X104.644 Y-0.574
X101.771 Y-0.576
X90.279 Y-0.577
X83.575
X32.817
X5.523
X5.283 Y-0.57
X4.814 Y-0.473
X4.394 Y-0.244
X3.652 Y0.362
X3.105 Y1.148
X2.713 Y2.022
X2.437 Y2.939
X2.243 Y3.877
X2.109 Y4.825
X2.016 Y5.778
X1.952 Y6.734
X1.909 Y7.691
X1.879 Y8.648
X1.858 Y9.605
X1.844 Y10.563
X1.835 Y11.52
X1.828 Y12.478
X1.824 Y13.436
X1.819 Y15.351
X1.816 Y18.224
X1.815 Y21.097
X1.819 Y71.855
X1.823 Y122.613
X1.824 Y144.161
X1.923 Y144.63
X2.303 Y145.509
X2.948 Y146.217
X3.738 Y146.758
X4.607 Y147.16
X5.519 Y147.453
X6.453 Y147.665
X7.399 Y147.816
X8.35 Y147.924
X9.305 Y148.
X10.261 Y148.053
X11.218 Y148.09
X12.175 Y148.117
X13.133 Y148.135
X14.091 Y148.148
X15.048 Y148.157
X16.006 Y148.163
X16.964 Y148.167
X18.879 Y148.172
X21.752 Y148.176
X29.414 Y148.177
X80.172
X114.17
X114.638 Y148.077
X115.516 Y147.694
X116.223 Y147.048
X116.764 Y146.258
X117.165 Y145.388
X117.457 Y144.476
X117.667 Y143.542
X117.818 Y142.596
X117.924 Y141.644
X118. Y140.689
X118.053 Y139.733
X118.09 Y138.776
X118.116 Y137.819
X118.134 Y136.861
X118.147 Y135.904
X118.155 Y134.946
X118.162 Y133.988
X118.166 Y133.031
X118.171 Y131.115
X118.174 Y128.242
X118.175 Y120.581
Y82.273
Y31.515
Y5.657
X118.035 Y5.199
X117.592 Y4.35
X116.914 Y3.674
X116.106 Y3.16
X115.227 Y2.78
X114.31 Y2.503
X113.373 Y2.304
X112.426 Y2.161
X111.474 Y2.06
X110.519 Y1.989
X109.562 Y1.939
X108.605 Y1.904
X107.648 Y1.879
X106.69 Y1.862
X105.733 Y1.85
X104.775 Y1.842
X103.817 Y1.836
X102.86 Y1.832
X100.944 Y1.827
X98.071 Y1.824
X95.198 Y1.823
X44.44
X8.048
X7.14 Y2.128
X6.386 Y2.719
X5.801 Y3.477
X5.361 Y4.328
X5.037 Y5.229
X4.801 Y6.157
X4.63 Y7.1
X4.509 Y8.049
X4.422 Y9.003
X4.36 Y9.959
X4.317 Y10.916
X4.286 Y11.873
X4.265 Y12.83
X4.25 Y13.788
X4.239 Y14.746
X4.232 Y15.703
X4.227 Y16.661
X4.223 Y17.619
X4.219 Y19.534
X4.216 Y22.407
Y31.026
X4.218 Y65.503
X4.222 Y116.261
X4.224 Y141.161
X4.265 Y141.638
X4.515 Y142.563
X5.06 Y143.351
X5.783 Y143.978
X6.612 Y144.459
X7.499 Y144.819
X8.419 Y145.086
X9.357 Y145.28
X10.304 Y145.421
X11.256 Y145.523
X12.211 Y145.596
X13.167 Y145.648
X14.124 Y145.686
X15.082 Y145.712
X16.039 Y145.731
X16.997 Y145.745
X17.954 Y145.754
X18.912 Y145.761
X19.87 Y145.766
X21.785 Y145.771
X24.658 Y145.775
X27.531 Y145.776
X66.797 Y145.777
X78.289
X110.851
X111.809 Y145.776
X112.712 Y145.459
X113.47 Y144.873
X114.07 Y144.126
X114.527 Y143.285
X114.868 Y142.39
X115.121 Y141.466
X115.305 Y140.527
X115.438 Y139.578
X115.535 Y138.625
X115.604 Y137.67
X115.654 Y136.714
X115.689 Y135.757
X115.714 Y134.799
X115.732 Y133.842
X115.745 Y132.884
X115.754 Y131.927
X115.76 Y130.969
X115.765 Y130.011
X115.77 Y128.096
X115.774 Y125.223
X115.775 Y118.519
Y79.253
Y28.495
Y8.384
X115.525 Y7.459
X114.985 Y6.668
X114.264 Y6.039
X113.437 Y5.555
X112.551 Y5.192
X111.632 Y4.923
X110.694 Y4.726
X109.747 Y4.584
X108.795 Y4.481
X107.84 Y4.407
X106.884 Y4.354
X105.927 Y4.316
X104.97 Y4.289
X104.012 Y4.269
X103.055 Y4.256
X102.097 Y4.246
X101.139 Y4.239
X100.182 Y4.234
X99.224 Y4.231
X97.309 Y4.227
X94.436 Y4.224
X86.774 Y4.223
X36.016
X11.116
X10.641 Y4.287
X9.731 Y4.583
X8.962 Y5.154
X8.355 Y5.895
X7.891 Y6.733
X7.544 Y7.626
X7.287 Y8.548
X7.099 Y9.487
X6.962 Y10.435
X6.863 Y11.388
X6.792 Y12.343
X6.741 Y13.299
X6.705 Y14.256
X6.679 Y15.214
X6.66 Y16.171
X6.647 Y17.129
X6.638 Y18.086
X6.631 Y19.044
X6.626 Y20.002
X6.623 Y21.053
X6.614 Y21.203
X6.59 Y21.351
X6.55 Y21.496
X6.412 Y21.905
X6.354 Y22.123
X6.253 Y22.558
X6.212 Y22.775
X5.967 Y24.299
X5.903 Y24.734
X5.88 Y24.951
X5.775 Y26.039
X5.763 Y26.257
X5.767 Y26.692
X5.773 Y26.91
X6.01 Y30.174
X6.026 Y30.391
X6.062 Y30.609
X6.139 Y31.044
X6.289 Y31.99
X6.397 Y32.942
X6.469 Y33.897
X6.517 Y34.853
X6.55 Y35.81
X6.571 Y36.768
X6.586 Y37.725
X6.596 Y38.683
X6.603 Y39.641
X6.607 Y40.598
X6.612 Y42.514
X6.615 Y45.387
X6.617 Y54.006
X6.619 Y81.779
X6.622 Y116.733
X6.616 Y116.861
X6.599 Y116.988
X6.57 Y117.113
X6.479 Y117.433
X6.428 Y117.65
X6.185 Y118.738
X6.139 Y118.956
X6.062 Y119.391
X6.026 Y119.609
X5.852 Y122.002
X5.773 Y123.09
X5.767 Y123.308
X5.763 Y123.743
X5.775 Y123.961
X5.88 Y125.049
X5.903 Y125.266
X5.967 Y125.701
X6.177 Y127.007
X6.281 Y127.959
X6.394 Y128.91
X6.469 Y129.865
X6.52 Y130.821
X6.554 Y131.778
X6.576 Y132.736
X6.592 Y133.693
X6.602 Y134.651
X6.609 Y135.609
X6.614 Y136.566
X6.617 Y137.524
X6.619 Y138.482
X6.67 Y139.438
X7.035 Y140.323
X7.642 Y141.064
X8.399 Y141.651
X9.243 Y142.103
X10.138 Y142.443
X11.062 Y142.696
X12.001 Y142.883
X12.949 Y143.02
X13.902 Y143.119
X14.857 Y143.192
X15.813 Y143.244
X16.77 Y143.281
X17.727 Y143.309
X18.685 Y143.328
X19.642 Y143.342
X20.716 Y143.353
X20.861 Y143.362
X21.005 Y143.385
X21.145 Y143.424
X22.065 Y143.727
X22.173 Y143.762
X22.717 Y143.882
X22.934 Y143.925
X24.239 Y144.15
X24.673 Y144.223
X24.891 Y144.257
X25.543 Y144.356
X25.76 Y144.382
X26.345 Y144.415
X26.362
X26.847 Y144.392
X27.065 Y144.37
X27.608 Y144.253
X27.641 Y144.239
X27.889 Y144.148
X28.669 Y143.929
X29.609 Y143.746
X30.559 Y143.624
X31.513 Y143.543
X32.469 Y143.488
X33.426 Y143.452
X34.383 Y143.427
X35.341 Y143.411
X36.298 Y143.4
X37.256 Y143.392
X38.214 Y143.387
X39.172 Y143.384
X41.087 Y143.38
X44.918 Y143.378
X78.437 Y143.377
X90.452
X90.743 Y143.408
X91.021 Y143.498
X91.275 Y143.644
X91.414 Y143.745
X91.77 Y143.987
X92.392 Y144.253
X92.935 Y144.37
X93.153 Y144.392
X93.638 Y144.415
X93.655
X94.24 Y144.382
X94.457 Y144.356
X95.109 Y144.258
X95.327 Y144.223
X95.761 Y144.15
X97.066 Y143.925
X97.283 Y143.882
X98.228 Y143.724
X99.179 Y143.609
X100.133 Y143.533
X101.09 Y143.482
X102.047 Y143.448
X103.004 Y143.425
X103.962 Y143.409
X104.919 Y143.399
X105.877 Y143.392
X106.835 Y143.387
X107.792 Y143.384
X108.75 Y143.382
X109.7 Y143.259
X110.551 Y142.819
X111.248 Y142.162
X111.794 Y141.376
X112.212 Y140.514
X112.525 Y139.609
X112.757 Y138.68
X112.927 Y137.737
X113.052 Y136.788
X113.142 Y135.834
X113.208 Y134.879
X113.255 Y133.922
X113.289 Y132.965
X113.314 Y132.008
X113.331 Y131.05
X113.344 Y130.093
X113.354 Y129.011
X113.363 Y128.863
X113.387 Y128.716
X113.427 Y128.573
X113.588 Y128.095
X113.646 Y127.877
X113.747 Y127.442
X113.788 Y127.225
X114.033 Y125.701
X114.097 Y125.266
X114.12 Y125.049
X114.225 Y123.961
X114.237 Y123.743
X114.233 Y123.308
X114.227 Y123.09
X113.99 Y119.826
X113.974 Y119.609
X113.938 Y119.391
X113.861 Y118.956
X113.711 Y118.01
X113.6 Y117.059
X113.526 Y116.104
X113.477 Y115.147
X113.444 Y114.19
X113.421 Y113.233
X113.406 Y112.275
X113.396 Y111.318
X113.389 Y110.36
X113.385 Y109.402
X113.382 Y108.445
X113.378 Y106.529
X113.376 Y102.698
X113.375 Y68.221
Y33.276
X113.381 Y33.148
X113.399 Y33.021
X113.428 Y32.896
X113.521 Y32.567
X113.572 Y32.35
X113.815 Y31.262
X113.861 Y31.044
X113.938 Y30.609
X113.974 Y30.391
X114.148 Y27.998
X114.227 Y26.91
X114.233 Y26.692
X114.237 Y26.257
X114.225 Y26.039
X114.12 Y24.951
X114.097 Y24.734
X114.033 Y24.299
X113.823 Y22.993
X113.719 Y22.041
X113.606 Y21.09
X113.53 Y20.135
X113.479 Y19.179
X113.445 Y18.222
X113.423 Y17.264
X113.407 Y16.307
X113.397 Y15.349
X113.39 Y14.392
X113.385 Y13.434
X113.382 Y12.476
X113.38 Y11.518
X113.336 Y10.562
X112.972 Y9.676
X112.366 Y8.935
X111.609 Y8.348
X110.764 Y7.896
X109.869 Y7.556
X108.946 Y7.303
X108.006 Y7.116
X107.058 Y6.98
X106.106 Y6.88
X105.151 Y6.808
X104.195 Y6.756
X103.238 Y6.718
X102.28 Y6.691
X101.323 Y6.672
X100.365 Y6.658
X99.284 Y6.647
X99.139 Y6.638
X98.995 Y6.615
X98.855 Y6.576
X97.935 Y6.273
X97.827 Y6.238
X97.283 Y6.118
X97.066 Y6.075
X95.761 Y5.85
X95.327 Y5.777
X95.109 Y5.743
X94.457 Y5.644
X94.24 Y5.618
X93.655 Y5.585
X93.638
X93.153 Y5.608
X92.935 Y5.63
X92.392 Y5.747
X92.359 Y5.761
X92.111 Y5.852
X91.331 Y6.071
X90.391 Y6.254
X89.441 Y6.376
X88.487 Y6.457
X87.531 Y6.512
X86.574 Y6.548
X85.617 Y6.573
X84.659 Y6.589
X83.701 Y6.6
X82.744 Y6.608
X81.786 Y6.613
X80.828 Y6.616
X78.913 Y6.62
X75.082 Y6.622
X41.563 Y6.623
X29.548
X29.257 Y6.592
X28.979 Y6.502
X28.725 Y6.356
X28.586 Y6.255
X28.23 Y6.013
X27.608 Y5.747
X27.065 Y5.63
X26.847 Y5.608
X26.362 Y5.585
X26.345
X25.76 Y5.618
X25.543 Y5.644
X24.891 Y5.742
X24.673 Y5.777
X24.239 Y5.85
X22.934 Y6.075
X22.717 Y6.118
X21.772 Y6.276
X20.821 Y6.391
X19.867 Y6.467
X18.91 Y6.518
X17.953 Y6.552
X16.996 Y6.575
X16.038 Y6.591
X15.081 Y6.601
X14.123 Y6.608
X13.166 Y6.626
X12.257 Y6.929
X11.483 Y7.493
X10.863 Y8.224
X10.384 Y9.053
X10.022 Y9.939
X9.751 Y10.858
X9.55 Y11.794
X9.403 Y12.741
X9.296 Y13.692
X9.217 Y14.647
X9.18 Y15.272
X9.153 Y15.476
X9.096 Y15.673
X9.012 Y15.86
X7.934 Y17.835
X7.618 Y18.423
X7.53 Y18.641
X7.447 Y18.859
X7.364 Y19.076
X6.55 Y21.496
X6.538 Y21.515 Z42.005
X6.52 Y21.528 Z42.009
G2 X5.738 Y21.966 Z42.2 I2.197 J4.844
X3.739 Y24.5 I2.98 J4.406
G1 X3.712 Y24.591
X3.701 Y24.685
X3.574 Y27.62
X3.578 Y27.715
X3.596 Y27.808
G2 X5.371 Y30.506 I5.122 J-1.436
X6.112 Y31.009 Z42.01 I3.347 J-4.134
G1 X6.129 Y31.024 Z42.005
X6.139 Y31.044 Z42.
X6.195 Y31.308
X6.428 Y32.35
X6.479 Y32.567
X6.664 Y33.22
X7.11 Y34.526
X7.185 Y34.744
X7.341 Y35.179
X7.434 Y35.396
X7.754 Y36.049
X7.862 Y36.267
X8.082 Y36.773
X8.298 Y37.406
X8.523 Y38.289
X8.684 Y39.233
X8.792 Y40.185
X8.865 Y41.14
X8.914 Y42.096
X8.947 Y43.053
X8.969 Y44.011
X8.985 Y44.968
X8.995 Y45.926
X9.002 Y46.884
X9.007 Y47.841
X9.01 Y48.799
X9.014 Y50.715
X9.017 Y54.545
X9.02 Y86.149
X9.022 Y111.099
X8.997 Y111.359
X8.923 Y111.61
X8.804 Y111.842
X8.727 Y111.992
X8.369 Y112.71
X7.717 Y114.026
X7.434 Y114.604
X7.341 Y114.821
X7.185 Y115.256
X7.11 Y115.474
X6.664 Y116.78
X6.57 Y117.113
G3 X5.969 Y117.529 I-0.571 J-0.183
G1 X5.876 Y117.525 Z42.007
X5.784 Y117.52 Z42.029
X5.697 Y117.516 Z42.065
X5.617 Y117.512 Z42.115
X5.546 Y117.509 Z42.176
X5.485 Y117.506 Z42.247
X5.435 Y117.504 Z42.328
X5.399 Y117.502 Z42.415
X5.378 Y117.501 Z42.506
X5.37 Z42.6
G0 Z50.
X6.825 Y35.364
Z43.2
G1 Z42.6 F1800.
X6.831 Y35.368 Z42.506
X6.85 Y35.38 Z42.415
X6.88 Y35.399 Z42.328
X6.921 Y35.426 Z42.247
X6.973 Y35.459 Z42.176
X7.033 Y35.498 Z42.115
X7.1 Y35.542 Z42.065
X7.173 Y35.589 Z42.029
X7.25 Y35.639 Z42.007
X7.329 Y35.69 Z42.
G3 X7.862 Y36.267 I-0.86 J1.329
G1 X8.509 Y37.572
X8.727 Y38.008
X8.804 Y38.158
X9.267 Y38.878
X9.456 Y39.163
X9.673 Y39.477
X9.71 Y39.531
X9.801 Y39.65
X9.942 Y39.858
X10.147 Y40.219
X10.364 Y40.684
X10.591 Y41.292
X10.824 Y42.116
X11.01 Y43.055
X11.137 Y44.004
X11.224 Y44.958
X11.284 Y45.914
X11.325 Y46.871
X11.354 Y47.828
X11.374 Y48.785
X11.387 Y49.743
X11.397 Y50.701
X11.403 Y51.658
X11.408 Y52.616
X11.413 Y54.531
X11.416 Y57.404
X11.418 Y65.066
X11.42 Y89.966
X11.421 Y107.868
X11.4 Y108.112
X11.336 Y108.349
X11.233 Y108.571
X11.092 Y108.771
X10.21 Y109.816
X10.108 Y109.946
X9.875 Y110.252
X9.71 Y110.469
X9.559 Y110.687
X9.456 Y110.837
X9.238 Y111.166
X8.804 Y111.842
G3 X8.108 Y112.065 I-0.493 J-0.342
G1 X8.02 Y112.034 Z42.007
X7.933 Y112.003 Z42.029
X7.852 Y111.973 Z42.065
X7.776 Y111.946 Z42.115
X7.709 Y111.922 Z42.176
X7.651 Y111.902 Z42.247
X7.605 Y111.885 Z42.328
X7.571 Y111.873 Z42.415
X7.55 Y111.865 Z42.506
X7.543 Y111.863 Z42.6
G0 Z50.
X8.614 Y38.956
Z43.2
G1 Z42.6 F1800.
X8.621 Y38.959 Z42.506
X8.642 Y38.967 Z42.415
X8.675 Y38.981 Z42.328
X8.72 Y39. Z42.247
X8.777 Y39.023 Z42.176
X8.843 Y39.05 Z42.115
X8.918 Y39.08 Z42.065
X8.998 Y39.113 Z42.029
X9.083 Y39.147 Z42.007
X9.17 Y39.183 Z42.
G3 X9.801 Y39.65 I-0.597 J1.466
G1 X10.108 Y40.054
X10.21 Y40.184
X11.495 Y41.707
X11.63 Y41.865
X11.847 Y42.105
X12.02 Y42.317
X12.233 Y42.625
X12.453 Y43.005
X12.685 Y43.493
X12.926 Y44.125
X13.172 Y44.969
X13.365 Y45.907
X13.5 Y46.855
X13.594 Y47.808
X13.661 Y48.763
X13.707 Y49.72
X13.74 Y50.677
X13.763 Y51.634
X13.779 Y52.592
X13.791 Y53.55
X13.799 Y54.507
X13.804 Y55.465
X13.808 Y56.423
X13.813 Y58.338
X13.816 Y61.211
X13.818 Y68.873
X13.82 Y91.857
X13.821 Y105.265
X13.82 Y105.426
X13.787 Y105.72
X13.693 Y106.
X13.542 Y106.255
X13.342 Y106.472
X12.934 Y106.828
X12.755 Y106.988
X12.286 Y107.423
X12.077 Y107.64
X11.63 Y108.135
X11.412 Y108.391
X11.092 Y108.771
G3 X10.373 Y108.902 I-0.445 J-0.403
G1 X10.29 Y108.86 Z42.007
X10.208 Y108.818 Z42.029
X10.131 Y108.778 Z42.065
X10.059 Y108.742 Z42.115
X9.995 Y108.709 Z42.176
X9.941 Y108.681 Z42.247
X9.897 Y108.659 Z42.328
X9.865 Y108.642 Z42.415
X9.846 Y108.632 Z42.506
X9.839 Y108.629 Z42.6
G0 Z50.
X10.604 Y41.518
Z43.2
G1 Z42.6 F1800.
X10.611 Y41.52 Z42.506
X10.632 Y41.527 Z42.415
X10.667 Y41.537 Z42.328
X10.714 Y41.552 Z42.247
X10.772 Y41.57 Z42.176
X10.841 Y41.591 Z42.115
X10.917 Y41.615 Z42.065
X11. Y41.64 Z42.029
X11.088 Y41.667 Z42.007
X11.178 Y41.695 Z42.
G3 X11.847 Y42.105 I-0.466 J1.512
G1 X12.077 Y42.36
X12.286 Y42.577
X12.755 Y43.012
X12.934 Y43.172
X13.586 Y43.742
X13.751 Y43.883
X13.885 Y44.
X14.085 Y44.206
X14.306 Y44.472
X14.526 Y44.788
X14.767 Y45.198
X15.009 Y45.698
X15.262 Y46.351
X15.521 Y47.221
X15.72 Y48.158
X15.861 Y49.105
X15.963 Y50.058
X16.035 Y51.012
X16.087 Y51.969
X16.125 Y52.926
X16.151 Y53.883
X16.17 Y54.841
X16.184 Y55.798
X16.194 Y56.756
X16.201 Y57.713
X16.206 Y58.671
X16.209 Y59.629
X16.214 Y61.544
X16.217 Y64.417
X16.219 Y72.079
X16.22 Y94.106
X16.221 Y102.725
X16.218 Y103.683
X16.199 Y103.994
X16.152 Y104.278
X16.048 Y104.547
X15.891 Y104.788
X15.688 Y104.993
X15.448 Y105.151
X15.18 Y105.257
X14.986 Y105.312
X14.67 Y105.464
X14.456 Y105.571
X14.302 Y105.682
X13.751 Y106.117
X13.586 Y106.258
X13.342 Y106.472
G3 X12.611 Y106.493 I-0.379 J-0.465
G1 X12.535 Y106.438 Z42.007
X12.461 Y106.384 Z42.029
X12.391 Y106.333 Z42.065
X12.325 Y106.286 Z42.115
X12.267 Y106.244 Z42.176
X12.218 Y106.208 Z42.247
X12.178 Y106.179 Z42.328
X12.149 Y106.158 Z42.415
X12.131 Y106.146 Z42.506
X12.125 Y106.141 Z42.6
G0 Z50.
X12.428 Y43.51
Z43.2
G1 Z42.6 F1800.
X12.435 Y43.511 Z42.506
X12.457 Y43.514 Z42.415
X12.493 Y43.518 Z42.328
X12.542 Y43.525 Z42.247
X12.602 Y43.533 Z42.176
X12.673 Y43.542 Z42.115
X12.753 Y43.553 Z42.065
X12.839 Y43.565 Z42.029
X12.93 Y43.577 Z42.007
X13.023 Y43.589 Z42.
G3 X13.751 Y43.883 I-0.209 J1.569
G1 X14.302 Y44.318
X14.456 Y44.429
X14.673 Y44.537
X14.986 Y44.688
X14.999 Y44.692
X15.15 Y44.743
X15.301 Y44.808
X15.473 Y44.898
X15.671 Y45.023
X15.875 Y45.177
X16.087 Y45.365
X16.326 Y45.614
X16.563 Y45.904
X16.817 Y46.272
X17.076 Y46.721
X17.349 Y47.295
X17.621 Y48.011
X17.888 Y48.931
X18.084 Y49.868
X18.227 Y50.815
X18.333 Y51.767
X18.41 Y52.722
X18.466 Y53.678
X18.507 Y54.635
X18.537 Y55.592
X18.559 Y56.549
X18.576 Y57.507
X18.587 Y58.464
X18.596 Y59.422
X18.602 Y60.38
X18.606 Y61.337
X18.612 Y63.253
X18.616 Y66.126
X18.618 Y71.872
X18.62 Y93.899
X18.621 Y100.603
X18.62 Y101.561
X18.598 Y102.518
X18.534 Y103.14
X18.442 Y103.639
X18.333 Y104.046
X18.266 Y104.233
X18.129 Y104.512
X17.934 Y104.755
X17.69 Y104.948
X17.409 Y105.083
X17.106 Y105.152
X16.794 Y105.153
X16.51 Y105.122
G3 X16.001 Y104.598 I0.086 J-0.594
G1 X15.99 Y104.505 Z42.007
X15.979 Y104.414 Z42.029
X15.969 Y104.328 Z42.065
X15.959 Y104.248 Z42.115
X15.951 Y104.177 Z42.176
X15.944 Y104.116 Z42.247
X15.938 Y104.067 Z42.328
X15.934 Y104.031 Z42.415
X15.931 Y104.01 Z42.506
Y104.002 Z42.6
G0 Z50.
X13.635 Y44.857
Z43.2
G1 Z42.6 F1800.
X13.642 Y44.855 Z42.506
X13.663 Y44.85 Z42.415
X13.698 Y44.84 Z42.328
X13.745 Y44.828 Z42.247
X13.804 Y44.812 Z42.176
X13.873 Y44.793 Z42.115
X13.951 Y44.772 Z42.065
X14.035 Y44.75 Z42.029
X14.123 Y44.726 Z42.007
X14.214 Y44.702 Z42.
G3 X14.999 Y44.692 I0.411 J1.528
G1 X15.597 Y44.86
X15.624 Y44.863
X16.209 Y44.911
X16.222 Y44.91
X16.372 Y44.901
X16.521 Y44.921
X16.694 Y44.958
X16.874 Y45.013
X17.074 Y45.091
X17.299 Y45.2
X17.523 Y45.333
X17.779 Y45.514
X18.035 Y45.727
X18.309 Y45.996
X18.604 Y46.335
X18.89 Y46.723
X19.195 Y47.215
X19.501 Y47.811
X19.806 Y48.545
X20.101 Y49.456
X20.326 Y50.387
X20.497 Y51.329
X20.627 Y52.278
X20.725 Y53.231
X20.799 Y54.186
X20.855 Y55.142
X20.896 Y56.099
X20.928 Y57.056
X20.951 Y58.013
X20.969 Y58.971
X20.982 Y59.928
X20.991 Y60.886
X20.998 Y61.844
X21.004 Y62.801
X21.008 Y63.759
X21.013 Y65.674
X21.016 Y68.547
X21.019 Y74.294
X21.02 Y93.448
X21.021 Y99.194
X21.016 Y100.151
X20.996 Y101.109
X20.936 Y102.065
X20.836 Y102.847
X20.715 Y103.419
X20.572 Y103.901
X20.424 Y104.284
X20.247 Y104.652
X20.072 Y104.951
X19.866 Y105.245
X19.779 Y105.351
X19.571 Y105.555
X19.325 Y105.711
X19.052 Y105.813
X18.764 Y105.855
X18.473 Y105.837
X18.192 Y105.759
X17.934 Y105.624
X17.815 Y105.553
G3 X17.566 Y104.866 I0.323 J-0.505
G1 X17.594 Y104.777 Z42.007
X17.622 Y104.69 Z42.029
X17.648 Y104.607 Z42.065
X17.673 Y104.53 Z42.115
X17.694 Y104.462 Z42.176
X17.713 Y104.404 Z42.247
X17.728 Y104.357 Z42.328
X17.739 Y104.322 Z42.415
X17.745 Y104.301 Z42.506
X17.747 Y104.294 Z42.6
G0 Z50.
X15.018 Y45.574
Z43.2
G1 Z42.6 F1800.
X15.024 Y45.569 Z42.506
X15.042 Y45.556 Z42.415
X15.07 Y45.534 Z42.328
X15.11 Y45.505 Z42.247
X15.159 Y45.468 Z42.176
X15.216 Y45.425 Z42.115
X15.28 Y45.376 Z42.065
X15.349 Y45.324 Z42.029
X15.422 Y45.269 Z42.007
X15.497 Y45.213 Z42.
G3 X16.222 Y44.91 I0.953 J1.264
G1 X16.82 Y44.844
X17.203 Y44.723
X17.348 Y44.685
X17.496 Y44.659
X17.648 Y44.647
X17.815 Y44.646
X18.007 Y44.662
X18.208 Y44.694
X18.437 Y44.75
X18.671 Y44.827
X18.939 Y44.941
X19.205 Y45.079
X19.508 Y45.27
X19.802 Y45.489
X20.135 Y45.783
X20.452 Y46.11
X20.809 Y46.545
X21.142 Y47.023
X21.497 Y47.631
X21.852 Y48.371
X22.195 Y49.265
X22.467 Y50.184
X22.681 Y51.117
X22.849 Y52.06
X22.98 Y53.009
X23.082 Y53.961
X23.161 Y54.915
X23.222 Y55.871
X23.269 Y56.828
X23.305 Y57.785
X23.333 Y58.742
X23.354 Y59.699
X23.37 Y60.657
X23.382 Y61.615
X23.391 Y62.572
X23.398 Y63.53
X23.403 Y64.488
X23.41 Y66.403
X23.414 Y68.318
X23.417 Y72.149
X23.42 Y82.684
Y92.261
X23.421 Y97.049
X23.419 Y98.007
X23.413 Y98.965
X23.393 Y99.922
X23.349 Y100.879
X23.264 Y101.833
X23.128 Y102.752
X22.943 Y103.548
X22.729 Y104.22
X22.506 Y104.764
X22.275 Y105.22
X22.045 Y105.596
X21.816 Y105.909
X21.57 Y106.195
X21.332 Y106.431
X21.074 Y106.648
X20.823 Y106.827
X20.677 Y106.915
X20.402 Y107.041
X20.106 Y107.105
X19.803
X19.507 Y107.039
X19.233 Y106.911
X18.992 Y106.726
X18.797 Y106.495
G3 X18.868 Y105.768 I0.509 J-0.317
G1 X18.932 Y105.699 Z42.007
X18.994 Y105.632 Z42.029
X19.053 Y105.569 Z42.065
X19.108 Y105.51 Z42.115
X19.157 Y105.458 Z42.176
X19.199 Y105.413 Z42.247
X19.233 Y105.377 Z42.328
X19.257 Y105.351 Z42.415
X19.272 Y105.335 Z42.506
X19.277 Y105.329 Z42.6
G0 Z50.
X16.152 Y45.609
Z43.2
G1 Z42.6 F1800.
X16.157 Y45.603 Z42.506
X16.172 Y45.587 Z42.415
X16.196 Y45.56 Z42.328
X16.228 Y45.523 Z42.247
X16.269 Y45.478 Z42.176
X16.317 Y45.424 Z42.115
X16.37 Y45.364 Z42.065
X16.428 Y45.299 Z42.029
X16.489 Y45.231 Z42.007
X16.551 Y45.161 Z42.
G3 X17.203 Y44.723 I1.181 J1.053
G1 X17.282 Y44.698
X17.499 Y44.617
X17.717 Y44.505
X17.934 Y44.376
X18.022 Y44.318
X18.043 Y44.298
X18.159 Y44.204
X18.295 Y44.139
X18.436 Y44.088
X18.589 Y44.047
X18.765 Y44.013
X18.954 Y43.993
X19.172 Y43.988
X19.4 Y44.
X19.66 Y44.036
X19.925 Y44.094
X20.228 Y44.186
X20.531 Y44.306
X20.872 Y44.474
X21.208 Y44.674
X21.58 Y44.938
X21.952 Y45.25
X22.344 Y45.636
X22.75 Y46.107
X23.146 Y46.647
X23.556 Y47.314
X23.961 Y48.109
X24.326 Y48.995
X24.625 Y49.904
X24.868 Y50.831
X25.064 Y51.768
X25.223 Y52.713
X25.35 Y53.662
X25.451 Y54.614
X25.532 Y55.568
X25.595 Y56.524
X25.646 Y57.48
X25.685 Y58.437
X25.716 Y59.395
X25.739 Y60.352
X25.758 Y61.309
X25.772 Y62.267
X25.783 Y63.225
X25.792 Y64.182
X25.798 Y65.14
X25.803 Y66.098
X25.81 Y68.013
X25.815 Y70.886
X25.818 Y75.675
X25.82 Y90.998
Y95.786
X25.818 Y96.744
X25.812 Y97.702
X25.796 Y98.659
X25.763 Y99.616
X25.706 Y100.572
X25.614 Y101.526
X25.475 Y102.473
X25.278 Y103.41
X25.024 Y104.289
X24.75 Y105.014
X24.446 Y105.658
X24.117 Y106.23
X23.774 Y106.729
X23.438 Y107.142
X23.095 Y107.501
X22.791 Y107.772
X22.471 Y108.014
X22.178 Y108.2
X21.866 Y108.365
X21.582 Y108.488
X21.274 Y108.592
X20.995 Y108.661
X20.898 Y108.678
X20.599 Y108.695
X20.303 Y108.648
X20.023 Y108.539
X19.773 Y108.373
X19.565 Y108.158
X19.407 Y107.903
X19.306 Y107.621
G3 X19.628 Y106.965 I0.588 J-0.118
G1 X19.712 Y106.923 Z42.007
X19.794 Y106.882 Z42.029
X19.872 Y106.844 Z42.065
X19.944 Y106.808 Z42.115
X20.008 Y106.776 Z42.176
X20.063 Y106.749 Z42.247
X20.107 Y106.727 Z42.328
X20.139 Y106.711 Z42.415
X20.159 Y106.701 Z42.506
X20.165 Y106.698 Z42.6
G0 Z50.
X17.455 Y45.541
Z43.2
G1 Z42.6 F1800.
X17.457 Y45.534 Z42.506
X17.464 Y45.513 Z42.415
X17.474 Y45.479 Z42.328
X17.489 Y45.432 Z42.247
X17.507 Y45.373 Z42.176
X17.528 Y45.305 Z42.115
X17.552 Y45.228 Z42.065
X17.577 Y45.145 Z42.029
X17.605 Y45.057 Z42.007
X17.632 Y44.968 Z42.
G3 X18.043 Y44.298 I1.512 J0.467
G1 X18.503 Y43.883
X18.586 Y43.802
X18.643 Y43.727
X18.738 Y43.611
X18.846 Y43.507
X18.964 Y43.414
X19.09 Y43.333
X19.235 Y43.257
X19.392 Y43.189
X19.579 Y43.125
X19.778 Y43.075
X20.009 Y43.037
X20.251 Y43.016
X20.527 Y43.014
X20.819 Y43.036
X21.136 Y43.086
X21.481 Y43.169
X21.835 Y43.284
X22.231 Y43.45
X22.624 Y43.653
X23.048 Y43.917
X23.493 Y44.246
X23.932 Y44.63
X24.41 Y45.119
X24.873 Y45.678
X25.335 Y46.335
X25.8 Y47.127
X26.218 Y47.989
X26.573 Y48.879
X26.871 Y49.789
X27.121 Y50.713
X27.329 Y51.648
X27.501 Y52.59
X27.642 Y53.537
X27.757 Y54.488
X27.851 Y55.441
X27.927 Y56.396
X27.988 Y57.352
X28.037 Y58.308
X28.077 Y59.265
X28.108 Y60.222
X28.132 Y61.18
X28.151 Y62.137
X28.167 Y63.095
X28.178 Y64.052
X28.188 Y65.01
X28.195 Y65.968
X28.2 Y66.925
X28.208 Y68.841
X28.213 Y70.756
X28.216 Y73.629
X28.219 Y79.375
X28.22 Y87.995
Y93.741
Y94.698
X28.217 Y95.656
X28.211 Y96.614
X28.197 Y97.571
X28.17 Y98.529
X28.125 Y99.485
X28.055 Y100.44
X27.953 Y101.393
X27.814 Y102.34
X27.629 Y103.28
X27.388 Y104.207
X27.086 Y105.116
X26.723 Y105.978
X26.323 Y106.751
X25.905 Y107.42
X25.482 Y107.991
X25.043 Y108.492
X24.592 Y108.931
X24.141 Y109.305
X23.689 Y109.621
X23.275 Y109.864
X22.865 Y110.062
X22.506 Y110.201
X22.143 Y110.309
X21.816 Y110.379
X21.478 Y110.422
X21.177 Y110.437
X21.006 Y110.432
X20.7 Y110.388
X20.411 Y110.278
X20.154 Y110.107
X19.94 Y109.884
X19.78 Y109.619
X19.682 Y109.326
X19.414 Y108.076
X19.306 Y107.621
G3 X19.628 Y106.965 I0.588 J-0.118
G1 X19.712 Y106.923 Z42.007
X19.794 Y106.882 Z42.029
X19.872 Y106.844 Z42.065
X19.944 Y106.808 Z42.115
X20.008 Y106.776 Z42.176
X20.063 Y106.749 Z42.247
X20.107 Y106.727 Z42.328
X20.139 Y106.711 Z42.415
X20.159 Y106.701 Z42.506
X20.165 Y106.698 Z42.6
G0 Z50.
X18.306 Y45.06
Z43.2
G1 Z42.6 F1800.
X18.307 Y45.052 Z42.506
X18.309 Y45.031 Z42.415
X18.313 Y44.995 Z42.328
X18.318 Y44.946 Z42.247
X18.324 Y44.885 Z42.176
X18.332 Y44.814 Z42.115
X18.34 Y44.734 Z42.065
X18.349 Y44.647 Z42.029
X18.359 Y44.556 Z42.007
X18.369 Y44.463 Z42.
G3 X18.643 Y43.727 I1.574 J0.166
G1 X18.689 Y43.665
X18.973 Y43.244
X18.981 Y43.23
X19.103 Y42.947
X19.168 Y42.812
X19.25 Y42.686
X19.343 Y42.569
X19.448 Y42.461
X19.567 Y42.355
X19.708 Y42.25
X19.872 Y42.147
X20.054 Y42.052
X20.267 Y41.962
X20.494 Y41.887
X20.76 Y41.822
X21.04 Y41.777
X21.351 Y41.753
X21.695
X22.05 Y41.782
X22.451 Y41.848
X22.862 Y41.95
X23.298 Y42.095
X23.779 Y42.3
X24.253 Y42.549
X24.758 Y42.869
X25.296 Y43.273
X25.816 Y43.733
X26.353 Y44.291
X26.904 Y44.965
X27.447 Y45.75
X27.927 Y46.579
X28.346 Y47.44
X28.71 Y48.326
X29.023 Y49.231
X29.291 Y50.15
X29.519 Y51.08
X29.713 Y52.018
X29.875 Y52.962
X30.012 Y53.91
X30.126 Y54.861
X30.22 Y55.814
X30.297 Y56.768
X30.361 Y57.724
X30.413 Y58.68
X30.455 Y59.637
X30.489 Y60.594
X30.516 Y61.551
X30.538 Y62.509
X30.555 Y63.466
X30.569 Y64.424
X30.58 Y65.382
X30.588 Y66.339
X30.595 Y67.297
X30.601 Y68.255
X30.608 Y70.17
X30.613 Y72.085
X30.616 Y74.959
X30.619 Y80.705
X30.62 Y85.493
Y92.197
Y93.155
X30.618 Y94.112
X30.614 Y95.07
X30.604 Y96.028
X30.587 Y96.985
X30.559 Y97.943
X30.514 Y98.899
X30.45 Y99.855
X30.36 Y100.808
X30.239 Y101.758
X30.081 Y102.703
X29.88 Y103.639
X29.633 Y104.565
X29.336 Y105.475
X28.983 Y106.365
X28.572 Y107.23
X28.098 Y108.063
X27.581 Y108.823
X27.034 Y109.503
X26.47 Y110.099
X25.911 Y110.602
X25.355 Y111.027
X24.796 Y111.386
X24.246 Y111.681
X23.711 Y111.914
X23.221 Y112.083
X22.748 Y112.204
X22.353 Y112.272
X21.954 Y112.308
X21.612 Y112.311
X21.259 Y112.286
X21.241 Y112.283
X20.968 Y112.213
X20.715 Y112.09
X20.492 Y111.919
X20.308 Y111.707
X20.17 Y111.462
X20.083 Y111.194
X19.682 Y109.326
G3 X20.018 Y108.677 I0.591 J-0.105
G1 X20.103 Y108.637 Z42.007
X20.186 Y108.599 Z42.029
X20.265 Y108.562 Z42.065
X20.338 Y108.528 Z42.115
X20.402 Y108.497 Z42.176
X20.458 Y108.471 Z42.247
X20.502 Y108.45 Z42.328
X20.535 Y108.435 Z42.415
X20.555 Y108.426 Z42.506
X20.562 Y108.423 Z42.6
G0 Z50.
X19.087 Y44.321
Z43.2
G1 Z42.6 F1800.
X19.086 Y44.314 Z42.506
X19.084 Y44.292 Z42.415
X19.079 Y44.256 Z42.328
X19.072 Y44.208 Z42.247
X19.064 Y44.147 Z42.176
X19.055 Y44.076 Z42.115
X19.044 Y43.996 Z42.065
X19.033 Y43.91 Z42.029
X19.021 Y43.819 Z42.007
X19.009 Y43.726 Z42.
G3 X19.103 Y42.947 I1.569 J-0.207
G1 X19.239 Y42.63
X19.259 Y42.577
X19.391 Y42.022
X19.433 Y41.878
X19.489 Y41.739
X19.558 Y41.606
X19.639 Y41.48
X19.741 Y41.345
X19.858 Y41.214
X20.003 Y41.076
X20.167 Y40.944
X20.356 Y40.814
X20.576 Y40.688
X20.816 Y40.576
X21.095 Y40.471
X21.392 Y40.386
X21.725 Y40.319
X22.097 Y40.275
X22.483 Y40.261
X22.915 Y40.279
X23.377 Y40.336
X23.852 Y40.434
X24.378 Y40.588
X24.931 Y40.799
X25.481 Y41.061
X26.072 Y41.403
X26.698 Y41.836
X27.309 Y42.336
X27.929 Y42.932
X28.559 Y43.643
X29.134 Y44.409
X29.651 Y45.215
X30.115 Y46.053
X30.526 Y46.918
X30.89 Y47.804
X31.209 Y48.707
X31.487 Y49.623
X31.729 Y50.55
X31.937 Y51.485
X32.116 Y52.426
X32.268 Y53.371
X32.398 Y54.32
X32.508 Y55.271
X32.6 Y56.225
X32.677 Y57.179
X32.741 Y58.135
X32.794 Y59.091
X32.837 Y60.048
X32.873 Y61.005
X32.902 Y61.962
X32.926 Y62.919
X32.945 Y63.877
X32.96 Y64.834
X32.972 Y65.792
X32.982 Y66.75
X32.99 Y67.707
X32.996 Y68.665
X33.001 Y69.623
X33.008 Y71.538
X33.014 Y74.411
X33.018 Y78.242
X33.019 Y82.073
X33.02 Y90.692
X33.018 Y92.607
X33.015 Y93.565
X33.009 Y94.523
X32.998 Y95.48
X32.979 Y96.438
X32.949 Y97.395
X32.906 Y98.352
X32.845 Y99.308
X32.764 Y100.262
X32.656 Y101.214
X32.518 Y102.161
X32.346 Y103.103
X32.136 Y104.038
X31.885 Y104.962
X31.592 Y105.874
X31.252 Y106.769
X30.865 Y107.645
X30.425 Y108.496
X29.93 Y109.316
X29.381 Y110.1
X28.778 Y110.844
X28.121 Y111.541
X27.448 Y112.149
X26.767 Y112.672
X26.082 Y113.115
X25.4 Y113.482
X24.739 Y113.772
X24.115 Y113.988
X23.518 Y114.143
X23.017 Y114.23
X22.577 Y114.271
X22.163 Y114.275
X21.805 Y114.251
X21.689 Y114.233
X21.422 Y114.166
X21.174 Y114.048
X20.953 Y113.884
X20.769 Y113.679
X20.629 Y113.443
X20.537 Y113.184
X20.512 Y113.08
X20.358 Y112.428
X20.209 Y111.775
X20.161 Y111.557
X20.083 Y111.194
G3 X20.418 Y110.545 I0.591 J-0.106
G1 X20.503 Y110.505 Z42.007
X20.586 Y110.466 Z42.029
X20.665 Y110.429 Z42.065
X20.737 Y110.395 Z42.115
X20.802 Y110.365 Z42.176
X20.857 Y110.339 Z42.247
X20.902 Y110.318 Z42.328
X20.934 Y110.302 Z42.415
X20.954 Y110.293 Z42.506
X20.961 Y110.29 Z42.6
G0 Z50.
X19.613 Y43.379
Z43.2
G1 Z42.6 F1800.
X19.611 Y43.372 Z42.506
X19.604 Y43.351 Z42.415
X19.594 Y43.317 Z42.328
X19.579 Y43.27 Z42.247
X19.561 Y43.211 Z42.176
X19.539 Y43.143 Z42.115
X19.515 Y43.066 Z42.065
X19.489 Y42.983 Z42.029
X19.461 Y42.896 Z42.007
X19.433 Y42.807 Z42.
G3 X19.391 Y42.022 I1.51 J-0.475
G1 X19.414 Y41.924
X19.673 Y40.715
X19.712 Y40.57
X19.765 Y40.43
X19.835 Y40.285
X19.922 Y40.136
X20.03 Y39.982
X20.163 Y39.82
X20.316 Y39.662
X20.503 Y39.498
X20.709 Y39.344
X20.955 Y39.19
X21.227 Y39.049
X21.531 Y38.921
X21.881 Y38.805
X22.248 Y38.716
X22.664 Y38.65
X23.124 Y38.614
X23.6 Y38.615
X24.124 Y38.659
X24.697 Y38.753
X25.275 Y38.896
X25.9 Y39.106
X26.567 Y39.392
X27.258 Y39.756
X27.935 Y40.184
X28.645 Y40.719
X29.362 Y41.355
X30.026 Y42.045
X30.637 Y42.782
X31.199 Y43.558
X31.711 Y44.367
X32.174 Y45.205
X32.592 Y46.067
X32.966 Y46.949
X33.3 Y47.846
X33.597 Y48.757
X33.859 Y49.678
X34.089 Y50.608
X34.291 Y51.544
X34.466 Y52.486
X34.618 Y53.431
X34.748 Y54.38
X34.86 Y55.331
X34.955 Y56.284
X35.036 Y57.238
X35.103 Y58.194
X35.16 Y59.15
X35.208 Y60.106
X35.247 Y61.063
X35.28 Y62.02
X35.307 Y62.977
X35.329 Y63.935
X35.346 Y64.892
X35.361 Y65.85
X35.373 Y66.808
X35.382 Y67.765
X35.39 Y68.723
X35.396 Y69.681
X35.405 Y71.596
X35.41 Y73.511
X35.415 Y76.384
X35.417 Y79.258
X35.42 Y87.877
X35.419 Y90.75
X35.418 Y91.708
X35.414 Y92.665
X35.408 Y93.623
X35.398 Y94.581
X35.381 Y95.538
X35.356 Y96.496
X35.319 Y97.453
X35.268 Y98.409
X35.199 Y99.364
X35.11 Y100.318
X34.997 Y101.269
X34.857 Y102.216
X34.686 Y103.158
X34.484 Y104.095
X34.247 Y105.022
X33.974 Y105.94
X33.662 Y106.846
X33.306 Y107.735
X32.907 Y108.605
X32.462 Y109.453
X31.971 Y110.276
X31.435 Y111.07
X30.854 Y111.831
X30.226 Y112.554
X29.551 Y113.233
X28.83 Y113.864
X28.065 Y114.44
X27.259 Y114.957
X26.465 Y115.381
X25.694 Y115.716
X24.955 Y115.968
X24.257 Y116.146
X23.673 Y116.246
X23.155 Y116.291
X22.711 Y116.295
X22.323 Y116.267
X22.196 Y116.247
X21.882 Y116.16
X21.596 Y116.003
X21.354 Y115.784
X21.17 Y115.514
X21.053 Y115.21
X20.566 Y113.298
X20.537 Y113.184
G3 X20.854 Y112.525 I0.587 J-0.123
G1 X20.937 Y112.483 Z42.007
X21.019 Y112.442 Z42.029
X21.097 Y112.402 Z42.065
X21.168 Y112.366 Z42.115
X21.232 Y112.334 Z42.176
X21.287 Y112.306 Z42.247
X21.331 Y112.284 Z42.328
X21.363 Y112.268 Z42.415
X21.382 Y112.258 Z42.506
X21.389 Y112.254 Z42.6
G0 Z50.
X19.924 Y42.067
Z43.2
G1 Z42.6 F1800.
X19.921 Y42.06 Z42.506
X19.914 Y42.039 Z42.415
X19.903 Y42.005 Z42.328
X19.887 Y41.958 Z42.247
X19.867 Y41.9 Z42.176
X19.845 Y41.832 Z42.115
X19.819 Y41.756 Z42.065
X19.791 Y41.674 Z42.029
X19.762 Y41.587 Z42.007
X19.732 Y41.498 Z42.
G3 X19.673 Y40.715 I1.5 J-0.506
G1 X19.999 Y39.193
X20.038 Y39.049
X20.095 Y38.902
X20.173 Y38.739
X20.27 Y38.574
X20.392 Y38.399
X20.539 Y38.221
X20.713 Y38.041
X20.922 Y37.858
X21.156 Y37.683
X21.436 Y37.508
X21.738 Y37.351
X22.089 Y37.203
X22.484 Y37.072
X22.906 Y36.97
X23.388 Y36.893
X23.908 Y36.853
X24.455 Y36.854
X25.069 Y36.905
X25.732 Y37.014
X26.401 Y37.181
X27.117 Y37.421
X27.882 Y37.748
X28.683 Y38.17
X29.473 Y38.671
X30.238 Y39.247
X30.957 Y39.88
X31.629 Y40.561
X32.257 Y41.285
X32.84 Y42.045
X33.379 Y42.836
X33.875 Y43.655
X34.33 Y44.498
X34.744 Y45.362
X35.12 Y46.242
X35.459 Y47.138
X35.764 Y48.046
X36.037 Y48.964
X36.28 Y49.89
X36.495 Y50.824
X36.685 Y51.762
X36.853 Y52.705
X36.998 Y53.652
X37.125 Y54.601
X37.235 Y55.552
X37.33 Y56.505
X37.41 Y57.46
X37.479 Y58.415
X37.538 Y59.371
X37.587 Y60.327
X37.628 Y61.284
X37.663 Y62.241
X37.692 Y63.198
X37.715 Y64.156
X37.735 Y65.113
X37.751 Y66.071
X37.764 Y67.028
X37.775 Y67.986
X37.784 Y68.944
X37.791 Y69.901
X37.797 Y70.859
X37.805 Y72.774
X37.81 Y74.69
X37.812 Y75.648
X37.817 Y79.478
X37.819 Y86.182
Y89.055
X37.818 Y90.013
X37.817 Y90.971
X37.813 Y91.928
X37.807 Y92.886
X37.796 Y93.844
X37.78 Y94.801
X37.756 Y95.759
X37.723 Y96.716
X37.677 Y97.672
X37.617 Y98.628
X37.54 Y99.583
X37.442 Y100.535
X37.322 Y101.486
X37.177 Y102.432
X37.005 Y103.374
X36.804 Y104.311
X36.572 Y105.24
X36.308 Y106.161
X36.01 Y107.071
X35.675 Y107.968
X35.303 Y108.85
X34.89 Y109.715
X34.438 Y110.558
X33.945 Y111.38
X33.412 Y112.176
X32.839 Y112.943
X32.226 Y113.679
X31.574 Y114.38
X30.881 Y115.041
X30.148 Y115.658
X29.378 Y116.227
X28.572 Y116.744
X27.733 Y117.205
X26.862 Y117.604
X26.002 Y117.92
X25.224 Y118.136
X24.505 Y118.275
X23.925 Y118.34
X23.437 Y118.355
X22.998 Y118.333
X22.615 Y118.283
X22.255 Y118.206
X22.054 Y118.117
X21.881 Y117.98
X21.749 Y117.805
X21.665 Y117.602
X21.63 Y117.473
X21.053 Y115.21
G3 X21.364 Y114.549 I0.586 J-0.128
G1 X21.447 Y114.505 Z42.007
X21.528 Y114.463 Z42.029
X21.606 Y114.424 Z42.065
X21.677 Y114.387 Z42.115
X21.741 Y114.354 Z42.176
X21.795 Y114.326 Z42.247
X21.839 Y114.303 Z42.328
X21.871 Y114.287 Z42.415
X21.89 Y114.277 Z42.506
X21.897 Y114.273 Z42.6
G0 Z50.
X20.25 Y40.545
Z43.2
G1 Z42.6 F1800.
X20.247 Y40.538 Z42.506
X20.24 Y40.517 Z42.415
X20.229 Y40.483 Z42.328
X20.213 Y40.437 Z42.247
X20.193 Y40.379 Z42.176
X20.171 Y40.311 Z42.115
X20.145 Y40.235 Z42.065
X20.117 Y40.152 Z42.029
X20.088 Y40.066 Z42.007
X20.058 Y39.977 Z42.
G3 X19.999 Y39.193 I1.5 J-0.506
G1 X20.161 Y38.443
X20.209 Y38.225
X20.358 Y37.572
X20.403 Y37.417
X20.463 Y37.257
X20.544 Y37.087
X20.647 Y36.907
X20.776 Y36.72
X20.932 Y36.529
X21.122 Y36.331
X21.339 Y36.138
X21.603 Y35.939
X21.891 Y35.756
X22.235 Y35.574
X22.611 Y35.413
X23.037 Y35.269
X23.528 Y35.147
X24.04 Y35.062
X24.617 Y35.014
X25.262 Y35.011
X25.924 Y35.062
X26.645 Y35.177
X27.437 Y35.368
X28.277 Y35.645
X29.114 Y35.997
X29.964 Y36.438
X30.776 Y36.945
X31.55 Y37.509
X32.285 Y38.123
X32.98 Y38.782
X33.635 Y39.481
X34.25 Y40.214
X34.827 Y40.979
X35.364 Y41.772
X35.862 Y42.59
X36.322 Y43.43
X36.746 Y44.289
X37.135 Y45.164
X37.49 Y46.053
X37.813 Y46.955
X38.107 Y47.867
X38.371 Y48.787
X38.609 Y49.715
X38.822 Y50.648
X39.012 Y51.587
X39.18 Y52.53
X39.329 Y53.476
X39.459 Y54.425
X39.573 Y55.376
X39.672 Y56.328
X39.758 Y57.282
X39.832 Y58.237
X39.895 Y59.192
X39.949 Y60.149
X39.995 Y61.105
X40.033 Y62.062
X40.066 Y63.019
X40.093 Y63.977
X40.116 Y64.934
X40.135 Y65.892
X40.151 Y66.849
X40.164 Y67.807
X40.174 Y68.764
X40.183 Y69.722
X40.19 Y70.68
X40.196 Y71.637
X40.2 Y72.595
X40.207 Y74.51
X40.213 Y77.384
X40.217 Y81.214
X40.219 Y86.96
X40.218 Y88.876
X40.217 Y89.834
X40.214 Y90.791
X40.208 Y91.749
X40.2 Y92.707
X40.187 Y93.664
X40.168 Y94.622
X40.141 Y95.579
X40.105 Y96.536
X40.057 Y97.493
X39.995 Y98.448
X39.917 Y99.403
X39.821 Y100.356
X39.704 Y101.306
X39.566 Y102.254
X39.404 Y103.198
X39.217 Y104.137
X39.003 Y105.071
X38.761 Y105.997
X38.488 Y106.915
X38.182 Y107.823
X37.844 Y108.718
X37.471 Y109.601
X37.063 Y110.467
X36.62 Y111.316
X36.142 Y112.146
X35.629 Y112.955
X35.08 Y113.74
X34.495 Y114.498
X33.874 Y115.227
X33.216 Y115.923
X32.523 Y116.584
X31.796 Y117.208
X31.037 Y117.791
X30.247 Y118.332
X29.427 Y118.827
X28.577 Y119.268
X27.7 Y119.653
X26.798 Y119.976
X25.956 Y120.208
X25.17 Y120.357
X24.443 Y120.435
X23.882 Y120.451
X23.406 Y120.425
X23.325 Y120.414
X23.01 Y120.334
X22.721 Y120.182
X22.476 Y119.968
X22.286 Y119.704
X22.163 Y119.402
X21.797 Y118.085
X21.665 Y117.602
G3 X21.965 Y116.936 I0.584 J-0.137
G1 X22.048 Y116.891 Z42.007
X22.128 Y116.848 Z42.029
X22.205 Y116.807 Z42.065
X22.276 Y116.769 Z42.115
X22.339 Y116.735 Z42.176
X22.393 Y116.706 Z42.247
X22.436 Y116.683 Z42.328
X22.468 Y116.666 Z42.415
X22.487 Y116.655 Z42.506
X22.494 Y116.652 Z42.6
G0 Z50.
X20.59 Y38.927
Z43.2
G1 Z42.6 F1800.
X20.587 Y38.92 Z42.506
X20.581 Y38.899 Z42.415
X20.57 Y38.865 Z42.328
X20.554 Y38.818 Z42.247
X20.536 Y38.76 Z42.176
X20.514 Y38.692 Z42.115
X20.489 Y38.616 Z42.065
X20.462 Y38.533 Z42.029
X20.434 Y38.446 Z42.007
X20.406 Y38.356 Z42.
G3 X20.358 Y37.572 I1.506 J-0.486
G1 X20.512 Y36.92
X20.566 Y36.702
X20.787 Y35.832
X20.85 Y35.627
X20.918 Y35.459
X21.006 Y35.28
X21.12 Y35.09
X21.26 Y34.895
X21.434 Y34.689
X21.639 Y34.483
X21.88 Y34.276
X22.166 Y34.068
X22.485 Y33.873
X22.87 Y33.679
X23.28 Y33.512
X23.76 Y33.36
X24.296 Y33.236
X24.865 Y33.152
X25.525 Y33.108
X26.245 Y33.119
X26.991 Y33.19
X27.815 Y33.335
X28.701 Y33.567
X29.605 Y33.882
X30.482 Y34.268
X31.328 Y34.717
X32.14 Y35.224
X32.919 Y35.782
X33.662 Y36.385
X34.371 Y37.03
X35.044 Y37.711
X35.682 Y38.425
X36.285 Y39.169
X36.853 Y39.94
X37.385 Y40.736
X37.882 Y41.555
X38.345 Y42.393
X38.775 Y43.249
X39.172 Y44.12
X39.539 Y45.005
X39.876 Y45.901
X40.185 Y46.808
X40.467 Y47.723
X40.723 Y48.646
X40.955 Y49.575
X41.165 Y50.51
X41.352 Y51.449
X41.52 Y52.392
X41.67 Y53.338
X41.802 Y54.286
X41.918 Y55.237
X42.021 Y56.189
X42.11 Y57.143
X42.188 Y58.097
X42.255 Y59.052
X42.313 Y60.008
X42.362 Y60.965
X42.405 Y61.922
X42.441 Y62.879
X42.471 Y63.836
X42.497 Y64.793
X42.518 Y65.751
X42.536 Y66.708
X42.551 Y67.666
X42.564 Y68.623
X42.574 Y69.581
X42.583 Y70.539
X42.59 Y71.496
X42.595 Y72.454
X42.604 Y74.369
X42.609 Y76.285
X42.614 Y79.158
X42.618 Y83.946
X42.619 Y86.819
X42.617 Y88.735
X42.614 Y89.692
X42.61 Y90.65
X42.603 Y91.608
X42.592 Y92.565
X42.576 Y93.523
X42.554 Y94.48
X42.525 Y95.438
X42.486 Y96.395
X42.435 Y97.351
X42.372 Y98.307
X42.293 Y99.261
X42.199 Y100.214
X42.085 Y101.165
X41.953 Y102.113
X41.799 Y103.059
X41.622 Y104.
X41.421 Y104.936
X41.195 Y105.867
X40.942 Y106.791
X40.66 Y107.706
X40.349 Y108.612
X40.006 Y109.506
X39.633 Y110.388
X39.229 Y111.256
X38.793 Y112.109
X38.326 Y112.945
X37.826 Y113.762
X37.295 Y114.559
X36.732 Y115.334
X36.136 Y116.083
X35.507 Y116.805
X34.846 Y117.498
X34.153 Y118.16
X33.431 Y118.789
X32.68 Y119.382
X31.9 Y119.939
X31.094 Y120.456
X30.261 Y120.929
X29.403 Y121.354
X28.521 Y121.727
X27.617 Y122.043
X26.693 Y122.296
X25.827 Y122.466
X25.171 Y122.541
X24.634 Y122.558
X24.173 Y122.536
X23.914 Y122.503
X23.596 Y122.424
X23.306 Y122.273
X23.058 Y122.058
X22.867 Y121.792
X22.743 Y121.49
X22.163 Y119.402
G3 X22.46 Y118.734 I0.583 J-0.14
G1 X22.542 Y118.69 Z42.007
X22.622 Y118.646 Z42.029
X22.699 Y118.604 Z42.065
X22.769 Y118.566 Z42.115
X22.832 Y118.532 Z42.176
X22.886 Y118.503 Z42.247
X22.929 Y118.479 Z42.328
X22.961 Y118.462 Z42.415
X22.98 Y118.451 Z42.506
X22.987 Y118.448 Z42.6
G0 Z50.
X20.985 Y37.192
Z43.2
G1 Z42.6 F1800.
X20.983 Y37.185 Z42.506
X20.977 Y37.164 Z42.415
X20.967 Y37.129 Z42.328
X20.953 Y37.082 Z42.247
X20.935 Y37.023 Z42.176
X20.915 Y36.955 Z42.115
X20.893 Y36.878 Z42.065
X20.868 Y36.794 Z42.029
X20.842 Y36.706 Z42.007
X20.815 Y36.616 Z42.
G3 X20.787 Y35.832 I1.518 J-0.448
G1 X21.262 Y33.971
X21.312 Y33.809
X21.382 Y33.632
X21.473 Y33.45
X21.592 Y33.252
X21.737 Y33.048
X21.917 Y32.835
X22.131 Y32.62
X22.388 Y32.399
X22.679 Y32.188
X23.033 Y31.972
X23.414 Y31.78
X23.879 Y31.59
X24.376 Y31.432
X24.942 Y31.302
X25.598 Y31.205
X26.276 Y31.16
X27.044 Y31.171
X27.9 Y31.253
X28.811 Y31.414
X29.737 Y31.656
X30.642 Y31.97
X31.521 Y32.35
X32.373 Y32.788
X33.196 Y33.277
X33.99 Y33.814
X34.753 Y34.392
X35.485 Y35.01
X36.185 Y35.663
X36.854 Y36.348
X37.491 Y37.063
X38.095 Y37.807
X38.667 Y38.575
X39.206 Y39.366
X39.714 Y40.178
X40.191 Y41.009
X40.637 Y41.856
X41.054 Y42.718
X41.442 Y43.594
X41.803 Y44.481
X42.136 Y45.379
X42.443 Y46.286
X42.725 Y47.201
X42.983 Y48.124
X43.219 Y49.052
X43.432 Y49.985
X43.626 Y50.923
X43.8 Y51.865
X43.956 Y52.81
X44.096 Y53.758
X44.22 Y54.707
X44.33 Y55.658
X44.427 Y56.611
X44.512 Y57.565
X44.587 Y58.52
X44.652 Y59.475
X44.708 Y60.431
X44.757 Y61.388
X44.799 Y62.345
X44.834 Y63.302
X44.865 Y64.259
X44.891 Y65.216
X44.913 Y66.174
X44.931 Y67.131
X44.946 Y68.089
X44.959 Y69.046
X44.97 Y70.004
X44.979 Y70.962
X44.987 Y71.919
X44.993 Y72.877
X45.002 Y74.792
X45.008 Y76.708
X45.014 Y79.581
X45.017 Y83.412
X45.018 Y86.285
X45.015 Y88.2
X45.012 Y89.158
X45.007 Y90.116
X45. Y91.073
X44.989 Y92.031
X44.973 Y92.988
X44.951 Y93.946
X44.923 Y94.903
X44.885 Y95.86
X44.838 Y96.817
X44.779 Y97.772
X44.707 Y98.727
X44.62 Y99.681
X44.518 Y100.633
X44.398 Y101.584
X44.259 Y102.531
X44.1 Y103.476
X43.919 Y104.416
X43.716 Y105.352
X43.489 Y106.282
X43.236 Y107.206
X42.958 Y108.122
X42.653 Y109.03
X42.32 Y109.928
X41.959 Y110.816
X41.571 Y111.691
X41.154 Y112.553
X40.708 Y113.401
X40.234 Y114.233
X39.729 Y115.047
X39.195 Y115.841
X38.631 Y116.615
X38.037 Y117.367
X37.414 Y118.094
X36.763 Y118.796
X36.083 Y119.471
X35.377 Y120.117
X34.644 Y120.734
X33.885 Y121.318
X33.1 Y121.867
X32.29 Y122.378
X31.456 Y122.849
X30.6 Y123.279
X29.723 Y123.663
X28.826 Y123.999
X27.912 Y124.283
X26.979 Y124.503
X26.165 Y124.627
X25.523 Y124.673
X25.035 Y124.668
X24.57 Y124.627
X24.516 Y124.617
X24.228 Y124.535
X23.964 Y124.395
X23.737 Y124.201
X23.555 Y123.963
X23.428 Y123.692
X23.073 Y122.655
X23.007 Y122.437
X22.743 Y121.49
G3 X23.04 Y120.822 I0.583 J-0.14
G1 X23.122 Y120.777 Z42.007
X23.203 Y120.733 Z42.029
X23.279 Y120.692 Z42.065
X23.35 Y120.653 Z42.115
X23.413 Y120.619 Z42.176
X23.466 Y120.59 Z42.247
X23.51 Y120.567 Z42.328
X23.541 Y120.549 Z42.415
X23.561 Y120.539 Z42.506
X23.567 Y120.535 Z42.6
G0 Z50.
X21.46 Y35.331
Z43.2
G1 Z42.6 F1800.
X21.457 Y35.324 Z42.506
X21.451 Y35.303 Z42.415
X21.441 Y35.269 Z42.328
X21.427 Y35.221 Z42.247
X21.41 Y35.163 Z42.176
X21.39 Y35.094 Z42.115
X21.367 Y35.017 Z42.065
X21.342 Y34.934 Z42.029
X21.316 Y34.846 Z42.007
X21.29 Y34.756 Z42.
G3 X21.262 Y33.971 I1.518 J-0.448
G1 X21.63 Y32.527
X21.738 Y32.132
X21.816 Y31.895
X21.893 Y31.712
X21.993 Y31.519
X22.12 Y31.315
X22.279 Y31.101
X22.47 Y30.883
X22.702 Y30.658
X22.975 Y30.432
X23.296 Y30.207
X23.672 Y29.987
X24.088 Y29.786
X24.591 Y29.591
X25.122 Y29.433
X25.751 Y29.3
X26.465 Y29.208
X27.207 Y29.172
X28.053 Y29.199
X28.974 Y29.303
X29.914 Y29.487
X30.837 Y29.741
X31.74 Y30.06
X32.62 Y30.438
X33.476 Y30.868
X34.305 Y31.347
X35.108 Y31.869
X35.884 Y32.43
X36.632 Y33.028
X37.353 Y33.659
X38.044 Y34.321
X38.707 Y35.013
X39.34 Y35.731
X39.943 Y36.475
X40.517 Y37.242
X41.061 Y38.03
X41.576 Y38.838
X42.063 Y39.662
X42.522 Y40.503
X42.953 Y41.358
X43.357 Y42.226
X43.736 Y43.106
X44.088 Y43.996
X44.416 Y44.896
X44.721 Y45.804
X45.001 Y46.72
X45.26 Y47.642
X45.497 Y48.57
X45.713 Y49.503
X45.91 Y50.44
X46.089 Y51.381
X46.25 Y52.325
X46.396 Y53.272
X46.526 Y54.22
X46.643 Y55.171
X46.747 Y56.123
X46.839 Y57.076
X46.92 Y58.031
X46.991 Y58.986
X47.053 Y59.941
X47.108 Y60.897
X47.155 Y61.854
X47.196 Y62.811
X47.231 Y63.768
X47.261 Y64.725
X47.287 Y65.682
X47.309 Y66.64
X47.327 Y67.597
X47.343 Y68.555
X47.356 Y69.513
X47.367 Y70.47
X47.376 Y71.428
X47.384 Y72.385
X47.391 Y73.343
X47.4 Y75.259
X47.407 Y77.174
X47.413 Y80.047
X47.416 Y82.92
X47.417 Y85.793
X47.414 Y87.709
X47.41 Y88.666
X47.405 Y89.624
X47.397 Y90.582
X47.385 Y91.539
X47.37 Y92.497
X47.348 Y93.454
X47.32 Y94.412
X47.284 Y95.369
X47.239 Y96.325
X47.184 Y97.281
X47.116 Y98.237
X47.036 Y99.191
X46.942 Y100.144
X46.832 Y101.095
X46.705 Y102.045
X46.56 Y102.991
X46.396 Y103.935
X46.211 Y104.874
X46.005 Y105.81
X45.776 Y106.74
X45.524 Y107.664
X45.248 Y108.581
X44.947 Y109.49
X44.622 Y110.391
X44.271 Y111.282
X43.894 Y112.162
X43.492 Y113.031
X43.063 Y113.888
X42.608 Y114.73
X42.125 Y115.558
X41.615 Y116.368
X41.078 Y117.161
X40.513 Y117.934
X39.921 Y118.687
X39.302 Y119.418
X38.658 Y120.126
X37.988 Y120.811
X37.293 Y121.47
X36.574 Y122.102
X35.831 Y122.706
X35.064 Y123.28
X34.274 Y123.821
X33.461 Y124.328
X32.626 Y124.798
X31.772 Y125.23
X30.898 Y125.623
X30.007 Y125.972
X29.098 Y126.276
X28.173 Y126.524
X27.256 Y126.702
X26.514 Y126.784
X25.928 Y126.802
X25.457 Y126.779
X25.304 Y126.759
X25.003 Y126.685
X24.725 Y126.546
X24.485 Y126.35
X24.294 Y126.106
X24.161 Y125.826
X23.428 Y123.692
G3 X23.685 Y123.008 I0.574 J-0.175
G1 X23.764 Y122.959 Z42.007
X23.842 Y122.91 Z42.029
X23.916 Y122.864 Z42.065
X23.984 Y122.822 Z42.115
X24.045 Y122.784 Z42.176
X24.097 Y122.751 Z42.247
X24.138 Y122.725 Z42.328
X24.169 Y122.706 Z42.415
X24.187 Y122.695 Z42.506
X24.194 Y122.691 Z42.6
G0 Z50.
X21.911 Y33.496
Z43.2
G1 Z42.6 F1800.
X21.91 Y33.489 Z42.506
X21.904 Y33.468 Z42.415
X21.894 Y33.433 Z42.328
X21.881 Y33.385 Z42.247
X21.865 Y33.327 Z42.176
X21.846 Y33.258 Z42.115
X21.824 Y33.18 Z42.065
X21.801 Y33.096 Z42.029
X21.777 Y33.008 Z42.007
X21.752 Y32.918 Z42.
G3 X21.738 Y32.132 I1.526 J-0.421
G1 X21.857 Y31.697
X22.281 Y30.174
X22.356 Y29.949
X22.431 Y29.771
X22.538 Y29.567
X22.665 Y29.366
X22.833 Y29.141
X23.025 Y28.924
X23.271 Y28.687
X23.545 Y28.461
X23.89 Y28.222
X24.264 Y28.004
X24.725 Y27.784
X25.218 Y27.595
X25.804 Y27.423
X26.474 Y27.284
X27.183 Y27.195
X28.005 Y27.158
X28.914 Y27.191
X29.865 Y27.302
X30.805 Y27.486
X31.729 Y27.738
X32.635 Y28.05
X33.52 Y28.416
X34.383 Y28.831
X35.223 Y29.29
X36.04 Y29.791
X36.832 Y30.329
X37.599 Y30.902
X38.342 Y31.507
X39.058 Y32.142
X39.748 Y32.806
X40.411 Y33.498
X41.046 Y34.214
X41.654 Y34.954
X42.236 Y35.715
X42.79 Y36.496
X43.318 Y37.295
X43.819 Y38.111
X44.295 Y38.942
X44.745 Y39.788
X45.17 Y40.646
X45.57 Y41.516
X45.945 Y42.397
X46.298 Y43.288
X46.626 Y44.187
X46.932 Y45.095
X47.216 Y46.009
X47.479 Y46.93
X47.722 Y47.857
X47.945 Y48.788
X48.149 Y49.724
X48.336 Y50.663
X48.506 Y51.606
X48.66 Y52.551
X48.8 Y53.498
X48.926 Y54.448
X49.039 Y55.399
X49.14 Y56.351
X49.229 Y57.305
X49.309 Y58.259
X49.38 Y59.214
X49.442 Y60.17
X49.496 Y61.126
X49.543 Y62.082
X49.584 Y63.039
X49.62 Y63.996
X49.651 Y64.953
X49.678 Y65.911
X49.7 Y66.868
X49.72 Y67.826
X49.736 Y68.783
X49.75 Y69.741
X49.762 Y70.698
X49.772 Y71.656
X49.78 Y72.614
X49.787 Y73.571
X49.798 Y75.487
X49.805 Y77.402
X49.812 Y80.275
X49.815 Y83.148
Y85.064
X49.814 Y86.021
X49.813 Y86.979
X49.809 Y87.937
X49.804 Y88.895
X49.797 Y89.852
X49.786 Y90.81
X49.771 Y91.767
X49.751 Y92.725
X49.726 Y93.682
X49.693 Y94.639
X49.653 Y95.596
X49.603 Y96.553
X49.543 Y97.508
X49.472 Y98.463
X49.388 Y99.417
X49.29 Y100.37
X49.177 Y101.321
X49.047 Y102.27
X48.901 Y103.217
X48.737 Y104.16
X48.553 Y105.1
X48.349 Y106.036
X48.125 Y106.967
X47.879 Y107.892
X47.612 Y108.812
X47.322 Y109.725
X47.009 Y110.63
X46.672 Y111.526
X46.312 Y112.414
X45.928 Y113.291
X45.521 Y114.158
X45.088 Y115.012
X44.629 Y115.853
X44.146 Y116.68
X43.637 Y117.491
X43.103 Y118.286
X42.544 Y119.063
X41.96 Y119.823
X41.352 Y120.563
X40.72 Y121.282
X40.064 Y121.98
X39.386 Y122.656
X38.685 Y123.308
X37.961 Y123.936
X37.214 Y124.535
X36.446 Y125.107
X35.656 Y125.648
X34.846 Y126.159
X34.016 Y126.638
X33.168 Y127.082
X32.302 Y127.492
X31.42 Y127.864
X30.521 Y128.195
X29.606 Y128.477
X28.676 Y128.705
X27.773 Y128.863
X27.086 Y128.927
X26.561 Y128.933
X26.082 Y128.9
X26.012 Y128.89
X25.717 Y128.812
X25.446 Y128.672
X25.211 Y128.477
X25.025 Y128.236
X24.895 Y127.96
X24.161 Y125.826
G3 X24.418 Y125.141 I0.574 J-0.175
G1 X24.497 Y125.092 Z42.007
X24.575 Y125.043 Z42.029
X24.649 Y124.997 Z42.065
X24.717 Y124.955 Z42.115
X24.778 Y124.917 Z42.176
X24.829 Y124.884 Z42.247
X24.871 Y124.858 Z42.328
X24.902 Y124.839 Z42.415
X24.92 Y124.828 Z42.506
X24.927 Y124.824 Z42.6
G0 Z50.
X22.45 Y31.538
Z43.2
G1 Z42.6 F1800.
X22.448 Y31.531 Z42.506
X22.442 Y31.51 Z42.415
X22.432 Y31.475 Z42.328
X22.42 Y31.428 Z42.247
X22.403 Y31.369 Z42.176
X22.385 Y31.3 Z42.115
X22.364 Y31.222 Z42.065
X22.341 Y31.138 Z42.029
X22.317 Y31.05 Z42.007
X22.292 Y30.959 Z42.
G3 X22.281 Y30.174 I1.527 J-0.415
G1 X22.825 Y28.215
X22.902 Y27.986
X22.979 Y27.805
X23.086 Y27.6
X23.217 Y27.393
X23.384 Y27.169
X23.586 Y26.94
X23.83 Y26.704
X24.123 Y26.464
X24.464 Y26.227
X24.858 Y25.998
X25.328 Y25.774
X25.84 Y25.577
X26.468 Y25.393
X27.13 Y25.255
X27.896 Y25.159
X28.763 Y25.121
X29.713 Y25.155
X30.665 Y25.266
X31.605 Y25.447
X32.531 Y25.691
X33.44 Y25.992
X34.331 Y26.343
X35.203 Y26.74
X36.054 Y27.18
X36.883 Y27.658
X37.691 Y28.173
X38.476 Y28.721
X39.239 Y29.3
X39.978 Y29.909
X40.693 Y30.546
X41.383 Y31.21
X42.048 Y31.899
X42.688 Y32.612
X43.304 Y33.346
X43.894 Y34.1
X44.46 Y34.872
X45.001 Y35.662
X45.518 Y36.469
X46.011 Y37.29
X46.479 Y38.125
X46.924 Y38.973
X47.346 Y39.833
X47.744 Y40.704
X48.12 Y41.585
X48.473 Y42.475
X48.804 Y43.374
X49.114 Y44.28
X49.403 Y45.193
X49.672 Y46.112
X49.921 Y47.037
X50.152 Y47.966
X50.365 Y48.9
X50.561 Y49.838
X50.741 Y50.778
X50.905 Y51.722
X51.055 Y52.668
X51.19 Y53.616
X51.313 Y54.566
X51.424 Y55.517
X51.523 Y56.469
X51.612 Y57.423
X51.692 Y58.377
X51.762 Y59.332
X51.825 Y60.288
X51.879 Y61.244
X51.928 Y62.201
X51.97 Y63.157
X52.007 Y64.114
X52.038 Y65.072
X52.066 Y66.029
X52.09 Y66.986
X52.11 Y67.944
X52.128 Y68.901
X52.143 Y69.859
X52.155 Y70.816
X52.166 Y71.774
X52.175 Y72.732
X52.183 Y73.689
X52.189 Y74.647
X52.199 Y76.562
X52.206 Y78.478
X52.212 Y81.351
X52.214 Y83.266
X52.213 Y85.182
X52.212 Y86.139
X52.209 Y87.097
X52.204 Y88.055
X52.197 Y89.012
X52.188 Y89.97
X52.175 Y90.928
X52.157 Y91.885
X52.135 Y92.843
X52.106 Y93.8
X52.07 Y94.757
X52.027 Y95.714
X51.974 Y96.67
X51.911 Y97.626
X51.837 Y98.58
X51.75 Y99.534
X51.651 Y100.487
X51.537 Y101.438
X51.407 Y102.386
X51.262 Y103.333
X51.1 Y104.277
X50.92 Y105.218
X50.721 Y106.154
X50.503 Y107.087
X50.266 Y108.015
X50.008 Y108.937
X49.729 Y109.853
X49.43 Y110.763
X49.109 Y111.665
X48.766 Y112.56
X48.401 Y113.445
X48.013 Y114.321
X47.602 Y115.186
X47.168 Y116.039
X46.71 Y116.88
X46.229 Y117.708
X45.724 Y118.522
X45.196 Y119.321
X44.645 Y120.105
X44.071 Y120.871
X43.475 Y121.621
X42.856 Y122.352
X42.216 Y123.064
X41.554 Y123.756
X40.871 Y124.427
X40.166 Y125.075
X39.439 Y125.699
X38.692 Y126.299
X37.925 Y126.872
X37.138 Y127.418
X36.333 Y127.936
X35.51 Y128.426
X34.669 Y128.885
X33.812 Y129.312
X32.939 Y129.707
X32.051 Y130.064
X31.147 Y130.379
X30.228 Y130.649
X29.295 Y130.866
X28.402 Y131.012
X27.741 Y131.066
X27.23 Y131.067
X26.758 Y131.029
X26.731 Y131.025
X26.44 Y130.945
X26.172 Y130.805
X25.941 Y130.61
X25.757 Y130.371
X25.629 Y130.098
X24.895 Y127.96
G3 X25.151 Y127.276 I0.574 J-0.175
G1 X25.231 Y127.226 Z42.007
X25.308 Y127.178 Z42.029
X25.382 Y127.132 Z42.065
X25.45 Y127.089 Z42.115
X25.511 Y127.051 Z42.176
X25.563 Y127.019 Z42.247
X25.604 Y126.993 Z42.328
X25.635 Y126.974 Z42.415
X25.654 Y126.962 Z42.506
X25.66 Y126.958 Z42.6
G0 Z50.
X22.994 Y29.58
Z43.2
G1 Z42.6 F1800.
X22.992 Y29.573 Z42.506
X22.986 Y29.551 Z42.415
X22.977 Y29.517 Z42.328
X22.964 Y29.469 Z42.247
X22.948 Y29.41 Z42.176
X22.929 Y29.341 Z42.115
X22.908 Y29.264 Z42.065
X22.885 Y29.18 Z42.029
X22.861 Y29.091 Z42.007
X22.837 Y29.001 Z42.
G3 X22.825 Y28.215 I1.527 J-0.415
G1 X23.007 Y27.563
X23.073 Y27.345
X23.521 Y26.039
X23.607 Y25.824
X23.705 Y25.627
X23.83 Y25.42
X23.984 Y25.204
X24.183 Y24.969
X24.411 Y24.74
X24.698 Y24.494
X25.018 Y24.263
X25.415 Y24.02
X25.853 Y23.8
X26.38 Y23.585
X26.981 Y23.396
X27.648 Y23.242
X28.431 Y23.128
X29.299 Y23.071
X30.232 Y23.085
X31.186 Y23.177
X32.13 Y23.337
X33.062 Y23.559
X33.979 Y23.834
X34.88 Y24.158
X35.764 Y24.528
X36.629 Y24.938
X37.475 Y25.386
X38.302 Y25.869
X39.109 Y26.385
X39.894 Y26.933
X40.658 Y27.511
X41.4 Y28.117
X42.119 Y28.749
X42.816 Y29.406
X43.49 Y30.086
X44.142 Y30.788
X44.77 Y31.511
X45.376 Y32.253
X45.958 Y33.013
X46.518 Y33.79
X47.055 Y34.583
X47.57 Y35.39
X48.061 Y36.212
X48.53 Y37.047
X48.977 Y37.894
X49.401 Y38.753
X49.804 Y39.622
X50.185 Y40.5
X50.545 Y41.388
X50.885 Y42.283
X51.204 Y43.186
X51.503 Y44.096
X51.783 Y45.012
X52.045 Y45.933
X52.288 Y46.86
X52.514 Y47.79
X52.723 Y48.725
X52.917 Y49.663
X53.095 Y50.604
X53.258 Y51.547
X53.407 Y52.493
X53.544 Y53.441
X53.667 Y54.391
X53.78 Y55.342
X53.881 Y56.294
X53.972 Y57.248
X54.054 Y58.202
X54.126 Y59.157
X54.191 Y60.112
X54.249 Y61.068
X54.299 Y62.025
X54.344 Y62.981
X54.383 Y63.938
X54.417 Y64.895
X54.447 Y65.853
X54.473 Y66.81
X54.495 Y67.767
X54.514 Y68.725
X54.531 Y69.682
X54.545 Y70.64
X54.557 Y71.598
X54.567 Y72.555
X54.576 Y73.513
X54.583 Y74.471
X54.595 Y76.386
X54.603 Y78.301
X54.608 Y80.217
X54.611 Y82.132
X54.612 Y84.048
X54.611 Y85.005
X54.609 Y85.963
X54.605 Y86.921
X54.6 Y87.878
X54.592 Y88.836
X54.582 Y89.794
X54.567 Y90.751
X54.549 Y91.709
X54.525 Y92.666
X54.496 Y93.623
X54.459 Y94.58
X54.415 Y95.537
X54.362 Y96.493
X54.299 Y97.449
X54.226 Y98.404
X54.142 Y99.358
X54.045 Y100.311
X53.935 Y101.262
X53.81 Y102.211
X53.671 Y103.159
X53.516 Y104.104
X53.344 Y105.046
X53.156 Y105.985
X52.95 Y106.921
X52.726 Y107.852
X52.483 Y108.778
X52.221 Y109.699
X51.939 Y110.615
X51.638 Y111.523
X51.315 Y112.425
X50.972 Y113.319
X50.608 Y114.205
X50.223 Y115.082
X49.816 Y115.949
X49.388 Y116.805
X48.937 Y117.651
X48.465 Y118.484
X47.971 Y119.305
X47.456 Y120.112
X46.919 Y120.905
X46.361 Y121.683
X45.782 Y122.446
X45.182 Y123.192
X44.561 Y123.921
X43.919 Y124.632
X43.257 Y125.324
X42.574 Y125.996
X41.871 Y126.646
X41.149 Y127.275
X40.408 Y127.882
X39.648 Y128.465
X38.87 Y129.024
X38.075 Y129.557
X37.263 Y130.064
X36.434 Y130.545
X35.59 Y130.997
X34.73 Y131.419
X33.855 Y131.807
X32.965 Y132.16
X32.06 Y132.475
X31.142 Y132.747
X30.211 Y132.972
X29.267 Y133.136
X28.579 Y133.2
X28.032 Y133.208
X27.559 Y133.176
X27.485 Y133.165
X27.192 Y133.088
X26.923 Y132.951
X26.69 Y132.759
X26.503 Y132.522
X26.372 Y132.25
X26.287 Y132.012
X25.629 Y130.098
G3 X25.885 Y129.413 I0.574 J-0.175
G1 X25.965 Y129.364 Z42.007
X26.043 Y129.315 Z42.029
X26.116 Y129.269 Z42.065
X26.185 Y129.227 Z42.115
X26.245 Y129.189 Z42.176
X26.297 Y129.157 Z42.247
X26.339 Y129.13 Z42.328
X26.369 Y129.111 Z42.415
X26.388 Y129.1 Z42.506
X26.394 Y129.096 Z42.6
G0 Z50.
X23.608 Y27.411
Z43.2
G1 Z42.6 F1800.
X23.606 Y27.404 Z42.506
X23.602 Y27.383 Z42.415
X23.594 Y27.347 Z42.328
X23.584 Y27.299 Z42.247
X23.572 Y27.239 Z42.176
X23.557 Y27.169 Z42.115
X23.541 Y27.091 Z42.065
X23.523 Y27.005 Z42.029
X23.504 Y26.916 Z42.007
X23.485 Y26.824 Z42.
G3 X23.521 Y26.039 I1.549 J-0.323
G1 X24.239 Y23.95
X24.309 Y23.775
X24.408 Y23.575
X24.528 Y23.376
X24.69 Y23.15
X24.876 Y22.93
X25.115 Y22.689
X25.388 Y22.456
X25.725 Y22.212
X26.109 Y21.978
X26.574 Y21.743
X27.086 Y21.535
X27.716 Y21.336
X28.378 Y21.184
X29.154 Y21.07
X30.039 Y21.013
X30.997 Y21.027
X31.951 Y21.116
X32.896 Y21.269
X33.83 Y21.482
X34.75 Y21.746
X35.656 Y22.059
X36.545 Y22.413
X37.418 Y22.808
X38.273 Y23.239
X39.111 Y23.703
X39.929 Y24.2
X40.729 Y24.727
X41.509 Y25.282
X42.269 Y25.865
X43.009 Y26.473
X43.728 Y27.106
X44.426 Y27.762
X45.102 Y28.44
X45.758 Y29.138
X46.391 Y29.856
X47.004 Y30.592
X47.595 Y31.346
X48.165 Y32.115
X48.714 Y32.9
X49.242 Y33.699
X49.748 Y34.512
X50.233 Y35.338
X50.697 Y36.176
X51.14 Y37.025
X51.563 Y37.884
X51.965 Y38.753
X52.346 Y39.632
X52.708 Y40.519
X53.05 Y41.413
X53.372 Y42.315
X53.676 Y43.223
X53.961 Y44.138
X54.229 Y45.057
X54.479 Y45.982
X54.713 Y46.91
X54.931 Y47.843
X55.132 Y48.779
X55.319 Y49.718
X55.492 Y50.66
X55.651 Y51.605
X55.797 Y52.551
X55.93 Y53.5
X56.052 Y54.45
X56.162 Y55.401
X56.263 Y56.353
X56.353 Y57.307
X56.435 Y58.261
X56.508 Y59.216
X56.573 Y60.171
X56.631 Y61.127
X56.682 Y62.084
X56.728 Y63.04
X56.768 Y63.997
X56.803 Y64.954
X56.834 Y65.911
X56.861 Y66.869
X56.884 Y67.826
X56.905 Y68.784
X56.922 Y69.741
X56.937 Y70.699
X56.95 Y71.656
X56.961 Y72.614
X56.971 Y73.572
X56.979 Y74.529
X56.985 Y75.487
X56.996 Y77.402
X57.003 Y79.318
X57.008 Y81.233
X57.01 Y83.148
X57.009 Y84.106
X57.008 Y85.064
X57.005 Y86.022
X57. Y86.979
X56.994 Y87.937
X56.985 Y88.895
X56.972 Y89.852
X56.956 Y90.81
X56.935 Y91.767
X56.909 Y92.725
X56.878 Y93.682
X56.839 Y94.639
X56.793 Y95.595
X56.738 Y96.551
X56.673 Y97.507
X56.599 Y98.462
X56.513 Y99.415
X56.416 Y100.368
X56.306 Y101.32
X56.182 Y102.269
X56.045 Y103.217
X55.893 Y104.163
X55.725 Y105.105
X55.541 Y106.045
X55.341 Y106.982
X55.124 Y107.915
X54.89 Y108.843
X54.638 Y109.767
X54.367 Y110.686
X54.078 Y111.599
X53.77 Y112.506
X53.442 Y113.406
X53.095 Y114.298
X52.728 Y115.183
X52.341 Y116.059
X51.933 Y116.925
X51.504 Y117.782
X51.056 Y118.628
X50.587 Y119.463
X50.097 Y120.286
X49.588 Y121.097
X49.058 Y121.895
X48.508 Y122.679
X47.939 Y123.449
X47.349 Y124.204
X46.741 Y124.943
X46.113 Y125.666
X45.465 Y126.372
X44.799 Y127.06
X44.114 Y127.729
X43.409 Y128.378
X42.687 Y129.006
X41.946 Y129.614
X41.189 Y130.2
X40.414 Y130.763
X39.623 Y131.303
X38.817 Y131.819
X37.995 Y132.311
X37.158 Y132.776
X36.306 Y133.213
X35.44 Y133.622
X34.559 Y133.999
X33.665 Y134.343
X32.758 Y134.649
X31.837 Y134.913
X30.905 Y135.13
X29.96 Y135.288
X29.272 Y135.347
X28.743 Y135.35
X28.426 Y135.326
X28.127 Y135.271
X27.848 Y135.152
X27.6 Y134.976
X27.396 Y134.75
X27.246 Y134.486
X27.118 Y134.188
X26.847 Y133.519
X26.686 Y133.1
X26.52 Y132.665
X26.372 Y132.25
G3 X26.62 Y131.563 I0.572 J-0.182
G1 X26.699 Y131.512 Z42.007
X26.776 Y131.463 Z42.029
X26.85 Y131.416 Z42.065
X26.917 Y131.373 Z42.115
X26.978 Y131.334 Z42.176
X27.029 Y131.301 Z42.247
X27.071 Y131.275 Z42.328
X27.101 Y131.255 Z42.415
X27.119 Y131.243 Z42.506
X27.126 Y131.239 Z42.6
G0 Z50.
X24.325 Y25.322
Z43.2
G1 Z42.6 F1800.
X24.324 Y25.315 Z42.506
X24.319 Y25.293 Z42.415
X24.312 Y25.258 Z42.328
X24.302 Y25.21 Z42.247
X24.29 Y25.15 Z42.176
X24.275 Y25.08 Z42.115
X24.259 Y25.001 Z42.065
X24.241 Y24.916 Z42.029
X24.222 Y24.826 Z42.007
X24.203 Y24.735 Z42.
G3 X24.239 Y23.95 I1.549 J-0.323
G1 X24.941 Y21.905
X25.013 Y21.725
X25.113 Y21.525
X25.233 Y21.326
X25.395 Y21.099
X25.584 Y20.876
X25.822 Y20.636
X26.098 Y20.4
X26.435 Y20.156
X26.821 Y19.921
X27.286 Y19.686
X27.804 Y19.476
X28.44 Y19.275
X29.111 Y19.121
X29.906 Y19.004
X30.816 Y18.945
X31.773 Y18.96
X32.727 Y19.046
X33.673 Y19.194
X34.609 Y19.399
X35.532 Y19.654
X36.441 Y19.956
X37.335 Y20.298
X38.214 Y20.679
X39.077 Y21.095
X39.923 Y21.544
X40.752 Y22.023
X41.563 Y22.532
X42.357 Y23.068
X43.132 Y23.63
X43.889 Y24.217
X44.627 Y24.827
X45.345 Y25.461
X46.043 Y26.117
X46.721 Y26.793
X47.38 Y27.488
X48.018 Y28.202
X48.637 Y28.933
X49.236 Y29.68
X49.815 Y30.443
X50.373 Y31.221
X50.912 Y32.013
X51.431 Y32.818
X51.93 Y33.635
X52.409 Y34.464
X52.869 Y35.305
X53.309 Y36.155
X53.729 Y37.016
X54.13 Y37.886
X54.512 Y38.764
X54.874 Y39.65
X55.218 Y40.544
X55.544 Y41.445
X55.851 Y42.352
X56.141 Y43.265
X56.415 Y44.182
X56.671 Y45.105
X56.912 Y46.032
X57.137 Y46.963
X57.346 Y47.897
X57.542 Y48.835
X57.723 Y49.775
X57.89 Y50.718
X58.045 Y51.663
X58.188 Y52.611
X58.318 Y53.559
X58.438 Y54.509
X58.547 Y55.461
X58.646 Y56.413
X58.736 Y57.367
X58.817 Y58.321
X58.89 Y59.276
X58.956 Y60.232
X59.014 Y61.187
X59.066 Y62.144
X59.113 Y63.1
X59.154 Y64.057
X59.19 Y65.014
X59.222 Y65.971
X59.25 Y66.929
X59.274 Y67.886
X59.295 Y68.843
X59.314 Y69.801
X59.33 Y70.759
X59.343 Y71.716
X59.355 Y72.674
X59.365 Y73.631
X59.374 Y74.589
X59.381 Y75.547
X59.393 Y77.462
X59.401 Y79.377
X59.405 Y81.293
X59.407 Y83.208
X59.406 Y84.166
X59.404 Y85.124
X59.4 Y86.081
X59.395 Y87.039
X59.387 Y87.997
X59.376 Y88.954
X59.362 Y89.912
X59.344 Y90.869
X59.321 Y91.827
X59.293 Y92.784
X59.26 Y93.741
X59.219 Y94.698
X59.17 Y95.655
X59.114 Y96.611
X59.048 Y97.566
X58.972 Y98.521
X58.886 Y99.474
X58.788 Y100.427
X58.678 Y101.379
X58.556 Y102.328
X58.42 Y103.276
X58.271 Y104.222
X58.106 Y105.166
X57.927 Y106.107
X57.733 Y107.044
X57.522 Y107.979
X57.295 Y108.909
X57.052 Y109.835
X56.791 Y110.757
X56.513 Y111.673
X56.217 Y112.584
X55.903 Y113.489
X55.571 Y114.387
X55.22 Y115.278
X54.85 Y116.162
X54.461 Y117.037
X54.052 Y117.903
X53.625 Y118.76
X53.177 Y119.607
X52.711 Y120.443
X52.226 Y121.269
X51.721 Y122.083
X51.198 Y122.885
X50.656 Y123.674
X50.095 Y124.45
X49.515 Y125.213
X48.918 Y125.961
X48.301 Y126.694
X47.667 Y127.412
X47.015 Y128.113
X46.345 Y128.798
X45.657 Y129.464
X44.952 Y130.112
X44.229 Y130.74
X43.489 Y131.349
X42.734 Y131.937
X41.962 Y132.504
X41.176 Y133.05
X40.374 Y133.574
X39.557 Y134.075
X38.727 Y134.552
X37.882 Y135.003
X37.024 Y135.428
X36.153 Y135.826
X35.268 Y136.193
X34.371 Y136.527
X33.46 Y136.824
X32.538 Y137.081
X31.603 Y137.292
X30.705 Y137.436
X30.027 Y137.49
X29.506 Y137.489
X29.348 Y137.476
X29.051 Y137.419
X28.774 Y137.3
X28.529 Y137.124
X28.327 Y136.899
X28.178 Y136.637
X27.246 Y134.486
G3 X27.449 Y133.784 I0.559 J-0.219
G1 X27.524 Y133.729 Z42.007
X27.598 Y133.674 Z42.029
X27.668 Y133.623 Z42.065
X27.733 Y133.575 Z42.115
X27.79 Y133.533 Z42.176
X27.84 Y133.496 Z42.247
X27.879 Y133.467 Z42.328
X27.908 Y133.446 Z42.415
X27.926 Y133.433 Z42.506
X27.932 Y133.428 Z42.6
G0 Z50.
X26.681 Y145.223
Z43.2
G1 Z42.6 F1800.
X26.685 Y145.217 Z42.506
X26.698 Y145.199 Z42.415
X26.72 Y145.17 Z42.328
X26.749 Y145.13 Z42.247
X26.785 Y145.081 Z42.176
X26.827 Y145.023 Z42.115
X26.874 Y144.958 Z42.065
X26.926 Y144.888 Z42.029
X26.98 Y144.814 Z42.007
X27.035 Y144.738 Z42.
G3 X27.641 Y144.239 I1.278 J0.933
G1 X28.23 Y143.987
X28.586 Y143.745
X28.804 Y143.587
X28.845 Y143.545
X29.239 Y143.101
X29.393 Y142.892
X29.456 Y142.79
X29.622 Y142.457
X29.673 Y142.303
X29.822 Y141.818
X29.882 Y141.219
X29.883 Y141.206
X29.829 Y140.607
X29.827 Y140.594
X29.673 Y140.055
X29.594 Y139.846
X29.399 Y139.41
X29.3 Y139.193
X29.01 Y138.54
X28.721 Y137.887
X28.209 Y136.71
X28.178 Y136.637
G3 X28.38 Y135.935 I0.559 J-0.219
G1 X28.456 Y135.879 Z42.007
X28.529 Y135.825 Z42.029
X28.599 Y135.773 Z42.065
X28.664 Y135.726 Z42.115
X28.721 Y135.683 Z42.176
X28.771 Y135.647 Z42.247
X28.81 Y135.618 Z42.328
X28.839 Y135.596 Z42.415
X28.857 Y135.583 Z42.506
X28.863 Y135.579 Z42.6
G0 Z50.
X25.028 Y23.277
Z43.2
G1 Z42.6 F1800.
X25.027 Y23.27 Z42.506
X25.022 Y23.248 Z42.415
X25.015 Y23.213 Z42.328
X25.005 Y23.165 Z42.247
X24.992 Y23.105 Z42.176
X24.978 Y23.035 Z42.115
X24.961 Y22.956 Z42.065
X24.944 Y22.871 Z42.029
X24.925 Y22.781 Z42.007
X24.906 Y22.69 Z42.
G3 X24.941 Y21.905 I1.549 J-0.323
G1 X25.614 Y19.947
X25.726 Y19.668
X25.825 Y19.467
X25.945 Y19.268
X26.108 Y19.042
X26.297 Y18.818
X26.536 Y18.578
X26.814 Y18.34
X27.151 Y18.095
X27.542 Y17.857
X28.008 Y17.623
X28.536 Y17.408
X29.176 Y17.205
X29.858 Y17.049
X30.669 Y16.93
X31.599 Y16.869
X32.557 Y16.884
X33.511 Y16.968
X34.457 Y17.112
X35.394 Y17.31
X36.32 Y17.557
X37.232 Y17.849
X38.13 Y18.181
X39.014 Y18.549
X39.883 Y18.952
X40.737 Y19.386
X41.574 Y19.851
X42.396 Y20.343
X43.201 Y20.861
X43.989 Y21.405
X44.76 Y21.974
X45.514 Y22.565
X46.249 Y23.178
X46.966 Y23.813
X47.665 Y24.468
X48.345 Y25.142
X49.006 Y25.835
X49.649 Y26.545
X50.272 Y27.272
X50.877 Y28.014
X51.464 Y28.772
X52.031 Y29.543
X52.58 Y30.328
X53.11 Y31.126
X53.621 Y31.935
X54.114 Y32.757
X54.588 Y33.589
X55.043 Y34.431
X55.48 Y35.284
X55.898 Y36.145
X56.298 Y37.015
X56.68 Y37.894
X57.043 Y38.78
X57.389 Y39.673
X57.717 Y40.573
X58.028 Y41.478
X58.323 Y42.39
X58.601 Y43.306
X58.863 Y44.227
X59.11 Y45.153
X59.341 Y46.082
X59.558 Y47.015
X59.761 Y47.951
X59.95 Y48.889
X60.126 Y49.831
X60.289 Y50.775
X60.44 Y51.72
X60.579 Y52.668
X60.708 Y53.617
X60.825 Y54.567
X60.933 Y55.519
X61.031 Y56.472
X61.12 Y57.425
X61.201 Y58.379
X61.274 Y59.334
X61.339 Y60.29
X61.398 Y61.246
X61.451 Y62.202
X61.498 Y63.158
X61.54 Y64.115
X61.577 Y65.072
X61.61 Y66.029
X61.639 Y66.987
X61.664 Y67.944
X61.686 Y68.901
X61.705 Y69.859
X61.722 Y70.817
X61.736 Y71.774
X61.749 Y72.732
X61.76 Y73.689
X61.769 Y74.647
X61.777 Y75.605
X61.784 Y76.562
X61.794 Y78.478
X61.801 Y80.393
X61.804 Y82.308
Y83.266
X61.802 Y84.224
X61.8 Y85.182
X61.795 Y86.139
X61.788 Y87.097
X61.779 Y88.055
X61.767 Y89.012
X61.751 Y89.97
X61.732 Y90.927
X61.707 Y91.885
X61.677 Y92.842
X61.641 Y93.799
X61.599 Y94.756
X61.549 Y95.712
X61.49 Y96.668
X61.423 Y97.623
X61.346 Y98.578
X61.26 Y99.532
X61.162 Y100.484
X61.053 Y101.436
X60.931 Y102.386
X60.797 Y103.334
X60.65 Y104.28
X60.489 Y105.224
X60.314 Y106.166
X60.125 Y107.105
X59.92 Y108.04
X59.7 Y108.972
X59.464 Y109.901
X59.213 Y110.825
X58.945 Y111.744
X58.66 Y112.658
X58.358 Y113.567
X58.039 Y114.47
X57.702 Y115.367
X57.348 Y116.257
X56.976 Y117.139
X56.585 Y118.014
X56.176 Y118.88
X55.749 Y119.737
X55.303 Y120.584
X54.84 Y121.422
X54.358 Y122.25
X53.858 Y123.067
X53.341 Y123.873
X52.805 Y124.667
X52.252 Y125.449
X51.681 Y126.218
X51.093 Y126.974
X50.488 Y127.716
X49.866 Y128.444
X49.226 Y129.157
X48.57 Y129.854
X47.897 Y130.535
X47.207 Y131.199
X46.5 Y131.846
X45.777 Y132.474
X45.039 Y133.084
X44.285 Y133.675
X43.517 Y134.246
X42.733 Y134.797
X41.936 Y135.328
X41.125 Y135.837
X40.3 Y136.324
X39.462 Y136.787
X38.611 Y137.227
X38.395 Y137.331
X38.179 Y137.432
X37.309 Y137.834
X36.427 Y138.207
X35.533 Y138.549
X35.306 Y138.626
X35.195 Y138.672
G3 X34.498 Y138.455 I-0.208 J-0.563
G1 X34.443 Y138.378 Z42.007
X34.391 Y138.304 Z42.029
X34.34 Y138.233 Z42.065
X34.294 Y138.167 Z42.115
X34.253 Y138.109 Z42.176
X34.217 Y138.059 Z42.247
X34.189 Y138.019 Z42.328
X34.168 Y137.989 Z42.415
X34.155 Y137.971 Z42.506
X34.151 Y137.965 Z42.6
G0 Z50.
X25.701 Y21.318
Z43.2
G1 Z42.6 F1800.
X25.699 Y21.311 Z42.506
X25.695 Y21.29 Z42.415
X25.688 Y21.254 Z42.328
X25.678 Y21.206 Z42.247
X25.665 Y21.146 Z42.176
X25.651 Y21.076 Z42.115
X25.634 Y20.998 Z42.065
X25.616 Y20.913 Z42.029
X25.598 Y20.823 Z42.007
X25.579 Y20.731 Z42.
G3 X25.614 Y19.947 I1.549 J-0.323
G1 X26.287 Y17.988
X26.365 Y17.77
X26.442 Y17.584
X26.546 Y17.381
X26.67 Y17.179
X26.84 Y16.948
X27.035 Y16.723
X27.283 Y16.479
X27.569 Y16.24
X27.918 Y15.992
X28.32 Y15.754
X28.804 Y15.517
X29.346 Y15.303
X30.008 Y15.102
X30.719 Y14.947
X31.555 Y14.835
X32.512 Y14.783
X33.469 Y14.808
X34.423 Y14.898
X35.369 Y15.046
X36.305 Y15.245
X37.231 Y15.491
X38.145 Y15.778
X39.045 Y16.104
X39.932 Y16.466
X40.804 Y16.861
X41.662 Y17.287
X42.506 Y17.741
X43.334 Y18.222
X44.146 Y18.728
X44.943 Y19.259
X45.724 Y19.814
X46.489 Y20.39
X47.237 Y20.988
X47.968 Y21.607
X48.682 Y22.245
X49.379 Y22.902
X50.059 Y23.577
X50.72 Y24.269
X51.364 Y24.978
X51.99 Y25.703
X52.598 Y26.443
X53.189 Y27.197
X53.762 Y27.964
X54.317 Y28.745
X54.854 Y29.537
X55.374 Y30.342
X55.876 Y31.157
X56.361 Y31.983
X56.827 Y32.82
X57.276 Y33.666
X57.708 Y34.52
X58.122 Y35.384
X58.519 Y36.256
X58.898 Y37.135
X59.26 Y38.022
X59.606 Y38.915
X59.934 Y39.814
X60.247 Y40.72
X60.543 Y41.63
X60.824 Y42.546
X61.089 Y43.466
X61.339 Y44.391
X61.575 Y45.319
X61.797 Y46.251
X62.005 Y47.185
X62.199 Y48.123
X62.381 Y49.063
X62.551 Y50.006
X62.708 Y50.951
X62.854 Y51.897
X62.989 Y52.845
X63.113 Y53.795
X63.227 Y54.746
X63.332 Y55.698
X63.428 Y56.651
X63.515 Y57.604
X63.595 Y58.559
X63.667 Y59.514
X63.732 Y60.469
X63.79 Y61.425
X63.843 Y62.381
X63.89 Y63.338
X63.932 Y64.295
X63.969 Y65.252
X64.002 Y66.209
X64.031 Y67.166
X64.057 Y68.123
X64.079 Y69.081
X64.099 Y70.038
X64.116 Y70.996
X64.131 Y71.953
X64.144 Y72.911
X64.156 Y73.869
X64.165 Y74.826
X64.173 Y75.784
X64.18 Y76.742
X64.186 Y77.699
X64.191 Y78.657
X64.195 Y79.615
X64.198 Y80.572
X64.2 Y81.53
Y82.488
Y83.445
X64.198 Y84.403
X64.194 Y85.361
X64.188 Y86.319
X64.18 Y87.276
X64.169 Y88.234
X64.155 Y89.191
X64.137 Y90.149
X64.115 Y91.106
X64.088 Y92.064
X64.056 Y93.021
X64.018 Y93.978
X63.973 Y94.934
X63.92 Y95.891
X63.859 Y96.846
X63.79 Y97.802
X63.712 Y98.756
X63.623 Y99.71
X63.524 Y100.662
X63.414 Y101.614
X63.292 Y102.564
X63.159 Y103.512
X63.012 Y104.458
X62.853 Y105.403
X62.68 Y106.345
X62.493 Y107.284
X62.292 Y108.22
X62.076 Y109.153
X61.846 Y110.083
X61.6 Y111.009
X61.339 Y111.93
X61.062 Y112.847
X60.769 Y113.758
X60.459 Y114.665
X60.134 Y115.565
X59.791 Y116.46
X59.432 Y117.347
X59.055 Y118.228
X58.661 Y119.101
X58.25 Y119.966
X57.821 Y120.822
X57.375 Y121.67
X56.912 Y122.508
X56.432 Y123.336
X55.934 Y124.155
X55.419 Y124.962
X54.888 Y125.759
X54.34 Y126.544
X53.775 Y127.318
X53.193 Y128.079
X52.596 Y128.827
X51.981 Y129.562
X51.351 Y130.283
X50.705 Y130.99
X50.043 Y131.682
X49.365 Y132.358
X48.671 Y133.018
X47.962 Y133.662
X47.238 Y134.289
X46.499 Y134.898
X45.745 Y135.488
X44.977 Y136.061
X44.195 Y136.614
X43.4 Y137.148
X43.198 Y137.277
X42.995 Y137.404
X42.182 Y137.909
X41.356 Y138.393
X41.145 Y138.508
G3 X40.428 Y138.368 I-0.267 J-0.537
G1 X40.366 Y138.298 Z42.007
X40.306 Y138.229 Z42.029
X40.248 Y138.164 Z42.065
X40.195 Y138.104 Z42.115
X40.147 Y138.05 Z42.176
X40.107 Y138.004 Z42.247
X40.074 Y137.967 Z42.328
X40.05 Y137.94 Z42.415
X40.036 Y137.924 Z42.506
X40.031 Y137.918 Z42.6
G0 Z50.
X26.436 Y19.143
Z43.2
G1 Z42.6 F1800.
X26.435 Y19.136 Z42.506
X26.43 Y19.115 Z42.415
X26.423 Y19.079 Z42.328
X26.414 Y19.031 Z42.247
X26.402 Y18.971 Z42.176
X26.388 Y18.901 Z42.115
X26.373 Y18.822 Z42.065
X26.356 Y18.737 Z42.029
X26.338 Y18.647 Z42.007
X26.32 Y18.555 Z42.
G3 X26.365 Y17.77 I1.553 J-0.305
G1 X26.52 Y17.335
X26.769 Y16.682
X26.854 Y16.465
X27.118 Y15.812
X27.211 Y15.594
X27.353 Y15.306
X27.47 Y15.111
X27.626 Y14.891
X27.817 Y14.665
X28.046 Y14.432
X28.33 Y14.188
X28.653 Y13.952
X29.057 Y13.704
X29.502 Y13.478
X30.052 Y13.253
X30.665 Y13.056
X31.373 Y12.891
X32.207 Y12.766
X33.162 Y12.701
X34.12 Y12.713
X35.075 Y12.79
X36.023 Y12.925
X36.962 Y13.112
X37.891 Y13.345
X38.808 Y13.619
X39.714 Y13.932
X40.606 Y14.279
X41.486 Y14.658
X42.352 Y15.067
X43.204 Y15.504
X44.042 Y15.968
X44.865 Y16.457
X45.674 Y16.969
X46.468 Y17.505
X47.247 Y18.062
X48.011 Y18.64
X48.759 Y19.238
X49.49 Y19.856
X50.206 Y20.493
X50.905 Y21.147
X51.588 Y21.819
X52.254 Y22.507
X52.903 Y23.211
X53.536 Y23.93
X54.152 Y24.663
X54.751 Y25.41
X55.334 Y26.17
X55.899 Y26.943
X56.448 Y27.728
X56.98 Y28.524
X57.496 Y29.331
X57.994 Y30.149
X58.476 Y30.977
X58.941 Y31.814
X59.39 Y32.66
X59.821 Y33.515
X60.236 Y34.378
X60.634 Y35.249
X61.015 Y36.128
X61.38 Y37.013
X61.729 Y37.905
X62.063 Y38.803
X62.38 Y39.706
X62.682 Y40.615
X62.969 Y41.529
X63.242 Y42.447
X63.499 Y43.369
X63.743 Y44.296
X63.973 Y45.225
X64.19 Y46.158
X64.393 Y47.094
X64.584 Y48.032
X64.762 Y48.973
X64.929 Y49.916
X65.084 Y50.861
X65.229 Y51.808
X65.362 Y52.757
X65.486 Y53.706
X65.6 Y54.657
X65.705 Y55.609
X65.801 Y56.562
X65.889 Y57.516
X65.969 Y58.47
X66.042 Y59.425
X66.108 Y60.38
X66.168 Y61.336
X66.221 Y62.292
X66.27 Y63.249
X66.313 Y64.206
X66.351 Y65.162
X66.386 Y66.12
X66.416 Y67.077
X66.443 Y68.034
X66.467 Y68.991
X66.488 Y69.949
X66.506 Y70.906
X66.522 Y71.864
X66.536 Y72.822
X66.548 Y73.779
X66.559 Y74.737
X66.568 Y75.695
X66.575 Y76.652
X66.582 Y77.61
X66.587 Y78.568
X66.591 Y79.525
X66.594 Y80.483
X66.596 Y81.441
Y82.398
Y83.356
X66.593 Y84.314
X66.589 Y85.271
X66.583 Y86.229
X66.574 Y87.187
X66.562 Y88.144
X66.547 Y89.102
X66.529 Y90.059
X66.506 Y91.017
X66.478 Y91.974
X66.445 Y92.931
X66.406 Y93.888
X66.36 Y94.845
X66.307 Y95.801
X66.247 Y96.757
X66.178 Y97.712
X66.1 Y98.667
X66.013 Y99.62
X65.916 Y100.573
X65.808 Y101.525
X65.689 Y102.475
X65.559 Y103.424
X65.417 Y104.371
X65.262 Y105.316
X65.095 Y106.259
X64.915 Y107.2
X64.721 Y108.137
X64.513 Y109.072
X64.292 Y110.004
X64.056 Y110.932
X63.805 Y111.857
X63.54 Y112.777
X63.259 Y113.692
X62.963 Y114.603
X62.652 Y115.509
X62.325 Y116.409
X61.981 Y117.303
X61.621 Y118.19
X61.245 Y119.071
X60.853 Y119.945
X60.444 Y120.811
X60.018 Y121.669
X59.576 Y122.518
X59.118 Y123.359
X58.643 Y124.191
X58.152 Y125.013
X57.645 Y125.826
X57.122 Y126.628
X56.583 Y127.419
X56.028 Y128.2
X55.457 Y128.969
X54.871 Y129.726
X54.269 Y130.471
X53.651 Y131.203
X53.019 Y131.922
X52.371 Y132.628
X51.708 Y133.318
X51.03 Y133.995
X50.336 Y134.655
X49.629 Y135.301
X48.907 Y135.93
X48.171 Y136.543
X47.421 Y137.138
X47.134 Y137.355
X46.27 Y137.998
X45.976 Y138.204
X45.877 Y138.272
G3 X45.149 Y138.212 I-0.325 J-0.505
G1 X45.08 Y138.149 Z42.007
X45.012 Y138.087 Z42.029
X44.948 Y138.029 Z42.065
X44.888 Y137.975 Z42.115
X44.835 Y137.926 Z42.176
X44.79 Y137.885 Z42.247
X44.754 Y137.852 Z42.328
X44.727 Y137.828 Z42.415
X44.711 Y137.813 Z42.506
X44.705 Y137.808 Z42.6
G0 Z50.
X27.196 Y16.969
Z43.2
G1 Z42.6 F1800.
X27.195 Y16.962 Z42.506
X27.192 Y16.94 Z42.415
X27.188 Y16.904 Z42.328
X27.181 Y16.856 Z42.247
X27.173 Y16.795 Z42.176
X27.164 Y16.724 Z42.115
X27.153 Y16.644 Z42.065
X27.142 Y16.558 Z42.029
X27.13 Y16.467 Z42.007
X27.118 Y16.374 Z42.
G3 X27.211 Y15.594 I1.569 J-0.207
G1 X28.152 Y13.423
X28.269 Y13.185
X28.337 Y13.051
X28.412 Y12.921
X28.493 Y12.795
X28.58 Y12.673
X28.673 Y12.556
X28.772 Y12.442
X28.874 Y12.333
X28.981 Y12.227
X29.091 Y12.125
X29.205 Y12.028
X29.322 Y11.934
X29.442 Y11.844
X29.565 Y11.758
X29.69 Y11.675
X29.817 Y11.595
X29.946 Y11.52
X30.078 Y11.447
X30.211 Y11.378
X30.346 Y11.312
X30.482 Y11.249
X30.619 Y11.189
X30.758 Y11.132
X30.898 Y11.078
X31.039 Y11.027
X31.181 Y10.979
X31.324 Y10.933
X31.467 Y10.89
X31.612 Y10.85
X31.757 Y10.812
X31.903 Y10.776
X32.049 Y10.744
X32.196 Y10.713
X32.343 Y10.685
X32.491 Y10.659
X32.639 Y10.635
X32.788 Y10.613
X32.936 Y10.594
X33.085 Y10.577
X33.235 Y10.561
X33.384 Y10.548
X33.533 Y10.536
X33.683 Y10.527
X33.833 Y10.519
X33.983 Y10.513
X34.133 Y10.509
X34.283 Y10.507
X34.433 Y10.506
X34.583 Y10.507
X34.733 Y10.51
X34.883 Y10.514
X35.033 Y10.52
X35.182 Y10.527
X35.332 Y10.536
X35.482 Y10.547
X35.631 Y10.559
X35.781 Y10.572
X35.93 Y10.586
X36.079 Y10.602
X36.228 Y10.62
X36.377 Y10.639
X36.526 Y10.659
X36.674 Y10.68
X36.822 Y10.703
X36.97 Y10.726
X37.118 Y10.752
X37.266 Y10.778
X37.413 Y10.805
X37.563 Y10.835
X37.72 Y10.866
X37.867 Y10.897
X38.013 Y10.929
X38.16 Y10.962
X38.308 Y10.997
X38.464 Y11.035
X38.629 Y11.076
X38.795 Y11.119
X38.94 Y11.158
X39.087 Y11.198
X39.243 Y11.242
X39.407 Y11.29
X39.582 Y11.342
X39.765 Y11.398
X39.916 Y11.445
X40.073 Y11.496
X40.239 Y11.551
X40.415 Y11.61
X40.603 Y11.676
X40.791 Y11.742
X40.951 Y11.8
X41.12 Y11.863
X41.301 Y11.932
X41.494 Y12.007
X41.699 Y12.088
X41.869 Y12.157
X42.044 Y12.23
X42.232 Y12.309
X42.432 Y12.395
X42.647 Y12.49
X42.824 Y12.569
X43.008 Y12.653
X43.204 Y12.745
X43.416 Y12.845
X43.632 Y12.95
X43.813 Y13.039
X44.007 Y13.137
X44.216 Y13.244
X44.443 Y13.362
X44.641 Y13.467
X44.834 Y13.571
X45.042 Y13.686
X45.268 Y13.812
X45.486 Y13.936
X45.679 Y14.048
X45.888 Y14.171
X46.115 Y14.306
X46.343 Y14.445
X46.538 Y14.565
X46.748 Y14.697
X46.977 Y14.844
X47.208 Y14.994
X47.404 Y15.123
X47.616 Y15.265
X47.848 Y15.423
X48.076 Y15.581
X48.274 Y15.72
X48.49 Y15.874
X48.725 Y16.045
X48.944 Y16.205
X49.146 Y16.357
X49.367 Y16.524
X49.609 Y16.711
X49.812 Y16.87
X50.02 Y17.035
X50.247 Y17.218
X50.484 Y17.411
X50.681 Y17.575
X50.895 Y17.756
X51.132 Y17.958
X51.346 Y18.144
X51.55 Y18.324
X51.774 Y18.525
X52.012 Y18.741
X52.207 Y18.921
X52.421 Y19.121
X52.657 Y19.345
X52.865 Y19.545
X53.071 Y19.746
X53.297 Y19.97
X53.521 Y20.196
X53.719 Y20.398
X53.937 Y20.624
X54.173 Y20.872
X54.365 Y21.077
X54.576 Y21.306
X54.811 Y21.563
X55.007 Y21.782
X55.212 Y22.015
X55.44 Y22.276
X55.643 Y22.513
X55.844 Y22.75
X56.066 Y23.018
X56.272 Y23.269
X56.469 Y23.512
X56.687 Y23.786
X56.893 Y24.05
X57.086 Y24.3
X57.301 Y24.582
X57.505 Y24.854
X57.696 Y25.113
X57.908 Y25.405
X58.107 Y25.683
X58.296 Y25.952
X58.506 Y26.255
X58.698 Y26.537
X58.886 Y26.816
X59.095 Y27.133
X59.278 Y27.414
X59.465 Y27.706
X59.675 Y28.038
X59.846 Y28.316
X60.033 Y28.622
X60.234 Y28.958
X60.402 Y29.242
X60.589 Y29.565
X60.777 Y29.894
X60.945 Y30.194
X61.133 Y30.535
X61.306 Y30.854
X61.474 Y31.172
X61.664 Y31.535
X61.821 Y31.84
X61.992 Y32.179
X62.169 Y32.539
X62.325 Y32.859
X62.499 Y33.224
X62.659 Y33.567
X62.818 Y33.913
X62.992 Y34.3
X63.138 Y34.63
X63.301 Y35.007
X63.457 Y35.375
X63.607 Y35.736
X63.772 Y36.144
X63.911 Y36.492
X64.067 Y36.893
X64.212 Y37.275
X64.357 Y37.663
X64.509 Y38.081
X64.645 Y38.461
X64.892 Y39.386
X65.399 Y41.233
X65.647 Y42.158
X65.888 Y43.085
X66.119 Y44.015
X66.34 Y44.946
X66.551 Y45.881
X66.75 Y46.818
X66.937 Y47.757
X67.114 Y48.698
X67.28 Y49.641
X67.435 Y50.586
X67.579 Y51.533
X67.713 Y52.481
X67.838 Y53.431
X67.953 Y54.382
X68.06 Y55.333
X68.157 Y56.286
X68.247 Y57.239
X68.329 Y58.194
X68.404 Y59.148
X68.472 Y60.104
X68.534 Y61.059
X68.59 Y62.015
X68.641 Y62.972
X68.686 Y63.928
X68.727 Y64.885
X68.763 Y65.842
X68.795 Y66.799
X68.824 Y67.757
X68.85 Y68.714
X68.872 Y69.671
X68.892 Y70.629
X68.91 Y71.586
X68.925 Y72.544
X68.938 Y73.502
X68.95 Y74.459
X68.96 Y75.417
X68.968 Y76.375
X68.975 Y77.332
X68.981 Y78.29
X68.986 Y79.248
X68.989 Y80.205
X68.991 Y81.163
X68.992 Y82.121
X68.991 Y83.078
X68.989 Y84.036
X68.985 Y84.994
X68.978 Y85.951
X68.969 Y86.909
X68.958 Y87.867
X68.943 Y88.824
X68.924 Y89.782
X68.901 Y90.739
X68.873 Y91.697
X68.841 Y92.654
X68.802 Y93.611
X68.758 Y94.567
X68.706 Y95.524
X68.647 Y96.479
X68.58 Y97.435
X68.505 Y98.39
X68.421 Y99.344
X68.328 Y100.297
X68.224 Y101.249
X68.11 Y102.2
X67.986 Y103.149
X67.85 Y104.097
X67.702 Y105.043
X67.543 Y105.988
X67.371 Y106.93
X67.186 Y107.87
X66.989 Y108.807
X66.778 Y109.741
X66.554 Y110.672
X66.316 Y111.6
X66.064 Y112.524
X65.797 Y113.444
X65.516 Y114.359
X65.22 Y115.27
X64.909 Y116.176
X64.583 Y117.076
X64.241 Y117.971
X63.884 Y118.859
X63.512 Y119.742
X63.124 Y120.617
X62.72 Y121.486
X62.3 Y122.347
X61.865 Y123.2
X61.415 Y124.045
X60.949 Y124.881
X60.467 Y125.709
X59.97 Y126.528
X59.457 Y127.337
X58.93 Y128.136
X58.387 Y128.925
X57.829 Y129.703
X57.256 Y130.471
X56.668 Y131.227
X56.065 Y131.971
X55.448 Y132.703
X54.815 Y133.422
X54.168 Y134.129
X53.507 Y134.821
X52.831 Y135.5
X52.629 Y135.724
X52.514 Y135.849
X52.398 Y135.974
X52.274 Y136.105
X52.14 Y136.244
X51.996 Y136.392
X51.85 Y136.539
X51.714 Y136.675
X51.567 Y136.819
X51.408 Y136.972
X51.235 Y137.138
X51.072 Y137.29
X50.913 Y137.437
X50.751 Y137.585
X50.578 Y137.74
X50.389 Y137.908
X50.18 Y138.09
X50.089 Y138.168
G3 X49.359 Y138.183 I-0.375 J-0.468
G1 X49.283 Y138.127 Z42.007
X49.209 Y138.073 Z42.029
X49.139 Y138.022 Z42.065
X49.075 Y137.974 Z42.115
X49.017 Y137.932 Z42.176
X48.968 Y137.896 Z42.247
X48.928 Y137.866 Z42.328
X48.899 Y137.845 Z42.415
X48.881 Y137.832 Z42.506
X48.875 Y137.828 Z42.6
G0 Z50.
X28.132 Y14.798
Z43.2
G1 Z42.6 F1800.
X28.131 Y14.79 Z42.506
X28.128 Y14.769 Z42.415
X28.123 Y14.733 Z42.328
X28.117 Y14.684 Z42.247
X28.109 Y14.624 Z42.176
X28.1 Y14.553 Z42.115
X28.09 Y14.473 Z42.065
X28.079 Y14.387 Z42.029
X28.067 Y14.296 Z42.007
X28.055 Y14.203 Z42.
G3 X28.152 Y13.423 I1.57 J-0.201
G1 X28.626 Y12.33
X28.804 Y11.926
X29.107 Y11.242
X29.3 Y10.807
X29.497 Y10.372
X29.594 Y10.154
X29.673 Y9.945
X29.827 Y9.406
X29.829 Y9.393
X29.883 Y8.794
X29.881 Y8.767
X29.822 Y8.182
X29.723 Y7.859
G3 X30.003 Y7.184 I0.58 J-0.155
G1 X30.084 Y7.137 Z42.007
X30.163 Y7.091 Z42.029
X30.238 Y7.048 Z42.065
X30.308 Y7.008 Z42.115
X30.37 Y6.972 Z42.176
X30.423 Y6.941 Z42.247
X30.466 Y6.917 Z42.328
X30.497 Y6.899 Z42.415
X30.516 Y6.888 Z42.506
X30.522 Y6.884 Z42.6
G0 Z50.
X93.319 Y4.777
Z43.2
G1 Z42.6 F1800.
X93.315 Y4.783 Z42.506
X93.302 Y4.801 Z42.415
X93.28 Y4.83 Z42.328
X93.251 Y4.87 Z42.247
X93.215 Y4.919 Z42.176
X93.173 Y4.977 Z42.115
X93.126 Y5.042 Z42.065
X93.074 Y5.112 Z42.029
X93.02 Y5.186 Z42.007
X92.965 Y5.262 Z42.
G3 X92.359 Y5.761 I-1.278 J-0.933
G1 X91.77 Y6.013
X91.414 Y6.255
X91.196 Y6.413
X91.155 Y6.455
X90.769 Y6.89
X90.599 Y7.064
X90.394 Y7.242
X90.131 Y7.435
X89.799 Y7.641
X89.379 Y7.856
X88.838 Y8.081
X88.118 Y8.314
X87.187 Y8.535
X86.241 Y8.687
X85.289 Y8.791
X84.334 Y8.863
X83.377 Y8.912
X82.42 Y8.946
X81.463 Y8.97
X80.505 Y8.986
X79.548 Y8.998
X78.59 Y9.006
X77.632 Y9.011
X76.675 Y9.015
X74.759 Y9.019
X71.886 Y9.022
X62.309 Y9.023
X46.507
G3 X45.944 Y8.558 I0.021 J-0.6
G1 X45.923 Y8.467 Z42.007
X45.902 Y8.378 Z42.029
X45.882 Y8.293 Z42.065
X45.864 Y8.215 Z42.115
X45.848 Y8.145 Z42.176
X45.834 Y8.085 Z42.247
X45.823 Y8.037 Z42.328
X45.815 Y8.002 Z42.415
X45.81 Y7.981 Z42.506
X45.809 Y7.974 Z42.6
G0 Z50.
X91.216 Y5.59
Z43.2
G1 Z42.6 F1800.
X91.214 Y5.598 Z42.506
X91.21 Y5.619 Z42.415
X91.204 Y5.655 Z42.328
X91.194 Y5.703 Z42.247
X91.183 Y5.763 Z42.176
X91.169 Y5.833 Z42.115
X91.154 Y5.912 Z42.065
X91.138 Y5.998 Z42.029
X91.121 Y6.087 Z42.007
X91.103 Y6.18 Z42.
G3 X90.769 Y6.89 I-1.554 J-0.297
G1 X90.761 Y6.899
X90.607 Y7.108
X90.544 Y7.21
X90.378 Y7.543
X90.327 Y7.697
X90.241 Y7.978
X90.19 Y8.119
X90.109 Y8.288
X90.003 Y8.472
X89.874 Y8.658
X89.701 Y8.869
X89.481 Y9.098
X89.229 Y9.321
X88.899 Y9.568
X88.512 Y9.813
X88.012 Y10.076
X87.404 Y10.335
X86.605 Y10.602
X85.675 Y10.832
X84.732 Y10.997
X83.781 Y11.117
X82.828 Y11.204
X81.872 Y11.266
X80.915 Y11.311
X79.958 Y11.343
X79.001 Y11.366
X78.043 Y11.382
X77.086 Y11.394
X76.128 Y11.402
X75.17 Y11.408
X74.213 Y11.413
X72.297 Y11.418
X69.424 Y11.421
X62.72 Y11.423
X50.988
G3 X50.425 Y10.958 I0.021 J-0.6
G1 X50.404 Y10.867 Z42.007
X50.383 Y10.778 Z42.029
X50.363 Y10.693 Z42.065
X50.345 Y10.615 Z42.115
X50.329 Y10.545 Z42.176
X50.316 Y10.485 Z42.247
X50.304 Y10.437 Z42.328
X50.296 Y10.402 Z42.415
X50.291 Y10.381 Z42.506
X50.29 Y10.374 Z42.6
G0 Z50.
X90.107 Y6.61
Z43.2
G1 Z42.6 F1800.
X90.108 Y6.617 Z42.506
X90.114 Y6.639 Z42.415
X90.122 Y6.674 Z42.328
X90.134 Y6.722 Z42.247
X90.148 Y6.781 Z42.176
X90.165 Y6.85 Z42.115
X90.184 Y6.928 Z42.065
X90.205 Y7.013 Z42.029
X90.227 Y7.102 Z42.007
X90.249 Y7.193 Z42.
G3 X90.241 Y7.978 I-1.537 J0.376
G1 X90.178 Y8.182
X90.118 Y8.781
X90.117 Y8.794
X90.133 Y8.968
X90.139 Y9.118
X90.138 Y9.268
X90.125 Y9.418
X90.099 Y9.566
X90.064 Y9.711
X90.018 Y9.854
X89.965 Y9.995
X89.904 Y10.132
X89.837 Y10.265
X89.762 Y10.396
X89.683 Y10.523
X89.598 Y10.647
X89.508 Y10.767
X89.414 Y10.883
X89.315 Y10.997
X89.213 Y11.107
X89.108 Y11.213
X88.999 Y11.317
X88.888 Y11.417
X88.773 Y11.513
X88.656 Y11.607
X88.536 Y11.698
X88.415 Y11.786
X88.291 Y11.871
X88.166 Y11.953
X88.038 Y12.032
X87.909 Y12.108
X87.779 Y12.182
X87.647 Y12.254
X87.513 Y12.323
X87.379 Y12.389
X87.243 Y12.453
X87.107 Y12.515
X86.969 Y12.574
X86.83 Y12.632
X86.691 Y12.687
X86.551 Y12.74
X86.41 Y12.792
X86.268 Y12.841
X86.126 Y12.889
X85.983 Y12.935
X85.84 Y12.979
X85.696 Y13.021
X85.552 Y13.062
X85.407 Y13.102
X85.262 Y13.139
X85.116 Y13.176
X84.97 Y13.211
X84.824 Y13.244
X84.678 Y13.277
X84.531 Y13.308
X84.384 Y13.338
X84.237 Y13.367
X84.085 Y13.395
X83.925 Y13.424
X83.769 Y13.451
X83.607 Y13.477
X83.434 Y13.505
X83.25 Y13.532
X83.052 Y13.56
X82.849 Y13.588
X82.641 Y13.614
X82.416 Y13.641
X82.172 Y13.668
X81.912 Y13.696
X81.643 Y13.722
X81.347 Y13.749
X81.017 Y13.776
X80.674 Y13.802
X80.285 Y13.828
X79.851 Y13.854
X79.362 Y13.88
X78.797 Y13.906
X78.124 Y13.932
X77.309 Y13.957
X76.352 Y13.98
X75.394 Y13.997
X74.436 Y14.009
X73.479 Y14.017
X72.521 Y14.023
X71.563 Y14.028
X69.648 Y14.033
X66.775 Y14.037
X61.029 Y14.039
X54.445
G3 X53.881 Y13.574 I0.021 J-0.6
G1 X53.86 Y13.483 Z42.007
X53.839 Y13.394 Z42.029
X53.82 Y13.309 Z42.065
X53.802 Y13.231 Z42.115
X53.786 Y13.161 Z42.176
X53.772 Y13.101 Z42.247
X53.761 Y13.053 Z42.328
X53.753 Y13.018 Z42.415
X53.748 Y12.997 Z42.506
X53.746 Y12.99 Z42.6
G0 Z50.
X89.494 Y7.751
Z43.2
G1 Z42.6 F1800.
X89.498 Y7.757 Z42.506
X89.511 Y7.775 Z42.415
X89.532 Y7.804 Z42.328
X89.561 Y7.844 Z42.247
X89.597 Y7.894 Z42.176
X89.639 Y7.952 Z42.115
X89.686 Y8.017 Z42.065
X89.737 Y8.087 Z42.029
X89.79 Y8.161 Z42.007
X89.845 Y8.238 Z42.
G3 X90.133 Y8.968 I-1.283 J0.927
G1 X90.171 Y9.393
X90.173 Y9.406
X90.327 Y9.945
X90.37 Y10.06
X90.417 Y10.203
X90.456 Y10.348
X90.482 Y10.495
X90.496 Y10.645
X90.499 Y10.795
X90.491 Y10.944
X90.474 Y11.093
X90.449 Y11.241
X90.415 Y11.387
X90.374 Y11.532
X90.327 Y11.674
X90.272 Y11.814
X90.212 Y11.951
X90.147 Y12.086
X90.076 Y12.218
X90. Y12.348
X89.92 Y12.475
X89.835 Y12.598
X89.747 Y12.72
X89.654 Y12.838
X89.559 Y12.953
X89.46 Y13.066
X89.358 Y13.176
X89.253 Y13.283
X89.145 Y13.387
X89.035 Y13.489
X88.922 Y13.588
X88.807 Y13.684
X88.69 Y13.778
X88.571 Y13.87
X88.45 Y13.958
X88.327 Y14.045
X88.203 Y14.129
X88.077 Y14.21
X87.95 Y14.289
X87.821 Y14.366
X87.691 Y14.441
X87.56 Y14.514
X87.427 Y14.584
X87.294 Y14.653
X87.159 Y14.719
X87.024 Y14.783
X86.888 Y14.846
X86.75 Y14.907
X86.612 Y14.965
X86.474 Y15.022
X86.334 Y15.078
X86.194 Y15.131
X86.053 Y15.183
X85.912 Y15.234
X85.77 Y15.282
X85.628 Y15.33
X85.485 Y15.375
X85.342 Y15.42
X85.198 Y15.463
X85.054 Y15.504
X84.909 Y15.544
X84.764 Y15.583
X84.619 Y15.621
X84.474 Y15.658
X84.328 Y15.693
X84.182 Y15.727
X84.035 Y15.76
X83.886 Y15.793
X83.729 Y15.826
X83.57 Y15.858
X83.403 Y15.891
X83.23 Y15.923
X83.051 Y15.955
X82.862 Y15.988
X82.67 Y16.02
X82.464 Y16.052
X82.253 Y16.084
X82.031 Y16.115
X81.792 Y16.148
X81.55 Y16.179
X81.286 Y16.21
X81.008 Y16.241
X80.717 Y16.272
X80.392 Y16.304
X80.06 Y16.334
X79.694 Y16.364
X79.285 Y16.395
X78.86 Y16.424
X78.366 Y16.454
X77.838 Y16.483
X77.215 Y16.511
X76.487 Y16.54
X75.614 Y16.567
X74.657 Y16.59
X73.699 Y16.607
X72.742 Y16.62
X71.784 Y16.629
X70.826 Y16.636
X69.869 Y16.641
X67.953 Y16.648
X65.08 Y16.652
X60.292 Y16.654
X57.419 Y16.655
X57.183 Y16.696
X56.957 Y16.776
X56.749 Y16.894
X56.563 Y17.045
X56.406 Y17.226
X56.283 Y17.431
X56.195 Y17.654
X56.148 Y17.889
X56.141 Y18.128
X56.174 Y18.365
X56.322 Y18.82
X56.867 Y19.608
X57.431 Y20.382
X58.576 Y21.918
X59.019 Y22.52
X59.382 Y23.019
X59.702 Y23.467
X59.998 Y23.887
X60.271 Y24.282
X60.531 Y24.663
X60.782 Y25.036
X61.026 Y25.406
X61.261 Y25.766
X61.488 Y26.122
X61.708 Y26.472
X61.926 Y26.823
X62.139 Y27.172
X62.347 Y27.52
X62.554 Y27.871
X62.756 Y28.219
X62.955 Y28.569
X63.361 Y29.436
X63.771 Y30.302
X64.178 Y31.168
X64.58 Y32.038
X64.972 Y32.912
X65.353 Y33.79
X65.722 Y34.674
X66.079 Y35.563
X66.41 Y36.461
X66.714 Y37.369
X67.002 Y38.283
X67.277 Y39.2
X67.543 Y40.12
X67.799 Y41.043
X68.045 Y41.969
X68.282 Y42.897
X68.508 Y43.827
X68.725 Y44.76
X68.93 Y45.695
X69.125 Y46.633
X69.31 Y47.573
X69.484 Y48.514
X69.647 Y49.458
X69.801 Y50.403
X69.944 Y51.35
X70.078 Y52.299
X70.203 Y53.248
X70.318 Y54.199
X70.425 Y55.151
X70.523 Y56.103
X70.614 Y57.057
X70.697 Y58.011
X70.774 Y58.965
X70.843 Y59.921
X70.907 Y60.876
X70.964 Y61.832
X71.016 Y62.788
X71.063 Y63.745
X71.105 Y64.702
X71.143 Y65.659
X71.177 Y66.616
X71.208 Y67.573
X71.235 Y68.53
X71.258 Y69.488
X71.28 Y70.445
X71.298 Y71.403
X71.315 Y72.36
X71.329 Y73.318
X71.342 Y74.275
X71.352 Y75.233
X71.362 Y76.191
X71.369 Y77.148
X71.376 Y78.106
X71.381 Y79.064
X71.384 Y80.021
X71.387 Y80.979
X71.388 Y81.937
X71.387 Y82.894
X71.384 Y83.852
X71.38 Y84.81
X71.373 Y85.768
X71.364 Y86.725
X71.352 Y87.683
X71.336 Y88.64
X71.317 Y89.598
X71.294 Y90.555
X71.266 Y91.513
X71.234 Y92.47
X71.195 Y93.427
X71.151 Y94.383
X71.1 Y95.34
X71.042 Y96.296
X70.976 Y97.251
X70.903 Y98.206
X70.821 Y99.16
X70.73 Y100.113
X70.629 Y101.066
X70.519 Y102.017
X70.398 Y102.967
X70.267 Y103.916
X70.125 Y104.863
X69.971 Y105.808
X69.806 Y106.752
X69.628 Y107.693
X69.439 Y108.631
X69.237 Y109.568
X69.022 Y110.501
X68.794 Y111.431
X68.552 Y112.358
X68.297 Y113.281
X68.028 Y114.2
X67.746 Y115.115
X67.449 Y116.026
X67.137 Y116.931
X66.811 Y117.832
X66.47 Y118.726
X66.114 Y119.616
X65.743 Y120.499
X65.358 Y121.375
X64.957 Y122.245
X64.542 Y123.108
X64.112 Y123.964
X63.667 Y124.812
X63.207 Y125.652
X62.732 Y126.484
X62.242 Y127.307
X62.101 Y127.576
X62.007 Y127.749
X61.912 Y127.923
X61.82 Y128.088
X61.721 Y128.264
X61.612 Y128.452
X61.493 Y128.655
X61.378 Y128.847
X61.262 Y129.038
X61.135 Y129.245
X60.995 Y129.469
X60.857 Y129.686
X60.721 Y129.895
X60.571 Y130.124
X60.403 Y130.374
X60.253 Y130.596
X60.093 Y130.827
X59.915 Y131.081
X59.735 Y131.334
X59.567 Y131.567
X59.378 Y131.825
X59.175 Y132.097
X58.997 Y132.332
X58.798 Y132.592
X58.576 Y132.875
X58.39 Y133.111
X58.18 Y133.372
X57.946 Y133.659
X57.75 Y133.895
X57.53 Y134.157
X57.287 Y134.441
X57.083 Y134.677
X56.853 Y134.939
X56.256 Y135.607
X55.806 Y136.104
X55.474 Y136.466
X55.188 Y136.773
X54.921 Y137.055
X54.677 Y137.309
X54.325 Y137.668
X54.095 Y137.899
X53.924 Y138.068
X53.785 Y138.263
X53.682 Y138.479
X53.616 Y138.709
X53.591 Y138.947
X53.607 Y139.186
X53.663 Y139.419
X53.758 Y139.638
X53.889 Y139.839
X54.052 Y140.014
X54.243 Y140.159
X54.455 Y140.269
X55.368 Y140.558
X56.324 Y140.623
X57.281 Y140.667
X58.238 Y140.697
X59.195 Y140.718
X60.153 Y140.732
X61.11 Y140.741
X62.068 Y140.748
X63.026 Y140.752
X64.941 Y140.757
X67.814 Y140.76
X76.434 Y140.761
X87.839
X88.06 Y140.763
X89.014 Y140.847
X89.039 Y140.85
X89.345 Y140.93
X89.626 Y141.076
X89.867 Y141.282
X90.055 Y141.537
X90.181 Y141.827
X90.277 Y142.141
X90.278 Y142.167 Z42.006
G2 X90.203 Y143.078 Z42.2 I3.515 J0.748
X90.234 Y143.415 I3.59 J-0.162
X90.682 Y143.913 I0.594 J-0.083
G1 X96.061 Y145.267
G2 X96.692 Y145.04 I0.146 J-0.582
X96.895 Y144.73 I-2.899 J-2.124
G1 X96.979 Y144.578 Z42.163
G2 X97.243 Y143.92 Z42.012 I-3.186 J-1.663
G1 X97.258 Y143.896 Z42.006
X97.283 Y143.882 Z42.
X97.827 Y143.762
X98.153 Y143.656
X101.196 Y142.649
X101.414 Y142.573
X102.066 Y142.274
X102.132 Y142.239
X102.667 Y141.989
X103.239 Y141.774
X104.019 Y141.552
X104.958 Y141.364
X105.908 Y141.238
X106.861 Y141.145
X107.751 Y140.79
X108.508 Y140.203
X109.116 Y139.464
X109.59 Y138.632
X109.951 Y137.745
X110.223 Y136.826
X110.425 Y135.89
X110.551 Y135.088
X110.591 Y134.91
X110.654 Y134.739
X110.738 Y134.578
X110.843 Y134.406
X112.031 Y132.23
X112.382 Y131.577
X112.47 Y131.359
X112.553 Y131.141
X112.636 Y130.924
X113.427 Y128.573
X113.438 Y128.555 Z42.005
X113.456 Y128.542 Z42.009
G2 X114.239 Y128.105 Z42.2 I-2.216 J-4.886
X116.262 Y125.544 I-2.999 J-4.448
G1 X116.288 Y125.454
X116.299 Y125.36
X116.433 Y122.416
X116.429 Y122.322
X116.412 Y122.23
G2 X114.627 Y119.496 I-5.171 J1.427
X113.888 Y118.991 Z42.01 I-3.387 J4.16
G1 X113.871 Y118.976 Z42.005
X113.861 Y118.956 Z42.
X113.805 Y118.692
X113.572 Y117.65
X113.521 Y117.433
X113.336 Y116.78
X112.89 Y115.474
X112.815 Y115.256
X112.659 Y114.821
X112.566 Y114.604
X112.246 Y113.951
X112.138 Y113.733
X111.91 Y113.209
X111.694 Y112.575
X111.469 Y111.692
X111.308 Y110.748
X111.2 Y109.797
X111.127 Y108.842
X111.078 Y107.885
X111.045 Y106.928
X111.023 Y105.971
X111.008 Y105.013
X110.997 Y104.055
X110.99 Y103.098
X110.985 Y102.14
X110.982 Y101.182
X110.979 Y99.267
X110.976 Y95.436
X110.975 Y63.832
Y38.911
X111.001 Y38.647
X111.075 Y38.393
X111.196 Y38.158
X111.273 Y38.008
X111.631 Y37.29
X112.283 Y35.974
X112.566 Y35.396
X112.659 Y35.179
X112.815 Y34.744
X112.89 Y34.526
X113.336 Y33.22
X113.428 Y32.896
G3 X114.028 Y32.48 I0.571 J0.183
G1 X114.122 Y32.484 Z42.007
X114.213 Y32.488 Z42.029
X114.3 Y32.493 Z42.065
X114.38 Y32.496 Z42.115
X114.452 Y32.5 Z42.176
X114.513 Y32.503 Z42.247
X114.562 Y32.505 Z42.328
X114.598 Y32.507 Z42.415
X114.62 Y32.508 Z42.506
X114.627 Z42.6
G0 Z50.
X113.175 Y114.636
Z43.2
G1 Z42.6 F1800.
X113.169 Y114.632 Z42.506
X113.15 Y114.62 Z42.415
X113.12 Y114.601 Z42.328
X113.079 Y114.574 Z42.247
X113.027 Y114.541 Z42.176
X112.967 Y114.502 Z42.115
X112.9 Y114.458 Z42.065
X112.827 Y114.411 Z42.029
X112.75 Y114.361 Z42.007
X112.671 Y114.31 Z42.
G3 X112.138 Y113.733 I0.86 J-1.329
G1 X111.491 Y112.428
X111.273 Y111.992
X111.196 Y111.842
X110.733 Y111.122
X110.544 Y110.837
X110.327 Y110.523
X110.29 Y110.469
X110.199 Y110.35
X110.05 Y110.131
X109.845 Y109.77
X109.628 Y109.305
X109.401 Y108.696
X109.168 Y107.873
X108.982 Y106.934
X108.855 Y105.984
X108.768 Y105.031
X108.708 Y104.075
X108.667 Y103.118
X108.639 Y102.161
X108.619 Y101.203
X108.605 Y100.246
X108.596 Y99.288
X108.59 Y98.33
X108.585 Y97.373
X108.58 Y95.457
X108.577 Y92.584
X108.575 Y84.923
Y60.023
Y42.135
X108.597 Y41.891
X108.66 Y41.655
X108.764 Y41.433
X108.905 Y41.233
X109.79 Y40.184
X109.892 Y40.054
X110.125 Y39.748
X110.29 Y39.531
X110.441 Y39.313
X110.544 Y39.163
X110.762 Y38.834
X111.196 Y38.158
G3 X111.892 Y37.935 I0.493 J0.342
G1 X111.98 Y37.966 Z42.007
X112.067 Y37.997 Z42.029
X112.148 Y38.027 Z42.065
X112.224 Y38.054 Z42.115
X112.291 Y38.078 Z42.176
X112.349 Y38.098 Z42.247
X112.395 Y38.115 Z42.328
X112.429 Y38.127 Z42.415
X112.45 Y38.135 Z42.506
X112.457 Y38.137 Z42.6
G0 Z50.
X111.386 Y111.044
Z43.2
G1 Z42.6 F1800.
X111.379 Y111.041 Z42.506
X111.358 Y111.033 Z42.415
X111.325 Y111.019 Z42.328
X111.28 Y111. Z42.247
X111.223 Y110.977 Z42.176
X111.157 Y110.95 Z42.115
X111.082 Y110.92 Z42.065
X111.002 Y110.887 Z42.029
X110.917 Y110.853 Z42.007
X110.83 Y110.817 Z42.
G3 X110.199 Y110.35 I0.597 J-1.466
G1 X109.892 Y109.946
X109.79 Y109.816
X108.505 Y108.293
X108.37 Y108.135
X108.153 Y107.895
X107.972 Y107.674
X107.759 Y107.365
X107.539 Y106.985
X107.307 Y106.498
X107.067 Y105.865
X106.821 Y105.022
X106.628 Y104.084
X106.493 Y103.136
X106.398 Y102.183
X106.332 Y101.228
X106.285 Y100.271
X106.253 Y99.314
X106.23 Y98.357
X106.213 Y97.399
X106.202 Y96.441
X106.194 Y95.484
X106.188 Y94.526
X106.185 Y93.568
X106.18 Y91.653
X106.177 Y88.78
X106.175 Y81.118
Y58.134
Y44.726
X106.176 Y44.576
X106.21 Y44.283
X106.304 Y44.003
X106.454 Y43.748
X106.655 Y43.531
X107.066 Y43.172
X107.245 Y43.012
X107.714 Y42.577
X107.923 Y42.36
X108.37 Y41.865
X108.588 Y41.609
X108.905 Y41.233
G3 X109.624 Y41.101 I0.445 J0.403
G1 X109.707 Y41.144 Z42.007
X109.789 Y41.186 Z42.029
X109.866 Y41.226 Z42.065
X109.938 Y41.262 Z42.115
X110.001 Y41.295 Z42.176
X110.056 Y41.323 Z42.247
X110.1 Y41.345 Z42.328
X110.132 Y41.362 Z42.415
X110.151 Y41.372 Z42.506
X110.158 Y41.375 Z42.6
G0 Z50.
X109.396 Y108.482
Z43.2
G1 Z42.6 F1800.
X109.389 Y108.48 Z42.506
X109.368 Y108.473 Z42.415
X109.333 Y108.463 Z42.328
X109.286 Y108.448 Z42.247
X109.228 Y108.43 Z42.176
X109.159 Y108.409 Z42.115
X109.083 Y108.385 Z42.065
X109. Y108.36 Z42.029
X108.912 Y108.333 Z42.007
X108.822 Y108.305 Z42.
G3 X108.153 Y107.895 I0.466 J-1.512
G1 X107.923 Y107.64
X107.714 Y107.423
X107.245 Y106.988
X107.066 Y106.828
X106.414 Y106.258
X106.249 Y106.117
X106.108 Y105.994
X105.908 Y105.788
X105.687 Y105.521
X105.466 Y105.206
X105.226 Y104.795
X104.984 Y104.295
X104.731 Y103.642
X104.472 Y102.772
X104.273 Y101.835
X104.131 Y100.888
X104.03 Y99.936
X103.957 Y98.981
X103.905 Y98.025
X103.868 Y97.068
X103.842 Y96.11
X103.823 Y95.153
X103.809 Y94.195
X103.799 Y93.238
X103.792 Y92.28
X103.787 Y91.322
X103.784 Y90.365
X103.78 Y88.449
X103.777 Y85.576
X103.775 Y77.915
Y55.888
Y47.268
X103.779 Y46.311
X103.798 Y46.005
X103.845 Y45.722
X103.949 Y45.453
X104.106 Y45.212
X104.309 Y45.008
X104.549 Y44.85
X104.817 Y44.744
X105.014 Y44.688
X105.33 Y44.536
X105.544 Y44.429
X105.698 Y44.318
X106.249 Y43.883
X106.414 Y43.742
X106.655 Y43.531
G3 X107.385 Y43.51 I0.379 J0.465
G1 X107.461 Y43.565 Z42.007
X107.536 Y43.619 Z42.029
X107.606 Y43.67 Z42.065
X107.671 Y43.717 Z42.115
X107.729 Y43.759 Z42.176
X107.779 Y43.795 Z42.247
X107.819 Y43.823 Z42.328
X107.848 Y43.845 Z42.415
X107.866 Y43.857 Z42.506
X107.872 Y43.862 Z42.6
G0 Z50.
X107.572 Y106.49
Z43.2
G1 Z42.6 F1800.
X107.565 Y106.489 Z42.506
X107.543 Y106.486 Z42.415
X107.507 Y106.482 Z42.328
X107.458 Y106.475 Z42.247
X107.398 Y106.467 Z42.176
X107.327 Y106.458 Z42.115
X107.247 Y106.447 Z42.065
X107.161 Y106.435 Z42.029
X107.07 Y106.423 Z42.007
X106.977 Y106.411 Z42.
G3 X106.249 Y106.117 I0.209 J-1.569
G1 X105.698 Y105.682
X105.544 Y105.571
X105.327 Y105.463
X105.014 Y105.312
X105.001 Y105.308
X104.844 Y105.255
X104.693 Y105.19
X104.521 Y105.1
X104.323 Y104.975
X104.118 Y104.82
X103.906 Y104.632
X103.668 Y104.384
X103.43 Y104.093
X103.176 Y103.725
X102.917 Y103.276
X102.644 Y102.702
X102.372 Y101.986
X102.105 Y101.066
X101.909 Y100.128
X101.765 Y99.182
X101.66 Y98.23
X101.583 Y97.275
X101.527 Y96.319
X101.486 Y95.362
X101.456 Y94.405
X101.434 Y93.448
X101.418 Y92.49
X101.406 Y91.532
X101.397 Y90.575
X101.391 Y89.617
X101.387 Y88.659
X101.381 Y86.744
X101.378 Y83.871
X101.376 Y78.125
X101.375 Y56.098
Y49.394
X101.376 Y48.436
X101.398 Y47.479
X101.462 Y46.857
X101.555 Y46.359
X101.665 Y45.953
X101.732 Y45.766
X101.869 Y45.487
X102.064 Y45.244
X102.308 Y45.051
X102.588 Y44.917
X102.892 Y44.847
X103.203
X103.49 Y44.878
G3 X103.999 Y45.402 I-0.086 J0.594
G1 X104.01 Y45.495 Z42.007
X104.021 Y45.586 Z42.029
X104.031 Y45.672 Z42.065
X104.041 Y45.752 Z42.115
X104.049 Y45.823 Z42.176
X104.056 Y45.884 Z42.247
X104.062 Y45.933 Z42.328
X104.066 Y45.969 Z42.415
X104.069 Y45.99 Z42.506
Y45.998 Z42.6
G0 Z50.
X106.365 Y105.143
Z43.2
G1 Z42.6 F1800.
X106.358 Y105.145 Z42.506
X106.337 Y105.15 Z42.415
X106.302 Y105.16 Z42.328
X106.255 Y105.172 Z42.247
X106.196 Y105.188 Z42.176
X106.127 Y105.207 Z42.115
X106.049 Y105.228 Z42.065
X105.965 Y105.25 Z42.029
X105.877 Y105.274 Z42.007
X105.786 Y105.298 Z42.
G3 X105.001 Y105.308 I-0.411 J-1.528
G1 X104.403 Y105.14
X104.376 Y105.137
X103.791 Y105.089
X103.778 Y105.09
X103.628 Y105.099
X103.479 Y105.08
X103.307 Y105.043
X103.126 Y104.989
X102.928 Y104.912
X102.703 Y104.803
X102.479 Y104.672
X102.224 Y104.493
X101.967 Y104.28
X101.694 Y104.014
X101.398 Y103.675
X101.114 Y103.291
X100.808 Y102.801
X100.504 Y102.212
X100.198 Y101.482
X99.9 Y100.572
X99.673 Y99.641
X99.501 Y98.699
X99.37 Y97.75
X99.271 Y96.798
X99.196 Y95.843
X99.14 Y94.887
X99.098 Y93.93
X99.066 Y92.973
X99.043 Y92.016
X99.025 Y91.058
X99.012 Y90.101
X99.002 Y89.143
X98.995 Y88.185
X98.99 Y87.228
X98.986 Y86.27
X98.981 Y84.355
X98.978 Y81.481
X98.976 Y75.735
X98.975 Y56.581
X98.976 Y50.835
X98.98 Y49.877
X98.999 Y48.92
X99.058 Y47.964
X99.157 Y47.178
X99.278 Y46.595
X99.42 Y46.113
X99.567 Y45.728
X99.744 Y45.358
X99.919 Y45.058
X100.124 Y44.763
X100.215 Y44.653
X100.423 Y44.447
X100.67 Y44.29
X100.944 Y44.187
X101.233 Y44.144
X101.525 Y44.162
X101.807 Y44.241
X102.066 Y44.376
X102.185 Y44.447
G3 X102.434 Y45.134 I-0.323 J0.505
G1 X102.406 Y45.223 Z42.007
X102.378 Y45.31 Z42.029
X102.352 Y45.393 Z42.065
X102.327 Y45.47 Z42.115
X102.306 Y45.538 Z42.176
X102.287 Y45.596 Z42.247
X102.272 Y45.643 Z42.328
X102.261 Y45.678 Z42.415
X102.255 Y45.699 Z42.506
X102.253 Y45.706 Z42.6
G0 Z50.
X104.982 Y104.426
Z43.2
G1 Z42.6 F1800.
X104.976 Y104.431 Z42.506
X104.958 Y104.444 Z42.415
X104.93 Y104.466 Z42.328
X104.89 Y104.495 Z42.247
X104.841 Y104.532 Z42.176
X104.784 Y104.575 Z42.115
X104.72 Y104.624 Z42.065
X104.651 Y104.676 Z42.029
X104.578 Y104.731 Z42.007
X104.503 Y104.788 Z42.
G3 X103.778 Y105.09 I-0.953 J-1.264
G1 X103.18 Y105.156
X102.797 Y105.277
X102.652 Y105.315
X102.504 Y105.341
X102.353 Y105.354
X102.186 Y105.355
X101.995 Y105.34
X101.794 Y105.308
X101.565 Y105.253
X101.332 Y105.176
X101.065 Y105.064
X100.799 Y104.927
X100.497 Y104.738
X100.203 Y104.52
X99.87 Y104.228
X99.553 Y103.903
X99.196 Y103.47
X98.863 Y102.995
X98.509 Y102.391
X98.153 Y101.655
X97.807 Y100.762
X97.534 Y99.844
X97.318 Y98.911
X97.149 Y97.969
X97.017 Y97.02
X96.914 Y96.068
X96.835 Y95.113
X96.773 Y94.158
X96.726 Y93.201
X96.689 Y92.244
X96.661 Y91.287
X96.64 Y90.329
X96.624 Y89.372
X96.612 Y88.414
X96.603 Y87.457
X96.596 Y86.499
X96.591 Y85.541
X96.584 Y83.626
X96.58 Y81.711
X96.577 Y77.88
X96.575 Y67.345
Y57.768
Y52.98
X96.577 Y52.022
X96.583 Y51.064
X96.602 Y50.107
X96.646 Y49.15
X96.729 Y48.196
X96.864 Y47.271
X97.048 Y46.471
X97.262 Y45.797
X97.485 Y45.25
X97.716 Y44.79
X97.946 Y44.413
X98.174 Y44.099
X98.42 Y43.811
X98.659 Y43.574
X98.916 Y43.356
X99.168 Y43.176
X99.319 Y43.085
X99.595 Y42.958
X99.891 Y42.893
X100.194 Y42.894
X100.491 Y42.959
X100.766 Y43.087
X101.007 Y43.272
X101.202 Y43.503
G3 X101.131 Y44.231 I-0.509 J0.317
G1 X101.067 Y44.299 Z42.007
X101.005 Y44.366 Z42.029
X100.945 Y44.43 Z42.065
X100.891 Y44.488 Z42.115
X100.842 Y44.54 Z42.176
X100.8 Y44.585 Z42.247
X100.766 Y44.621 Z42.328
X100.742 Y44.647 Z42.415
X100.727 Y44.663 Z42.506
X100.722 Y44.669 Z42.6
G0 Z50.
X103.848 Y104.391
Z43.2
G1 Z42.6 F1800.
X103.843 Y104.397 Z42.506
X103.828 Y104.413 Z42.415
X103.804 Y104.44 Z42.328
X103.772 Y104.477 Z42.247
X103.731 Y104.522 Z42.176
X103.683 Y104.576 Z42.115
X103.63 Y104.636 Z42.065
X103.572 Y104.701 Z42.029
X103.511 Y104.769 Z42.007
X103.449 Y104.839 Z42.
G3 X102.797 Y105.277 I-1.181 J-1.053
G1 X102.718 Y105.302
X102.501 Y105.383
X102.283 Y105.495
X102.066 Y105.624
X101.978 Y105.682
X101.957 Y105.702
X101.841 Y105.796
X101.705 Y105.861
X101.564 Y105.913
X101.413 Y105.954
X101.236 Y105.988
X101.048 Y106.008
X100.83 Y106.014
X100.603 Y106.002
X100.343 Y105.968
X100.079 Y105.91
X99.776 Y105.819
X99.473 Y105.7
X99.133 Y105.534
X98.796 Y105.334
X98.426 Y105.073
X98.053 Y104.761
X97.663 Y104.378
X97.254 Y103.907
X96.86 Y103.372
X96.45 Y102.708
X96.044 Y101.917
X95.677 Y101.032
X95.377 Y100.123
X95.132 Y99.197
X94.934 Y98.26
X94.775 Y97.316
X94.647 Y96.366
X94.545 Y95.414
X94.464 Y94.46
X94.4 Y93.504
X94.349 Y92.548
X94.31 Y91.591
X94.279 Y90.634
X94.255 Y89.677
X94.236 Y88.719
X94.222 Y87.762
X94.21 Y86.804
X94.202 Y85.846
X94.195 Y84.889
X94.191 Y83.931
X94.184 Y82.015
X94.179 Y79.142
X94.176 Y74.354
X94.175 Y59.031
X94.176 Y54.242
X94.177 Y53.285
X94.184 Y52.327
X94.2 Y51.369
X94.232 Y50.412
X94.289 Y49.456
X94.379 Y48.503
X94.516 Y47.555
X94.712 Y46.617
X94.964 Y45.734
X95.238 Y45.005
X95.541 Y44.359
X95.87 Y43.785
X96.213 Y43.284
X96.55 Y42.868
X96.893 Y42.506
X97.198 Y42.234
X97.519 Y41.991
X97.811 Y41.803
X98.124 Y41.637
X98.408 Y41.514
X98.717 Y41.409
X98.996 Y41.338
X99.096 Y41.321
X99.395 Y41.303
X99.69 Y41.349
X99.97 Y41.457
X100.22 Y41.621
X100.429 Y41.835
X100.588 Y42.089
X100.689 Y42.37
G3 X100.372 Y43.028 I-0.588 J0.122
G1 X100.288 Y43.07 Z42.007
X100.206 Y43.111 Z42.029
X100.128 Y43.15 Z42.065
X100.057 Y43.186 Z42.115
X99.993 Y43.219 Z42.176
X99.938 Y43.246 Z42.247
X99.894 Y43.268 Z42.328
X99.862 Y43.284 Z42.415
X99.842 Y43.294 Z42.506
X99.836 Y43.298 Z42.6
G0 Z50.
X89.425 Y9.062
Z43.2
G1 Z42.6 F1800.
